!!!!SEGMENT: pl-wn--mus-iii-70-268--003_zelenski-wladyslaw--sonate-op-30-molto-sostenuto.krn
!!!cenid: 18xx:3712
!!!COM: Żeleński, Władysław
!!!COM-rismID: pe41024455
!!!CDT: 1837/07/06-1921/01/23
!!!CNT: Polish
!!!OPR: Sonate op. 30
!!!OTL: Molto sostenuto
!!!OMV: 003
!!!PDT: 1879
!!!AGN:
!!!SMS-siglum: PL-Wn
!!!SMS-shelfmark: Mus.III.70.268
!!!SMS-shelfwork: M
!!!SMS-variant:
!!!SMS-altvar:
!!!NIFC-rismSourceID:
!!!NIFC-rismChildID:
!!!NIFC-islandoraID: none
!!!URL-pdf-islandora:
!!!URL-scan: https://polona.pl/item/sonate-pour-piano-et-violon-op-30,NTgxNDg1Mw/2 @EN{Scan on Polona} @PL{Skany w portalu Polona}
!!!ONB-nifc: UWAGA: części Sonaty: 1. Allegro non troppo, 2. Allegretto, 3. Molto sostenuto
!!!OMD: Molto sostenuto. ([eighth]=87.)
!!!AIN: 1 piano 1 violn
!!!key: g
**kern	**kern	**fing	**dynam	**kern	**fing	**dynam
*part2	*part2	*part2	*part2	*part1	*part1	*part1
*staff3	*staff2	*staff2	*	*staff1	*staff1	*
*I"Piano.	*I"Piano.	*	*	*I"Violon.	*	*
*Ipiano	*Ipiano	*	*	*Ivioln	*	*
*ICklav	*ICklav	*	*	*ICstr	*	*
*clefF4	*clefG2	*	*	*clefG2	*	*
*kcancel	*kcancel	*	*	*kcancel	*	*
*k[b-e-]	*k[b-e-]	*	*	*k[b-e-]	*	*
*g:	*g:	*	*	*g:	*	*
*M4/4	*M4/4	*	*	*M4/4	*	*
*met(c)	*met(c)	*	*	*met(c)	*	*
*	*	*	*	*scale:70%	*	*
=1	=1	=1	=1	=1	=1	=1
*	*clefF4	*	*	*	*	*
(4.DD/	4r	.	p	1r	.	.
.	(2d 2D^\	.	<	.	.	.
8C 8CC/	.	.	.	.	.	.
4BB- 4BBB-/	.	.	.	.	.	.
4AA 4AAA/)	4d 4c 4D'\)	.	[	.	.	.
=2	=2	=2	=2	=2	=2	=2
(2GG 2GGG/	[2d [2B- [2D\	.	p	8r	.	.
.	.	.	.	([8d^/	.	p
.	.	.	.	16d/LL]	.	<
.	.	.	.	16c#X/	.	.
.	.	.	.	16d/	.	.
.	.	.	.	16f#X/JJ	.	.
2FF 2FFF/)	2d] 2B-] 2D\]	.	.	16g/LL	.	.
.	.	.	.	16a/	.	.
.	.	.	.	16b-/	.	.
.	.	.	.	16ccn/JJ	.	.
.	.	.	.	16cc#X\LL)	.	.
.	.	.	.	(16dd\	.	.
.	.	.	.	16.bb-\	.	.
.	.	.	.	32bb-'\JJk)	.	[
*	*clefG2	*	*	*	*	*
=3	=3	=3	=3	=3	=3	=3
2EEn 2EEEn/	8r	.	.	(4bb-\	.	>
.	(4f#X 4F#X^/	.	.	.	.	.
.	.	.	.	2cc\)	.	]
.	8a 8A/	.	.	.	.	.
2EE-X 2EEE-X/	8gL 8G/	.	<	.	.	.
.	8a 8A/	.	.	.	.	.
.	8b- 8B-/)	.	.	4r	.	.
.	[8ccJ [8c/	.	[[	.	.	.
!!LO:LB:g=original
=4	=4	=4	=4	=4	=4	=4
8DD 8DDD/	8cc]L 8c/]	.	.	1r	.	.
8r	[8f/J	.	.	.	.	.
(8d\L	16f/LL]	.	<	.	.	.
.	16en/	.	.	.	.	.
8A\J	16f/	.	.	.	.	.
.	16g/JJ	.	.	.	.	.
8D/L)	16g#X\LL	.	.	.	.	.
.	16a\	.	.	.	.	.
(8D/	16dd\	.	.	.	.	.
.	16ff\JJ	.	[	.	.	.
8AA/	16gg#X\LL	.	.	.	.	.
.	16aa\	.	.	.	.	.
8CC/J)	16.fff\	.	.	.	.	.
.	32fffJJk 32ff\	.	.	.	.	.
=5	=5	=5	=5	=5	=5	=5
(2BBn 2BBBn/	(4fff 4ff\	.	>	8r	.	.
.	.	.	.	(4c#X^>/	.	.
.	2gg 2g\)	.	]	.	.	.
.	.	.	.	8en/)	.	.
2BB-X 2BBB-/)	.	.	.	(8d/L	.	<
.	.	.	.	8e/)	.	.
.	[4gg [4g\	.	.	8f/	.	.
.	.	.	.	8g/J	.	[[
=6	=6	=6	=6	=6	=6	=6
(2AA 2AAA/	16gg]LL 16g\]	.	.	2a/	.	.
.	(16gg\	.	.	.	.	.
.	16een\	.	.	.	.	.
.	16cc#X\JJ	.	.	.	.	.
.	16g/LL	.	.	.	.	.
.	16en/	.	.	.	.	.
.	16c#X/	.	.	.	.	.
.	16g/JJ)	.	.	.	.	.
2AA-X 2AAA-/)	16r	.	.	(2bnt\	.	<
.	(16dd\LL	.	.	.	.	.
.	16bn\	.	.	.	.	.
.	16f\JJ	.	.	.	.	.
!	!LO:TX:t=P:problem:mixed beam	!	!	!	!	!
.	16d\LL	.	.	.	.	.
.	16Bn\	.	.	.	.	.
.	16F</	.	.	.	.	.
.	16d\JJ)	.	.	.	.	.
.	.	.	.	16qqa/L	.	.
.	.	.	.	16qqb/J)	.	.
!!LO:LB:g=original
=7	=7	=7	=7	=7	=7	=7
2GG 2GGG/	16r	.	.	(4.cc\	.	.
.	(16ee-\LL	.	<	.	.	.
.	16cc\	.	.	.	.	.
.	16b-\JJ	.	.	.	.	.
.	16e-/LL	.	.	.	.	.
.	16c/	.	.	.	.	.
.	16B-/	.	.	8dd\	.	.
.	16e-/JJ	.	.	.	.	.
[4GG- [4GGG-/	16c/LL	.	.	8ee-\)	.	.
.	16B-/	.	.	.	.	.
.	16E-</	.	.	(4ee-\	.	.
.	16c/JJ	5	.	.	.	.
8GG-] 8GGG-\]	16B-/LL	.	[	.	.	.
.	16E-</	.	.	.	.	.
16r	16C</JJ)	.	.	8ccc\)	.	.
(<16GG-\	16r	.	.	.	.	.
*	*clefF4	*	*	*	*	*
=8	=8	=8	=8	=8	=8	=8
4.FF/	4r	.	.	(8bb-\L	.	.
.	.	.	.	[8aa\J	.	.
.	[2f 2F^\	.	>	16aa\LL])	.	>
.	.	.	.	(16aa~\	.	.
8E- 8EE-/	.	.	.	16bb-~\	.	.
.	.	.	.	16ccc~\JJ)	.	.
4D 4DD/	.	.	.	(8ccc\L	.	.
.	.	.	.	8ff\J)	.	]
4C 4CC/)	4f] 4e- 4F'\	.	]	4r	.	.
=9	=9	=9	=9	=9	=9	=9
*	*^	*	*	*	*	*
(2BBn 2BBBn/	[2f [<2F/	4e-\	.	pp	8r	.	.
.	.	.	.	.	([8f/	.	p
.	.	4d\	.	.	16f/LL]	.	.
.	.	.	.	.	16en/	.	.
.	.	.	.	.	16f/	.	.
.	.	.	.	.	16a-X/JJ)	.	.
2BB-X 2BBB-/)	8f] 8F/]	[2d-X\	.	.	([4g/	.	.
.	4f 4F/	.	.	<	.	.	.
.	.	.	.	.	16g/LL]	.	.
.	.	.	.	.	16f#X/	.	<
.	8en 8En/	.	.	.	16g/	.	.
.	.	.	.	.	16b-/JJ)	.	.
*	*v	*v	*	*	*	*	*
=10	=10	=10	=10	=10	=10	=10
4r	4e-X 4d-X] 4E-X\	.	.	(<[4a/	.	.
8r	[2e- 2c 2E-\	.	.	16a/LL]	.	.
.	.	.	.	16g/	.	.
(8BB- 8BBB-/	.	.	.	16a/	.	.
.	.	.	.	16b-/JJ	.	.
!	!	!	!	!LO:TUP:a	!	!
4AA 4AAA/	.	.	.	12cc\L)	.	<
.	.	.	.	(12cc\	.	.
.	.	.	.	12dd\J	.	.
!	!	!	!	!LO:TUP:a	!	!
4GG 4GGG/)	4e-] 4B- 4E-\	.	.	12ee-\L)	.	.
.	.	.	.	12ee-\	.	.
.	.	.	.	12ee-\J	.	[
!!LO:LB:g=original
=11	=11	=11	=11	=11	=11	=11
!	!	!	!	!LO:TX:b:i:t=con passione	!	!
2FF#X 2FFF#X/	4e- [<4c [4A 4E-\	.	sfz >	(8ee-\L	.	.
.	.	.	.	8a\J)	.	.
.	4d 4c] 4A] 4D\	.	]	16r	.	.
.	.	.	.	(16a/LL	.	.
.	.	.	.	16b-/	.	.
.	.	.	.	16cc/JJ)	.	.
2r	2r	.	.	16cc/LL	.	.
.	.	.	.	(16f#X/	.	.
.	.	.	.	16g/	.	.
.	.	.	.	16a/JJ)	.	.
.	.	.	.	16a/LL	.	.
.	.	.	.	(16c/	.	.
.	.	.	.	16d/	.	.
.	.	.	.	16e-/JJ)	.	.
=12	=12	=12	=12	=12	=12	=12
(4.DD/	4r	.	.	(4a/	.	.
.	[2d 2D^\	.	.	[4d/	.	.
8C 8CC/	.	.	.	.	.	.
4BB- 4BBB-/	.	.	.	8d/L])	.	.
!	!	!	!	!	!	!LO:HP:a
.	.	.	.	(8d/	.	>
4AA 4AAA/)	4d] 4c 4D'\	.	.	8en/	.	.
.	.	.	.	8f#X/J)	.	]
=13	=13	=13	=13	=13	=13	=13
(2.GG 2.GGG/	8r	.	p	(4a/	.	.
.	([8D^\	.	.	.	.	.
.	16D\LL]	.	.	[4g/	.	.
.	16C#X\	.	.	.	.	.
.	16D\	.	.	.	.	.
.	16F#X\JJ	.	.	.	.	.
.	16G\LL	.	.	8g/L])	.	.
.	16A\	.	.	.	.	.
.	16B-\	.	.	(8a/	.	.
.	16cn\JJ	.	.	.	.	.
*	*clefG2	*	*	*	*	*
4FF 4FFF/)	16c#X/LL	.	.	8b-/	.	.
.	16d/	.	.	.	.	.
.	16.b-/)	.	.	8dd/J)	.	.
.	32b-/JJk	.	.	.	.	.
!!LO:LB:g=original
=14	=14	=14	=14	=14	=14	=14
(1EEn 1EEEn	8b-/L	.	.	(4dd\	.	.
*	*clefF4	*	*	*	*	*
!	!	!	!LO:HP:t=cresc. poco a poco	!	!	!LO:HP:t=cresc. poco a poco
.	(<[8C^/J	.	<	.	.	<
.	16C\LL]	.	.	[4cc\	.	.
.	16F#X\	.	.	.	.	.
.	16G\	.	.	.	.	.
.	16A\JJ	.	.	.	.	.
.	16F#\LL	.	.	8cc\L])	.	.
.	16G\	.	.	.	.	.
.	16A\	.	.	(8cc\	.	.
.	16B-\JJ	.	.	.	.	.
*	*clefG2	*	*	*	*	*
.	16d-X/LL	.	.	8a\	.	.
.	16c/	.	.	.	.	.
.	16.g/)	.	.	8b-\J)	.	.
.	(32g/JJk	.	.	.	.	.
=15	=15	=15	=15	=15	=15	=15
4EE-X 4EEE-X/)	8A/L)	.	.	(4gg\	.	.
.	([8F^/J	.	.	.	.	.
(4E- 4EE-/	16F/LL]	.	.	[4ff\	.	.
.	16En/	.	.	.	.	.
.	16F/	.	.	.	.	.
.	16A/JJ	.	.	.	.	.
4D 4DD/	16c/LL	.	.	8ff\L])	.	.
.	16A/	.	.	.	.	.
.	16B-/	.	.	(8gg\	.	.
.	16f/JJ	.	.	.	.	.
4D-X 4DD-X/)	16g\LL	.	.	8aa\	.	.
.	16f\	.	.	.	.	.
.	16.ff\)	.	.	8bb-\J)	.	.
.	32ff\JJk	.	.	.	.	.
!!LO:PB:g=original
=16	=16	=16	=16	=16	=16	=16
[2C [2CC/	(16ff\LL	.	.	(4ddd-X\	.	.
.	16een\	.	.	.	.	.
.	16g\	.	.	.	.	.
.	16dd-X\JJ	.	.	.	.	.
.	16b-/LL	.	<	[4gg\	.	.
.	16g/	.	.	.	.	.
.	16f/	.	.	.	.	.
.	16d-X/JJ	.	.	.	.	.
8C] 8CC/]	16f/LL	.	.	8gg\L])	.	<
.	16en/	.	.	.	.	.
8r	16G/	.	.	(8gg\	.	.
.	16d-/JJ	.	.	.	.	.
4r	16B-/LL	.	[	8bb-\)	.	.
.	16G/	.	.	.	.	.
*	*clefF4	*	*	*	*	*
.	16F/	.	.	(8dd-X\J	.	[
.	16D-X/JJ)	.	.	.	.	.
=17	=17	=17	=17	=17	=17	=17
*ped	*	*	*	*	*	*
!	!	!	!LO:DY:t=sfz molto	!	!	!
[2BBB-/	[2G [2D-X [2BB- [2GG/	.	sfz	16ff\LL	.	f
.	.	.	.	16een\)	.	.
.	.	.	.	16g\	.	.
.	.	.	.	16dd-X\JJ	.	.
.	.	.	.	(16b-/LL	.	.
.	.	.	.	16g/	.	.
.	.	.	.	16f/	.	.
.	.	.	.	16d-X/JJ	.	.
8BBB-/]	8G] 8D-] 8BB-] 8GG/]	.	.	16f/LL	.	.
*Xped	*	*	*	*	*	*
.	.	.	.	16en/)	.	.
8r	8r	.	.	(16G/	.	>
.	.	.	.	16d-X/JJ)	.	.
4r	4r	.	.	(16B-/LL	.	.
.	.	.	.	16G/	.	.
.	.	.	.	16A-X/	.	.
.	.	.	.	16B-/JJ	.	]
=18	=18	=18	=18	=18	=18	=18
(4.FF 4.FFF/	8r	.	.	16A-X/KL)	.	.
.	.	.	.	16r	.	.
!	!	!	!	!LO:TX:a:i:t=dolce	!	!
.	(8e-L [<8A-X 8E-^\	.	<	([8a-X/J	.	<
.	8d 8A-] 8D\)	.	.	16a-/LL]	.	.
.	.	.	.	16g/)	.	.
8FF#X 8FFF#X/	[8cJ 8A- [8C^\	.	.	16a-/	.	.
.	.	.	[	16cc/JJ	.	.
4GG 4GGG/)	8c]L [<8G 8C\]	.	>	([4ff\	.	[
.	8An 8G_< 8AAn\	.	.	.	.	.
8r	8BnJ 8G] 8BBn\	.	]	16ff\LL]	.	.
.	.	.	.	16dd\	.	.
(8GG/	8r	.	.	16bn\	.	.
.	.	.	.	16g\JJ)	.	.
!!LO:LB:g=original
=19	=19	=19	=19	=19	=19	=19
4.AA-X 4.AAA-X/	8r	.	.	8r	.	.
.	(8gL [<8c 8G\	.	<	([8cc\L	.	<
.	8f 8c] 8F\)	.	.	16cc\L]	.	.
.	.	.	.	16bn\)	.	.
8AAn 8AAAn/	([8e-J 8c [8E-^\	.	.	(16cc\	.	.
.	.	.	.	16ee-\JJ	.	.
4BB- 4BBB-/)	8e-]L [<8B- 8E-\]	.	.	16aa-X\LL	.	.
.	.	.	.	16ff\)	.	.
.	8c 8B-_< 8C\	.	.	(16dd\	.	.
.	.	.	.	16b-X\JJ)	.	.
8r	8dJ 8B-] 8D\)	.	[	(16an/LL	.	[
.	.	.	.	16a-X/	.	.
(8BB-/	8r	.	.	16f/	.	.
.	.	.	.	16d/JJ	.	.
=20	=20	=20	=20	=20	=20	=20
4.C-X 4.CC-X/	4r	.	.	4.A-X/)	.	p
.	2d-X 2D-X\	.	pp	.	.	.
8C- 8CC-/	.	.	.	(8A-/	.	.
4BB- 4BBB-/	.	.	.	4B-/	.	.
4AA-X 4AAA-X/)	4d- 4c-X 4D-\	.	.	4c-X/	.	.
=21	=21	=21	=21	=21	=21	=21
(2GG-X 2GGG-X/	[1d-X [1B- [1D-X	.	.	8B-/L)	.	.
.	.	.	.	([8d-X^/J	.	p
.	.	.	.	16d-/LL]	.	<
.	.	.	.	16c/	.	.
.	.	.	.	16d-/	.	.
.	.	.	.	16f/JJ	.	.
2FF 2FFF/)	.	.	.	16g-X/LL)	.	.
.	.	.	.	(16a-X/	.	.
.	.	.	.	16b-/	.	.
.	.	.	.	16cc-X/JJ)	.	[
.	.	.	.	(16ccn\LL	.	.
.	.	.	.	16dd-X\	.	.
.	.	.	.	16.bb-\	.	.
.	.	.	.	32bb-'\JJk)	.	.
!!LO:LB:g=original
=22	=22	=22	=22	=22	=22	=22
*	*	*	*^	*	*	*
(2EEn 2EEEn/	16d-X] 16B-] 16D-X\]	.	.	.	(8bb-\L	.	.
.	(16BB-\LL	.	<	.	.	.	.
.	16F#X\	.	.	.	8dd-X\)	.	.
.	16G\JJ	.	.	.	.	.	.
.	16A\LL	.	.	.	8cc\	.	<
.	16B-\	.	.	.	.	.	.
.	16c\	.	.	.	[8b-\J	.	.
.	[16d-X\JJ	.	[	.	.	.	.
2FF 2FFF/)	16d-\LL]	.	>	.	8b-/L]	.	.
.	16c\	.	.	.	.	.	[
*	*clefG2	*	*	*	*	*	*
!	!	!	!	!LO:HP:a:t=cresc. e string.	!	!	!LO:HP:t=cresc. e string.
.	16cc\	.	.	<	(8an/J	.	<
.	16a\JJ	.	.	.	.	.	.
.	16e-/LL	.	.	.	[4cc\	.	.
.	16c/	.	]	.	.	.	.
.	16A</	.	.	.	.	.	.
.	16E-</JJ)	.	.	.	.	.	.
*	*	*	*v	*v	*	*	*
=23	=23	=23	=23	=23	=23	=23
(2FF#X 2FFF#X/	8r	.	.	16cc/LL])	.	.
.	.	.	.	(<16c/	.	p
.	(8ee-L [8a 8e-/	.	<	16g#X/	.	.
.	.	.	.	16a/JJ	.	.
.	8dd 8a] 8d/)	.	.	16bn\LL)	.	<
.	.	.	.	16cc\	.	.
.	[8ccJ 8a-X [8c^>/	.	.	16dd\	.	.
.	.	.	[	[16ee-\JJ	.	.
2GG 2GGG/	8cc]L [8g 8c/]	.	>	16ee-\LL]	.	.
.	.	.	.	(16dd\	.	.
.	8an 8g_ 8An/	.	.	16ddd\)	.	.
.	.	.	.	16bbn\JJ	.	[
.	8bnJ 8g] 8Bn/	.	]	(16ff\LL	.	.
.	.	.	.	16dd\	.	.
.	8r	.	.	16b\	.	.
.	.	.	.	16f\JJ	.	.
!!LO:LB:g=original
=24	=24	=24	=24	=24	=24	=24
2GG#X 2GGG#X/	16r	.	.	16d/)	.	.
.	(16D/LL	.	<	16r	.	.
.	16A#X/	.	.	(8f/L	.	f
!	!	!	!	!	!	!LO:HP:a
.	16Bn/JJ	.	.	.	.	>
.	16c#X/LL	.	.	8en/)	.	.
.	16d/	.	.	.	.	.
.	16en/	.	.	([8d/J	.	.
.	[16f/JJ	.	.	.	.	.
2AA 2AAA/)	16f/LL]	.	[ >	8d/L]	.	.
.	16e/	.	.	.	.	.
.	16een/	.	.	8c#X/	.	]
.	16cc#X/JJ	.	.	.	.	.
.	16g/LL	.	.	8e/J)	.	.
.	16e/	.	.	.	.	.
.	16c#/	.	.	8r	.	.
.	16An/JJ)	.	]	.	.	.
=25	=25	=25	=25	=25	=25	=25
8r	(>4a [4f 4A^/	.	p	1r	.	.
([8D^\	.	.	.	.	.	.
16D\LL]	8g#X 8f] 8G#X/)	.	.	.	.	.
16C#X\	.	.	.	.	.	.
16D\	8r	.	.	.	.	.
16F\JJ)	.	.	.	.	.	.
8r	[4gn 4en [4Gn^>/	.	<	.	.	.
([8BB-^/	.	.	.	.	.	.
16BB-/LL]	8g] 8d 8G]/	.	[	.	.	.
16AA/	.	.	.	.	.	.
16Cn/	8r	.	.	.	.	.
16BB-/JJ)	.	.	.	.	.	.
!!LO:LB:g=original
=26	=26	=26	=26	=26	=26	=26
[2AA/	(4g 4c#X 4G/	.	>	8r	.	.
!	!	!	!	!	!	!LO:DY:t=p dolce
.	.	.	.	([8aa\	.	p
.	4f 4d 4F/)	.	]	16aa\LL]	.	.
.	.	.	.	16gg\)	.	.
.	.	.	.	(16ff\	.	.
.	.	.	.	16dd\JJ	.	.
2AA] 2AAA/	4r	.	.	16a/LL	.	.
.	.	.	.	16g/	.	.
.	.	.	.	16f/	.	.
.	.	.	.	16d/JJ	.	.
.	8r	.	pp	8A/L	.	.
.	(8d 8G#X 8D/	.	.	8Bn'/J)	.	.
=27	=27	=27	=27	=27	=27	=27
*	*^	*	*	*	*	*
8r	8c#X 8A 8En/)	4ryy	.	.	8c#X/	.	.
([8A^\	8r	.	.	.	8r	.	.
!	!	!	!	!LO:HP:b=2	!	!	!
16A\LL]	[2a/	4r	.	<	4r	.	.
16G\	.	.	.	.	.	.	.
16F\	.	.	.	.	.	.	.
16D\JJ	.	.	.	[	.	.	.
16AA/LL	.	[2A\	.	.	2r	.	.
16GG/	.	.	.	.	.	.	.
16FF/	.	.	.	.	.	.	.
16DD/JJ	.	.	.	.	.	.	.
!	!	!	!	!LO:HP:b=2	!	!	!
8AAA/L	8a/L]	.	.	>	.	.	.
8BBBn'/J)	8g#XJ 8f'</	.	.	]	.	.	.
*	*v	*v	*	*	*	*	*
=28	=28	=28	=28	=28	=28	=28
8CC#X/	8a 8en 8A]/	.	pp	8r	.	.
8r	8r	.	.	([8aa\	.	pp
8D 8DD'/	8a 8f 8A'/	.	.	16aa\LL]	.	.
.	.	.	.	16gg\	.	.
8r	8r	.	.	16ff\	.	.
.	.	.	.	16dd\JJ)	.	.
!	!LO:TX:b:i:t=ritard.	!	!	!	!	!
8Cn 8CCn'/	8a 8e 8A'/	.	.	8r	.	.
!	!	!	!	!LO:TX:b:i:t=ritard.	!	!
8r	8r	.	.	([8a/	.	.
8BB- 8BBB-'/	8a 8d 8A'/	.	.	16a/LL]	.	.
.	.	.	.	16g/	.	.
8r	8r	.	.	16f/	.	.
.	.	.	.	16d/JJ)	.	.
!!LO:PB:g=original
=29||	=29||	=29||	=29||	=29||	=29||	=29||
!!!OMD: Allegro con molto brio.
!!!key: F
*k[b-]	*k[b-]	*	*	*k[b-]	*	*
*M2/2	*M2/2	*	*	*M2/2	*	*
*met(c|)	*met(c|)	*	*	*met(c|)	*	*
*^	*^	*	*	*	*	*
4AA 4AAA/	4ryy	4r	4ryy	.	f	1r	.	.
8e/L	(4c#X 4A\	([4aa/	[4a\	.	.	.	.	.
8g/J	.	.	.	.	.	.	.	.
8f/	8d\)	8aa/L]	8a\]	.	.	.	.	.
8r	8ryy	8gg/	8r	.	.	.	.	.
4r	4ryy	8ff/	4r	.	.	.	.	.
.	.	8dd/J	.	.	.	.	.	.
*v	*v	*	*	*	*	*	*	*
*	*v	*v	*	*	*	*	*
=30	=30	=30	=30	=30	=30	=30
2r	8a/L	.	.	1r	.	.
.	8g/	.	.	.	.	.
.	8f/	.	.	.	.	.
.	8d/J	.	.	.	.	.
4r	4A/)	.	.	.	.	.
4D 4DD'/	4bn 4f 4Bn'/	.	.	.	.	.
=31	=31	=31	=31	=31	=31	=31
(4.AA 4.AAA/	(4.cc 4.e 4.c/	.	.	1r	.	.
8BBn 8BBBn/	8bn 8Bn/	.	.	.	.	.
4C 4CC'/)	4a 4A/)	.	.	.	.	.
4AA 4AAA'/	4ff 4f'\	.	.	.	.	.
=32	=32	=32	=32	=32	=32	=32
*	*^	*	*	*	*	*
4E 4EE/	(4ee 4e/	2ryy	.	.	1r	.	.
4r	4dd 4d/)	.	.	.	.	.	.
2GG#X 2GGG#X^/	4cc 4c'/	2e\	.	.	.	.	.
.	4bn 4Bn'/	.	.	.	.	.	.
=33	=33	=33	=33	=33	=33	=33	=33
*^	*	*	*	*	*	*	*
4AA 4AAA/	4ryy	4r	4ryy	.	.	1r	.	.
(8e/L	4c 4A\	([4ccc/	4ee 4cc\	.	.	.	.	.
8a/J	.	.	.	.	.	.	.	.
8e 8c 8A\)	2ryy	8ccc/L]	2ryy	.	.	.	.	.
8r	.	8bbn/	.	.	.	.	.	.
4r	.	8aa/	.	.	.	.	.	.
.	.	8ee/J	.	.	.	.	.	.
*v	*v	*	*	*	*	*	*	*
*	*v	*v	*	*	*	*	*
=34	=34	=34	=34	=34	=34	=34
2r	8cc/L	.	.	1r	.	.
.	8bn/	.	.	.	.	.
.	8a/	.	.	.	.	.
.	8e/J	.	.	.	.	.
4r	4c/)	.	.	.	.	.
4FF#X 4FFF#X'/	4dd 4a 4d'/	.	.	.	.	.
!!LO:LB:g=original
=35	=35	=35	=35	=35	=35	=35
(4.GG 4.GGG/	(4.b- 4.d 4.B-/	.	.	1r	.	.
8AA 8AAA/	8a 8A/	.	.	.	.	.
4BB- 4BBB-/)	4g 4G/)	.	.	.	.	.
4GG 4GGG'/	4b- 4B-'/	.	.	.	.	.
=36	=36	=36	=36	=36	=36	=36
*	*^	*	*	*	*	*
2C 2CC\	(4d 4D</	2B-\	.	.	1r	.	.
.	4e 4E</	.	.	.	.	.	.
4FF 4FFF\	4f 4A< 4F</)	2ryy	.	.	.	.	.
4r	4rb	.	.	.	.	.	.
*	*v	*v	*	*	*	*	*
=37	=37	=37	=37	=37	=37	=37
*	*	*	*	*^	*	*
4D 4DD'/	8r	.	.	4r	4ryy	.	.
.	(8A/L	.	.	.	.	.	.
2F 2D\	8a 8f 8d/	.	.	([4aa/	4dd 4f\	.	f
.	8A/J	.	.	.	.	.	.
.	4dd 4a 4f/)	.	.	8aa/L]	2ryy	.	.
.	.	.	.	8gg/)	.	.	.
4r	4r	.	.	8ff/	.	.	.
.	.	.	.	8dd/J	.	.	.
*	*	*	*	*v	*v	*	*
=38	=38	=38	=38	=38	=38	=38
2r	2r	.	.	(8a/L	.	.
.	.	.	.	8g/	.	.
.	.	.	.	8f/	.	.
.	.	.	.	8d/J	.	.
4r	4r	.	.	4A/)	.	.
4D 4DD'/	4bn 4f 4Bny'/	.	.	4Bn/	.	.
=39	=39	=39	=39	=39	=39	=39
4.AA 4.AAA'/	4cc 4e 4c'/	.	.	(4.c/	.	.
.	4r	.	.	.	.	.
8BBn 8BBBn'/	.	.	.	8Bn'/)	.	.
4C 4CC'/	2r	.	.	4A/	.	.
4AA 4AAA'/	.	.	.	4f/	.	.
=40	=40	=40	=40	=40	=40	=40
4E 4EE'/	2r	.	.	4e/	.	.
4r	.	.	.	4d/	.	.
(2GG#X 2GGG#X^>/	2e 2d 2E^>/	.	.	4c/	.	.
.	.	.	.	4Bn/	.	.
!!LO:LB:g=original
=41	=41	=41	=41	=41	=41	=41
*	*	*	*	*^	*	*
4AA 4AAA/)	8r	.	.	4r	4ryy	.	.
.	(8E/L	.	.	.	.	.	.
2C 2AA/	8e 8c 8A/	.	.	([4ccc/	[4a\	.	.
.	8E/J	.	.	.	.	.	.
.	4a 4e 4c/)	.	.	8ccc/L]	8a\]	.	.
.	.	.	.	8bbn/)	4.ryy	.	.
4r	4r	.	.	8aa/	.	.	.
.	.	.	.	8ee/J	.	.	.
*	*	*	*	*v	*v	*	*
=42	=42	=42	=42	=42	=42	=42
2r	2r	.	.	(8cc/L	.	.
.	.	.	.	8bn/	.	.
.	.	.	.	8a/	.	.
.	.	.	.	8e/J	.	.
4r	4r	.	.	4c/)	.	.
4FF#X 4FFF#X/	4dd 4a 4d'/	.	.	4d/	.	.
=43	=43	=43	=43	=43	=43	=43
4.GG 4.GGG/	4b- 4d 4B-'/	.	.	(4.B-X/	.	.
.	4r	.	.	.	.	.
8AA 8AAA/	.	.	.	8A/)	.	.
4BB- 4BBB-/	2r	.	.	4G/	.	.
4GG 4GGG/	.	.	.	4b- 4g/	.	.
*	*clefF4	*	*	*	*	*
=44	=44	=44	=44	=44	=44	=44
*	*^	*	*	*	*	*
2C 2CC/	(4d 4D\	2B-/	.	.	4d 4B-/	.	.
.	4e 4E\	.	.	.	4e/	.	.
4FF 4FFF/	4f 4A 4F\)	2ryy	.	.	4f 4A/	.	.
4r	4r	.	.	.	4r	.	.
*	*clefG2	*	*	*	*	*	*
*	*v	*v	*	*	*	*	*
=45	=45	=45	=45	=45	=45	=45
*^	*	*	*	*	*	*
8FF/L	1FF	2c^>/	.	p	1c	.	p
8C/	.	.	.	.	.	.	.
8A/	.	.	.	.	.	.	.
8C/J	.	.	.	.	.	.	.
*tremolo	*	*	*	*	*	*	*
8A/L	.	2f^>/	.	.	.	.	.
8C/	.	.	.	.	.	.	.
8A/	.	.	.	.	.	.	.
8C/J	.	.	.	.	.	.	.
*Xtremolo	*	*	*	*	*	*	*
=46	=46	=46	=46	=46	=46	=46	=46
8FF/L	1FF	2d^>/	.	.	[1cc	.	.
8D/	.	.	.	.	.	.	.
8B-/	.	.	.	.	.	.	.
8D/J	.	.	.	.	.	.	.
*tremolo	*	*	*	*	*	*	*
8B-/L	.	2g^>/	.	.	.	.	.
8D/	.	.	.	.	.	.	.
8B-/	.	.	.	.	.	.	.
8D/J	.	.	.	.	.	.	.
*Xtremolo	*	*	*	*	*	*	*
!!LO:LB:g=original
=47	=47	=47	=47	=47	=47	=47	=47
8FF/L	1FF	2e/	.	.	2cc\]	.	.
8C/	.	.	.	.	.	.	.
8B-/	.	.	.	.	.	.	.
8C/J	.	.	.	.	.	.	.
*tremolo	*	*	*	*	*	*	*
!	!	!	!	!LO:DY:a	!	!	!
8B-/L	.	([2a/	.	sf	[2ccc\	.	.
8C/	.	.	.	.	.	.	.
8B-/	.	.	.	.	.	.	.
8C/J	.	.	.	.	.	.	.
*Xtremolo	*	*	*	*	*	*	*
=48	=48	=48	=48	=48	=48	=48	=48
8FF/L	1FF	8a/L]	.	.	(2ccc\_	.	.
8C/	.	8g/	.	.	.	.	.
8A/	.	8f/	.	.	.	.	.
8C/J	.	8d/J)	.	.	.	.	.
*tremolo	*	*	*	*	*	*	*
8A/L	.	[2c/	.	.	8ccc\L]	.	.
8C/	.	.	.	.	8aa\	.	.
8A/	.	.	.	.	8ff\	.	.
[8C/J	.	.	.	.	8dd\J	.	.
*Xtremolo	*	*	*	*	*	*	*
=49	=49	=49	=49	=49	=49	=49	=49
*	*	*^	*	*	*	*	*
(4C/]	2.FF\	(4c/]	2.A\	.	<	4cc\)	.	.
4D/	.	4d/	.	.	.	4r	.	.
4E/	.	4e/	.	.	.	2r	.	.
4F/)	4ryy	4f/)	4r	.	[	.	.	.
=50	=50	=50	=50	=50	=50	=50	=50	=50
!LO:N:vis=2	!	!	!	!	!LO:HP:t=cresc. un poco	!	!	!
8GG/L	2GG\	(2.b-/	4r	.	<	2r	.	.
8D/	.	.	.	.	.	.	.	.
8B-/	.	.	(2d\	.	.	.	.	.
8D/J	.	.	.	.	.	.	.	.
!LO:N:vis=2	!	!	!	!	!	!LO:TX:b:t=pizz.	!	!
4AA/	2AA\	.	.	.	.	4bb- 4dd 4g\	.	.
4G/	.	8a/L	4c#X\)	.	.	4r	.	.
.	.	8e/J)	.	.	.	.	.	.
=51	=51	=51	=51	=51	=51	=51	=51	=51
!LO:N:vis=2	!	!	!	!	!	!	!	!
8DD/L	2DD\	(2.f/	4r	.	.	2r	.	.
8AA/	.	.	.	.	.	.	.	.
8F/	.	.	(2A\	.	.	.	.	.
8AA/J	.	.	.	.	.	.	.	.
!LO:N:vis=2	!	!	!	!	!	!	!	!
4EE/	2EE\	.	.	.	.	4ff 4a 4d/	.	.
4D/	.	8e/L	4G#X\)	.	.	4r	.	.
.	.	8Bn/J)	.	.	.	.	.	.
=52	=52	=52	=52	=52	=52	=52	=52	=52
!LO:N:vis=2	!	!	!	!	!	!	!	!
8AAA/L	2AAA\	(2c/	4r	.	.	2r	.	.
8EE/	.	.	.	.	.	.	.	.
8C/	.	.	2E\	.	.	.	.	.
8CC/J	.	.	.	.	.	.	.	.
!LO:N:vis=2	!	!	!	!	!	!LO:TX:a:t=arco	!	!
4GGG/	2GGG\	4e/	.	.	.	(2B-X^>/	.	.
4C/	.	8d/L	4E\	.	.	.	.	.
.	.	8B-X/J)	.	.	.	.	.	.
*v	*v	*	*	*	*	*	*	*
*	*v	*v	*	*	*	*	*
!!LO:LB:g=original
=53	=53	=53	=53	=53	=53	=53
2FFF\	8r	.	p	4A/)	.	.
!	!LO:TX:t=P:problem:mixed beam	!	!	!	!	!
.	(>8C</L	.	.	.	.	.
.	8c\	.	.	8cc\	.	p
.	8A\J	.	.	8r	.	.
2FF\	8f/L	.	.	[2ff^\	.	.
.	8A/	.	.	.	.	.
.	8a/	.	.	.	.	.
.	8c/J)	.	.	.	.	.
=54	=54	=54	=54	=54	=54	=54
2FFF\	8r	.	.	4ff\]	.	.
.	(>8D</L	.	.	.	.	.
.	8d/	.	.	8dd\	.	.
.	8B-/J	.	.	8r	.	.
2FF\	8g/L	.	.	[2gg^\	.	.
.	8B-/	.	.	.	.	.
.	8b-/	.	.	.	.	.
.	8d/J)	.	.	.	.	.
=55	=55	=55	=55	=55	=55	=55
2FFF\	8r	.	.	4gg\]	.	.
.	(>8E</L	.	.	.	.	.
.	8e/	.	.	(4dd\	.	<
.	8B-/J	.	.	.	.	.
2FF\	8g/L	.	.	4ee\)	.	.
.	8B-/	.	.	.	.	.
.	8cc/	.	.	([4aa\	.	.
.	8e/J)	.	.	.	.	[
=56	=56	=56	=56	=56	=56	=56
[2FFF/	8r	.	.	8aa\L]	.	.
.	(8A/L	.	.	8gg\)	.	.
.	8a/	.	.	8ff\	.	.
.	8f/J	.	.	8dd\J	.	.
!LO:TX:t=P:problem:mixed beam	!	!	!	!	!	!
8FFF/L]	[2c/)	.	.	[2cc\	.	.
8A\	.	.	.	.	.	.
8F\	.	.	.	.	.	.
[8C\J	.	.	.	.	.	.
=57	=57	=57	=57	=57	=57	=57
*^	*^	*	*	*	*	*
(4C/]	2.FF\	(4c/]	2.A\	.	.	4cc\]	.	.
4D/	.	4d/	.	.	.	4r	.	.
!	!	!	!	!	!LO:HP:t=cresc. poco a poco	!	!	!
4E/	.	4e/	.	.	<	2r	.	.
[4F/)	4r	[4f/)	4r	.	.	.	.	.
=58	=58	=58	=58	=58	=58	=58	=58	=58
(4F/]	2GG\	(4f/]	2B-\	.	.	4c#X/	.	.
2E/	.	2e/	.	.	.	4d/	.	.
!	!	!	!	!	!	!	!	!LO:HP:t=cresc. poco a poco
.	2GG#X\	.	2Bn\	.	.	4e/	.	<
4D/)	.	4d/)	.	.	.	(4f/	.	.
!!LO:PB:g=original
=59	=59	=59	=59	=59	=59	=59	=59	=59
(8C/L	4AA\	(8c/L	4A\	.	.	2g/)	.	.
8D/	.	8d/	.	.	.	.	.	.
8E/	4r	8e/	4r	.	.	.	.	.
8F/J	.	8f/J	.	.	.	.	.	.
8E/L	2r	8e/L	2r	.	.	([2ee\	.	.
8F/	.	8f/	.	.	.	.	.	.
8G/	.	8g/	.	.	.	.	.	.
8A/J)	.	8a/J)	.	.	.	.	.	.
=60	=60	=60	=60	=60	=60	=60	=60	=60
(2.G/	4r	(2.g/	4r	.	.	2ee\_	.	.
.	[4BBn\	.	[4Bn\	.	.	.	.	.
.	2D 2BB\]	.	2d 2B]\	.	.	8ee\L]	.	.
.	.	.	.	.	.	8dd\	.	.
4F/)	.	4f/)	.	.	.	8bn\	.	.
.	.	.	.	.	.	8a\J	.	.
=61	=61	=61	=61	=61	=61	=61	=61	=61
(4E/	2.C\	(4e/	2.c\	.	.	4g/)	.	.
4F/	.	4f/	.	.	.	4r	.	.
4G/	.	4g/	.	.	.	2r	.	.
[4A/	4r	[4a/	4r	.	.	.	.	.
=62	=62	=62	=62	=62	=62	=62	=62	=62
4A/])	2BB-X\	4a/])	1d	.	.	4c#X/	.	.
(2G/	.	(2g/	.	.	.	4d/	.	.
.	2BBn\	.	.	.	.	4f/	.	.
4F/)	.	4f/)	.	.	.	(4a/	.	.
=63	=63	=63	=63	=63	=63	=63	=63	=63
(8E/L	4C\	(8e/L	4c\	.	.	2g/)	.	.
8F/	.	8f/	.	.	.	.	.	.
8G/	4r	8g/	4r	.	.	.	.	.
8A/J	.	8a/J	.	.	.	.	.	.
8G/L	2r	8g/L	2r	.	.	([2gg\	.	.
8A/	.	8a/	.	.	.	.	.	.
8Bn/	.	8bn/	.	.	.	.	.	.
8c/J)	.	8cc/J)	.	.	.	.	.	.
!!LO:LB:g=original
=64	=64	=64	=64	=64	=64	=64	=64	=64
(2.Bn/	4r	(2.bn/	4r	.	.	2gg\_	.	.
.	[4D#X\	.	[4d#X\	.	.	.	.	.
.	2F#X 2D#\]	.	2f#X 2d#\]	.	.	8gg\L]	.	.
.	.	.	.	.	.	8ff#X\)	.	.
4A/)	.	4a/)	.	.	.	8dd#X\	.	.
.	.	.	.	.	.	8cc\J	.	.
*v	*v	*	*	*	*	*	*	*
=65	=65	=65	=65	=65	=65	=65	=65
4E 4EE/	4r	4ryy	.	.	4bn\	.	.
[4g [4Bn [4E\	([4bbn/	[4ee [4bn\	.	f	4r	.	.
8g] 8B] 8E\]	8bb/L]	8ee] 8b\]	.	.	2r	.	.
8r	8aa/	8r	.	.	.	.	.
4r	8gg/	4r	.	.	.	.	.
.	8ee/J	.	.	.	.	.	.
*	*v	*v	*	*	*	*	*
=66	=66	=66	=66	=66	=66	=66
2r	8bn/L	.	.	2r	.	.
.	8a/	.	.	.	.	.
.	8g/	.	.	.	.	.
.	8e/J	.	.	.	.	.
4r	4Bn'/)	.	.	8r	.	.
.	.	.	.	(8e/L	.	f
4E 4EE/	4cc#X 4g 4c#X'/	.	.	8f#X/	.	.
.	.	.	.	8g/J	.	.
=67	=67	=67	=67	=67	=67	=67
(4.BBn 4.BBBn/	(4.dd 4.f#X 4.d/	.	.	4f#X/)	.	.
.	.	.	.	4r	.	.
8C#X 8CC#X/	8cc#X 8c#X/	.	.	.	.	.
4D 4DD/)	4bn 4Bn/)	.	.	2r	.	.
4BB 4BBB/	4gg 4g'\	.	.	.	.	.
=68	=68	=68	=68	=68	=68	=68
*	*^	*	*	*	*	*
4F#X 4FF#X/	4ff#X 4f#X'/	2ryy	.	.	2r	.	.
4r	4ee 4e'/	.	.	.	.	.	.
2AA#X 2AAA#X/	4dd 4d/	2f#\	.	.	8r	.	.
.	.	.	.	.	(8cc#X\L	.	.
.	4cc#X 4c#X/	.	.	.	8dd\	.	.
.	.	.	.	.	8ee\J	.	.
*	*v	*v	*	*	*	*	*
=69	=69	=69	=69	=69	=69	=69
4BBn 4BBBn/	8r	.	.	8dd\)	.	.
.	(8F#X/L	.	.	8r	.	.
2D 2BB/	8f#X 8d 8Bn/	.	.	([4ddd\	.	.
.	8F#/J	.	.	.	.	.
.	4bn 4f# 4d/)	.	.	8ddd\L]	.	.
.	.	.	.	8ccc#X\)	.	.
4r	4r	.	.	8bbn\	.	.
.	.	.	.	8ff#X\J	.	.
!!LO:LB:g=original
=70	=70	=70	=70	=70	=70	=70
2r	2r	.	.	(8dd\L	.	.
.	.	.	.	8cc#X\	.	.
.	.	.	.	8bn\	.	.
.	.	.	.	8f#X\J	.	.
4r	4r	.	.	4d/)	.	.
4GG 4GGG'/	4ee 4e'/	.	.	4Bn/	.	.
=71	=71	=71	=71	=71	=71	=71
(4.AA 4.AAA/	(4.cc 4.c/	.	.	2r	.	.
8BBn 8BBBn/	8bn 8Bn/	.	.	.	.	.
4C 4CC/)	4a 4A/)	.	.	4r	.	.
4GG 4GGG'/	4ee 4e'/	.	.	4a/	.	.
=72	=72	=72	=72	=72	=72	=72
4FF#X 4FFF#X'/	2.dd 2.d/	.	.	(4.cc 4.d/	.	.
4GG 4GGG'/	.	.	.	.	.	.
.	.	.	.	8bn'\)	.	.
4AA 4AAA'/	.	.	.	(4a'>/	.	.
4FF# 4FFF#'/	4cc 4c/	.	.	4ee'\)	.	.
=73	=73	=73	=73	=73	=73	=73
(4.GG 4.GGG/	(4.bn 4.Bn/	.	.	4dd\	.	.
.	.	.	.	4r	.	.
8AA 8AAA/	8a 8A/	.	.	.	.	.
4BBn 4BBBn/)	4g 4G/)	.	.	2r	.	.
4EE 4EEE'/	4cc 4c'/	.	.	.	.	.
=74	=74	=74	=74	=74	=74	=74
!	!	!	!	!LO:N:n=3:vis=4	!	!
!	!	!	!	!LO:N:n=2:vis=4	!	!
4DD#X 4DDD#X'/	2.bn 2.Bn/	.	.	(4.aa 4.bn 4.d#X/	.	.
4EE 4EEE'/	.	.	.	.	.	.
.	.	.	.	8gg'\)	.	.
4FF#X 4FFF#X'/	.	.	.	(4ff#X'\	.	.
4DD# 4DDD#'/	4a 4A/	.	.	4ccc 4cc'\)	.	.
=75	=75	=75	=75	=75	=75	=75
(4.EE 4.EEE/	(4.g 4.G/	.	.	4bbn 4bn\	.	.
.	.	.	.	4r	.	.
8FF#X 8FFF#X/	8f#X 8F#X/	.	.	.	.	.
4GG 4GGG/)	4e 4E/)	.	.	2r	.	.
4EE 4EEE^/	[4g [4G^/	.	.	.	.	.
!!LO:LB:g=original
=76	=76	=76	=76	=76	=76	=76
(2AA 2AAA/	4g] 4G/]	.	.	2r	.	.
.	2f#X 2F#X/	.	>	.	.	.
2AA#X 2AAA#/)	.	.	.	(2g^/	.	.
.	[4e [4E/	.	]	.	.	.
=77	=77	=77	=77	=77	=77	=77
(<2BBn 2BBBn/	4e] 4E/]	.	.	4f#X/)	.	.
.	2d#X 2D#X/	.	.	4r	.	.
2AA#X 2AAA#X/	.	.	.	(2c^/	.	.
!	!	!	!LO:HP:t=dim.	!	!	!
.	[4e [4E/	.	>	.	.	.
=78	=78	=78	=78	=78	=78	=78
2AAn 2AAAn/	4e] 4E/]	.	.	4.Bn/	.	.
.	2f#X 2F#X/	.	.	.	.	.
.	.	.	.	8c/)	.	.
4GG 4GGG\)	.	.	.	(4B'/	.	>
4FF#X 4FFF#X\	4Bn 4BBn</	.	.	4A'/)	.	]
=79	=79	=79	=79	=79	=79	=79
4EE 4EEE\	4e 4E</	.	.	4G/	.	.
4r	4r	.	.	4r	.	.
(2E^\	2r	.	.	2r	.	.
=80	=80	=80	=80	=80	=80	=80
!	!	!	!LO:HP:b=2	!	!	!
4.D#X\	1r	.	<	2r	.	.
16E\LL	.	.	.	.	.	.
16F#X\JJ	.	.	[	.	.	.
[2G^\	.	.	.	(2e^/	.	.
=81	=81	=81	=81	=81	=81	=81
4G\])	2r	.	p	4.d#X/)	.	<
!	!	!	!LO:HP:t=cresc. un poco	!	!	!
(4F#X\	.	.	<	.	.	.
.	.	.	.	(>16e/LL	.	.
.	.	.	.	16f#X/JJ	.	.
!	!	!	!	!LO:TX:t=P:problem:diminuendolike accent	!	!
4Bn\	8r	.	.	[2g^>/	.	[
.	(8bn\L	.	.	.	.	>
4A#X\	8bbn\	.	.	.	.	.
.	8b\J	.	.	.	.	.
!!LO:LB:g=original
=82	=82	=82	=82	=82	=82	=82
*	*tremolo	*	*	*	*	*
4Bn\)	8bbn\L	.	.	4g/])	.	]
.	8b\	.	.	.	.	.
8B\	8bb\	.	.	(4f#X/	.	p
!	!	!	!	!	!	!LO:HP:t=cresc un poco
8r	8bn\J	.	.	.	.	<
[2g^\	8bb\L	.	.	4bn\)	.	.
.	8b\	.	.	.	.	.
.	8bb\	.	.	(4a#X/	.	.
.	8b\J)	.	.	.	.	.
=83	=83	=83	=83	=83	=83	=83
4g\]	(8bbn\L	.	.	4bn\)	.	.
.	8b\	.	.	.	.	.
(4f#X\	8bb\	.	.	8bv\	.	.
.	8bn\J	.	.	8r	.	.
4e\	8bb\L	.	.	[2gg^\	.	.
.	8b\	.	.	.	.	.
4c\	8bb\	.	.	.	.	.
.	8b\J	.	.	.	.	.
=84	=84	=84	=84	=84	=84	=84
4Bn\)	8bbn\L	.	.	4gg\]	.	.
.	8b\	.	.	.	.	.
(4B\	8bb\	.	.	(4ff#X\	.	.
.	8bn\J	.	.	.	.	.
4A#X\)	8bb\L	.	.	4ee\)	.	.
.	8b\	.	.	.	.	.
(4A#\	8bb\	.	.	(4cc\	.	.
.	8b\J)	.	.	.	.	.
=85	=85	=85	=85	=85	=85	=85
[4An\	(8bbn\L	.	.	4bn\)	.	.
.	8b\	.	.	.	.	.
16A\LL]	8bb\	.	.	(4b\	.	.
16G\	.	.	.	.	.	.
16Bn\	8bn\J	.	.	.	.	.
16A\JJ)	.	.	.	.	.	.
4G\	8bb\L	.	.	4a#X/)	.	.
.	8b\	.	.	.	.	.
(4G\	8bb\	.	.	(4a#/	.	.
.	8b\J	.	.	.	.	.
*	*Xtremolo	*	*	*	*	*
=86	=86	=86	=86	=86	=86	=86
4F#X\	8bbn\L	.	.	[4an/	.	.
.	8bn\	.	.	.	.	.
4Bn\	8bb\	.	.	16a/LL])	.	.
!	!	!	!	!	!	!LO:HP:a
.	.	.	.	(16g/	.	>
.	8b\J	.	>	(16bn/	.	.
.	.	.	.	16a/JJ	.	.
!LO:TX:a:i:t=rit.	!	!	!	!LO:TX:a:i:t=rit.	!	!
4D#X\)	8bb\)	.	.	4g/)	.	.
.	8r	.	.	.	.	.
4E'\	4g 4e 4Bn/	.	]	4g'/)	.	]
=87	=87	=87	=87	=87	=87	=87
2.BBn;</	2.f#X 2.d#X 2.Bn;/	.	.	2.f#X;/	.	.
4r	4r	.	.	4r	.	.
!!LO:PB:g=original
=88	=88	=88	=88	=88	=88	=88
!	!LO:TX:b:i:t=a tempo	!	!	!LO:TX:a:i:t=a tempo	!	!
1r	2r	.	.	1r	.	.
.	8qe/	.	.	.	.	.
.	(2ee^\	.	.	.	.	.
=89	=89	=89	=89	=89	=89	=89
2r	4.dd#X\	.	<	1r	.	.
.	16ee\LL	.	.	.	.	.
.	16ff#X\JJ	.	.	.	.	.
2BB-X^/	[2gg [2g\	.	[	.	.	.
=90	=90	=90	=90	=90	=90	=90
!	!	!	!LO:HP:b=2	!	!	!
4.AA/	4gg] 4g\])	.	<	2r	.	.
.	(4ee 4e/	.	.	.	.	.
16BBn/LL	.	.	.	.	.	.
16C#X/JJ	.	.	.	.	.	.
[2D\	4bb-X 4b-X\	.	[	8r	.	.
.	.	.	.	8ao/L	.	p
.	4gg#X 4g#X\	.	.	8a/	4	.
.	.	.	.	8ao/J	.	.
=91	=91	=91	=91	=91	=91	=91
4D\]	4aa 4a\)	.	.	8a/L	4	<
.	.	.	.	8ao/	.	.
(4C#X/	8aa 8a\	.	.	8a/	4	.
.	8r	.	.	8ao/J	.	.
4A\	[2fff [2ff\	.	.	8a/L	.	.
.	.	.	.	8a/	.	.
4G#X\	.	.	.	8a/	.	.
.	.	.	.	8a/J	.	.
=92	=92	=92	=92	=92	=92	=92
4A\)	4fff] 4ff\]	.	.	8a/L	.	.
.	.	.	.	8a/	.	.
8A\	(4eee 4ee\	.	.	8a/	.	.
8r	.	.	.	8a/J	.	.
[2f\	4ddd 4dd\	.	.	8a/L	.	.
.	.	.	.	8a/	.	.
.	4bb-X 4b-X\	.	.	8a/	.	.
.	.	.	.	8a/J	.	.
=93	=93	=93	=93	=93	=93	=93
4f\]	4aa 4a\)	.	.	8a/L	.	>
.	.	.	.	8a/	.	.
(4e\	(4aa 4a\	.	.	8a/	.	.
.	.	.	.	8a/J	.	.
4d\	4gg#X 4g#X\)	.	.	8a/L	.	.
.	.	.	.	8a/	.	.
4B-X\)	4gg# 4g#\	.	.	8a/	.	.
.	.	.	.	8a/J	.	]]
!!LO:LB:g=original
=94	=94	=94	=94	=94	=94	=94
.	(8qgn/	.	.	(8qa/	.	.
[1A	(8ggn\L)	.	.	[1aa)	.	p
.	8ee\	.	.	.	.	.
.	8cc#X\	.	.	.	.	.
.	8a\J	.	.	.	.	.
.	8g/L	.	.	.	.	.
.	8e/	.	.	.	.	.
.	8c#X/	.	.	.	.	.
.	8e/J	.	.	.	.	.
=95	=95	=95	=95	=95	=95	=95
8A\]	4g/)	.	.	4aa\]	.	.
8r	.	.	.	.	.	.
[4GG#X^/	4r	.	.	(4ee\	.	.
8GG#\L]	2dd 2b- 2f 2d^/	.	.	4ff\	.	.
8D\	.	.	.	.	.	.
8F\	.	.	.	4bb-'\)	.	.
8B-\J	.	.	.	.	.	.
=96	=96	=96	=96	=96	=96	=96
.	8qe/	.	.	.	.	.
[1AA	(8gg\L	.	.	[1aa	.	.
.	8ee\	.	.	.	.	.
.	8cc#X\	.	.	.	.	.
.	8a\J	.	.	.	.	.
.	8g/L	.	.	.	.	.
.	8e/	.	.	.	.	.
.	8c#X/	.	<	.	.	.
.	8e/J	.	.	.	.	.
=97	=97	=97	=97	=97	=97	=97
8AA/]	4g/)	.	.	4aa\]	.	<
8r	.	.	.	.	.	.
[4AA-X^/	4r	.	.	(4ee\	.	.
8AA-\L]	2ff 2dd 2f^\	.	[	4ff\	.	.
8D\	.	.	.	.	.	.
8F\	.	.	.	4ccc'\)	.	[
8c\J	.	.	.	.	.	.
=98	=98	=98	=98	=98	=98	=98
.	(8qf/	.	.	.	.	.
[1GG	(8ff\L)	.	.	[1bbn	.	.
.	8dd\	.	.	.	.	.
.	8bn\	.	.	.	.	.
!	!	!	!	!LO:TX:b:Bi:t=cresc. - con gran espress.:problem:dynamics with extention lines	!	!LO:HP:t=cresc. con gran espress.
.	8g\J	.	.	.	.	<
!	!LO:TX:b:Bi:t=cresc._:problem:dynamics with extention lines	!	!LO:HP:t=cresc.	!	!	!
.	8f/L	.	<	.	.	.
.	8d/	.	.	.	.	.
.	8Bn/	.	.	.	.	.
.	8d/J	.	.	.	.	.
!!LO:LB:g=original
=99	=99	=99	=99	=99	=99	=99
8GG/]	4f/)	.	.	4bbnX\]	.	.
8r	.	.	.	.	.	.
[4GG^/	4r	.	.	(4gg\	.	.
8GG/L]	(>2cc 2a 2e-X 2c^/	.	.	4aa\)	.	.
8C/	.	.	.	.	.	.
8E-X/	.	.	.	(4ccc\	.	.
8A/J	.	.	.	.	.	.
=100	=100	=100	=100	=100	=100	=100
8GG/	4bn 4g 4d/)	.	.	4bbn\)	.	.
8r	.	.	.	.	.	.
8GGG/L	4r	.	.	(4gg\	.	.
8GG/J	.	.	.	.	.	.
8GGG/L	8r	.	.	4aa\)	.	.
8GG/	(>8c/L	.	.	.	.	.
8GGG/	8e-X/	.	.	(4ccc\	.	.
8GG/J	8f#X/J	.	.	.	.	.
=101	=101	=101	=101	=101	=101	=101
*tremolo	*	*	*	*	*	*
8GGG\L	8g/L	.	.	4bbn\)	.	.
8GG\	8d/	.	.	.	.	.
8GGG\	8Bn/	.	.	(4gg\	.	.
8GG\J	8D</J	.	.	.	.	.
8GGG\L	4c 4F#X/)	.	.	4aa\)	.	.
8GG\	.	.	.	.	.	.
8GGG\	(4c 4F#/	.	.	(4ddd\	.	.
8GG\J	.	.	.	.	.	.
=102	=102	=102	=102	=102	=102	=102
8GGG/L	4a 4c/)	.	.	4ccc\)	.	.
8GG/	.	.	.	.	.	.
8GGG/	4r	.	.	(4aa\	.	.
8GG/J	.	.	.	.	.	.
8GGG/L	8r	.	.	4bbn\)	.	.
8GG/	(8d/L	.	.	.	.	.
8GGG/	8fn/	.	.	(4ddd\	.	.
8GG/J	8bn/J	.	.	.	.	.
=103	=103	=103	=103	=103	=103	=103
8GGG/L	8cc/L	.	.	4ccc\)	.	.
8GG/	8f#X/	.	.	.	.	.
8GGG/	8e-X/	.	.	(4aa\	.	.
8GG/J	8c/J	.	.	.	.	.
8GGG/L	4g 4Bn/)	.	.	4bbn\)	.	.
8GG/	.	.	.	.	.	.
8GGG/	(4g 4B/	.	.	(4eee\	.	.
8GG/J	.	.	.	.	.	.
*Xtremolo	*	*	*	*	*	*
!!LO:LB:g=original
=104	=104	=104	=104	=104	=104	=104
4GGG/	4dd 4fn/)	.	.	4ddd\)	.	.
(2GGG/	4r	.	.	(4bbn\	.	.
.	(2f#X 2A/	.	.	4ccc\)	.	.
[4GG/	.	.	.	(4eee\	.	.
=105	=105	=105	=105	=105	=105	=105
4GG/]	2fn 2Bn/	.	.	4ddd\)	.	.
2GGG/	.	.	.	(4bbn\	.	.
.	2d 2F/	.	.	4gg\	.	.
4GG/)	.	.	.	4ff\)	.	.
=106	=106	=106	=106	=106	=106	=106
(8CC/L	4c 4E/)	.	.	1ee	.	[
8GG/	.	.	.	.	.	.
8AA/	4r	.	.	.	.	.
8GG/J	.	.	.	.	.	.
8G^/L	(2c/	.	[ f	.	.	.
8GG/	.	.	.	.	.	.
8AA/	.	.	.	.	.	.
8GG/J	.	.	.	.	.	.
=107	=107	=107	=107	=107	=107	=107
!	!	!	!LO:HP:a	!	!	!
8CC/L	4.Bn^>/	.	<	(1gg	.	.
8GG/	.	.	.	.	.	.
8AA/	.	.	.	.	.	.
8GG/J	16c/LL	.	.	.	.	.
.	16d/JJ	.	.	.	.	.
8C^/L	[2e^/	.	[	.	.	.
8GG/	.	.	.	.	.	.
8AA/	.	.	.	.	.	.
8GG/J)	.	.	.	.	.	.
=108	=108	=108	=108	=108	=108	=108
(8CC/L	4e/])	.	.	2ff#X\)	.	.
8GG/	.	.	.	.	.	.
8AA/	(4d/	.	.	.	.	.
8GG/J	.	.	.	.	.	.
8D^/L	4g/	.	.	2ffn\	.	.
8GG/	.	.	.	.	.	.
8AA/	4f#X/	.	.	.	.	.
8GG/J	.	.	.	.	.	.
=109	=109	=109	=109	=109	=109	=109
8CC/L	4g/)	.	.	(2.ee\	.	.
8GG/	.	.	.	.	.	.
8AA/	8g/	.	.	.	.	.
8GG/J	8r	.	.	.	.	.
8G^/L	[2ee [2e/	.	.	.	.	.
8GG/	.	.	.	.	.	.
8AA/	.	.	.	4dd\	.	.
8GG/J)	.	.	.	.	.	.
!!LO:LB:g=original
=110	=110	=110	=110	=110	=110	=110
(8CC/L	4ee] 4e/]	.	.	2cc\)	.	.
8GG/	.	.	.	.	.	.
8AA/	(4dd 4d/	.	.	.	.	.
8GG/J	.	.	.	.	.	.
8E^/L	4cc 4c/)	.	.	([2ee\	.	.
8GG/	.	.	.	.	.	.
8AA/	(4g 4G/	.	.	.	.	.
8GG/J	.	.	.	.	.	.
=111	=111	=111	=111	=111	=111	=111
8CC/L	4f#X 4A/)	.	.	4ee\]	.	.
8GG/	.	.	.	.	.	.
8AA/	(4f# 4A/	.	.	4dd\)	.	.
8GG/J	.	.	.	.	.	.
8D^/L	4fn 4Bn^>/)	.	.	4bn\	.	.
8GG/	.	.	.	.	.	.
8AA/	(4f 4B/	.	.	4a/	.	.
8GG/J)	.	.	.	.	.	.
=112	=112	=112	=112	=112	=112	=112
(8CC/L	4e 4c/)	.	.	(2.g/	.	.
8GG/	.	.	.	.	.	.
8AA/	(4g/	.	.	.	.	.
8GG/J)	.	.	.	.	.	.
4.E'^<\	4Bn/	.	.	.	.	.
.	4c/	.	.	8f/L	.	.
(8BBB-X/	.	.	.	8e/J)	.	.
=113	=113	=113	=113	=113	=113	=113
!	!	!	!LO:HP:a	!	!	!LO:HP:a
8AAA/L	4c#X/	.	<	(2.a/	.	<
8AA/	.	.	.	.	.	.
8BB-/	4e/	.	.	.	.	.
8AA/J	.	.	.	.	.	.
8GG/L	4A/	.	.	.	.	.
8AA/	.	.	.	.	.	.
8EE/	4c#/	.	.	4g/)	.	.
8AA/J)	.	.	[	.	.	[
=114	=114	=114	=114	=114	=114	=114
(8DD/L	4d/)	.	.	2f/	.	.
8AA/	.	.	.	.	.	.
8BB-X/	4r	.	.	.	.	.
8AA/J	.	.	.	.	.	.
8F^/L	(2d^/	.	.	[2aa\	.	.
8AA/	.	.	.	.	.	.
8BB-/	.	.	.	.	.	.
8AA/J	.	.	.	.	.	.
!!LO:PB:g=original
=115	=115	=115	=115	=115	=115	=115
8DD/L	4.c#X/	.	.	2aa\]	.	.
8AA/	.	.	.	.	.	.
8BB-/	.	.	.	.	.	.
8AA/J	16d/LL	.	.	.	.	.
.	16e/JJ	.	.	.	.	.
8D^/L	[2f/	.	.	(2gg#X\	.	.
8AA/	.	.	.	.	.	.
8BB-/	.	.	.	.	.	.
8AA/J)	.	.	.	.	.	.
=116	=116	=116	=116	=116	=116	=116
(8DD/L	4f/])	.	.	2ggn\)	.	.
8AA/	.	.	.	.	.	.
8BB-/	(4e/	.	.	.	.	.
8AA/J	.	.	.	.	.	.
8A^/L	4a/	.	.	(4ff~\	.	.
8AA/	.	.	.	.	.	.
8BB-/	4g#X/	.	.	4ee~\)	.	.
8AA/J	.	.	.	.	.	.
=117	=117	=117	=117	=117	=117	=117
8DD/L	4a/)	.	.	(2.ff\	.	.
8AA/	.	.	.	.	.	.
8BB-/	8a/	.	.	.	.	.
8AA/J	8r	.	.	.	.	.
8D^/L	[2ff [2f\	.	.	.	.	.
8AA/	.	.	.	.	.	.
8BB-/	.	.	.	4ee\	.	.
8AA/J)	.	.	.	.	.	.
=118	=118	=118	=118	=118	=118	=118
(<8DD/L	4ff] 4f\]	.	.	2dd\)	.	.
8AA/	.	.	.	.	.	.
8BB-/	(4ee 4e/	.	.	.	.	.
8AA/J	.	.	.	.	.	.
.	.	.	.	(<8qdd/	.	.
8A^/L	4dd 4d/)	.	.	[2fff\)	.	.
8AA/	.	.	.	.	.	.
8BB-/	(4b-X 4B-X/	.	.	.	.	.
8AA/J	.	.	.	.	.	.
=119	=119	=119	=119	=119	=119	=119
8DD/L	4a 4A/)	.	.	4fff\]	.	.
8AA/	.	.	.	.	.	.
8BB-/	(4a 4A/	.	.	(4eee\	.	.
8AA/J	.	.	.	.	.	.
8F^\L	4a-X 4A-X/)	.	.	4ddd\	.	.
8D\	.	.	.	.	.	.
8E\	(4a- 4A-/	.	.	4ccc\)	.	.
8D\J)	.	.	.	.	.	.
!!LO:LB:g=original
=120	=120	=120	=120	=120	=120	=120
(<8GG/L	4g 4G/)	.	.	2bbn\	.	.
8D/	.	.	.	.	.	.
8E/	(4g 4G/	.	.	.	.	.
8D/J	.	.	.	.	.	.
8G^\L	4f#X 4A/)	.	.	(2cccT\	.	.
8D\	.	.	.	.	.	.
8E\	(4f# 4A/	.	.	.	.	.
8D\J	.	.	.	.	.	.
.	.	.	.	16qqbb/L	.	.
.	.	.	.	16qqccc/J	.	.
=121	=121	=121	=121	=121	=121	=121
8GG/L	2fn 2Bn/)	.	.	4ddd\)	.	.
8D/	.	.	.	.	.	.
8E/	.	.	.	4bbn\	.	.
8D/J	.	.	.	.	.	.
.	.	.	.	(<8qbb/	.	.
8Bn^\L	(4.ff 4.f\	.	.	(4aa\)	.	.
8D\	.	.	.	.	.	.
8E\	.	.	.	4gg\)	.	.
8D\J)	16ee\LL	.	.	.	.	.
.	16dd\JJ	.	.	.	.	.
=122	=122	=122	=122	=122	=122	=122
.	8qee/	.	.	.	.	.
*Xbrackettup	*	*	*	*	*	*
*ped	*	*	*	*	*	*
!LO:TUP:a:r=1	!LO:TX:b:i:t=espress.	!	!	!	!	!
(6CC/	[1ggg)	.	.	4gg\	.	.
6g\	.	.	.	.	.	.
!	!	!	!	!LO:TX:a:i:t=sul G:dur=11q:ext=ud:problem:text with extention lines	!	!LO:DY:rj
.	.	.	.	8G/	.	f
6c\	.	.	.	.	.	.
.	.	.	.	8r	.	.
!	!	!	!	!LO:TX:a:i:t=risoluto	!	!
6G\	.	.	.	(2c/	.	.
6c\	.	.	.	.	.	.
6G\	.	.	.	.	.	.
=123	=123	=123	=123	=123	=123	=123
!LO:TUP:a:r=1	!	!	!	!	!	!
6E\	(2ggg\]	.	.	8Bn/L	.	.
.	.	.	.	8c/)	.	.
6G\	.	.	.	.	.	.
.	.	.	.	8d/	.	.
6C/	.	.	.	.	.	.
.	.	.	.	8e/J	.	.
6GG/	[<2gg\	.	.	(8d/L	.	.
.	.	.	.	8e/	.	.
6C/	.	.	.	.	.	.
.	.	.	.	8f/	.	.
6GG/	.	.	.	.	.	.
*Xped	*	*	*	*	*	*
.	.	.	.	8g/J	.	.
=124	=124	=124	=124	=124	=124	=124
*	*^	*	*	*	*	*
*ped	*	*	*	*	*	*	*
*Xtuplet	*	*	*	*	*	*	*
6DD/)	2gg\]	[>1aa	.	.	8f/)	.	.
.	.	.	.	.	8r	.	.
(6f\	.	.	.	.	.	.	.
.	.	.	.	.	8A/	.	.
6c\	.	.	.	.	.	.	.
.	.	.	.	.	8r	.	.
6A\	2a\	.	.	.	([2ee\	.	.
6c\	.	.	.	.	.	.	.
6A\	.	.	.	.	.	.	.
*Xped	*	*	*	*	*	*	*
*	*v	*v	*	*	*	*	*
!!LO:LB:g=original
=125	=125	=125	=125	=125	=125	=125
*ped	*	*	*	*	*	*
!	!LO:TX:a:t=P:problem:brak zakończenia łuku	!	!	!	!	!
6D\	4aa] 4ff\)	.	.	8ee\L]	.	.
.	.	.	.	8dd\)	.	.
6f\	.	.	.	.	.	.
.	(4bbn 4bn'\	.	.	8bn\	.	.
6Bn\	.	.	.	.	.	.
.	.	.	.	8a\J	.	.
6G\	4ccc 4cc'\	.	.	(>8g/L	.	.
.	.	.	.	8f/	.	.
6B\	.	.	.	.	.	.
.	4ddd 4dd'\)	.	.	8d/	.	.
6G\	.	.	.	.	.	.
*Xped	*	*	*	*	*	*
.	.	.	.	8G/J	.	.
=126	=126	=126	=126	=126	=126	=126
.	(8qee/	.	.	.	.	.
*ped	*	*	*	*	*	*
6CC/)	[1eee)	.	.	8c/)	.	.
.	.	.	.	8r	.	.
(6e\	.	.	.	.	.	.
.	.	.	.	8e/	.	.
6A\	.	.	.	.	.	.
.	.	.	.	8r	.	.
6E\	.	.	.	(2a/	.	.
6A\	.	.	.	.	.	.
6E\	.	.	.	.	.	.
=127	=127	=127	=127	=127	=127	=127
6C/	(2eee\]	.	.	8g#X/L	.	.
.	.	.	.	8a/)	.	.
6E\	.	.	.	.	.	.
.	.	.	.	8bn/	.	.
6AA/	.	.	.	.	.	.
.	.	.	.	8cc/J	.	.
6EE/	[<2ee\	.	.	(8b\L	.	.
.	.	.	.	8cc\	.	.
6AA/	.	.	.	.	.	.
.	.	.	.	8dd\	.	.
6EE/	.	.	.	.	.	.
*Xped	*	*	*	*	*	*
.	.	.	.	8ee\J	.	.
=128	=128	=128	=128	=128	=128	=128
*	*^	*	*	*	*	*
*ped	*	*	*	*	*	*	*
6BBBn/)	2ee\]	[>1ff#X	.	.	8dd\)	.	.
.	.	.	.	.	8r	.	.
(6d\	.	.	.	.	.	.	.
.	.	.	.	.	8d/	.	.
6A\	.	.	.	.	.	.	.
.	.	.	.	.	8r	.	.
6F#X\	2f#X\	.	.	.	([2ccc\	.	.
6A\	.	.	.	.	.	.	.
6F#\	.	.	.	.	.	.	.
*Xped	*	*	*	*	*	*	*
*	*v	*v	*	*	*	*	*
=129	=129	=129	=129	=129	=129	=129
*ped	*	*	*	*	*	*
6BBn/	4ff#] 4dd\)	.	.	8ccc\L]	.	.
.	.	.	.	8bbn\)	.	.
6d\	.	.	.	.	.	.
.	(4gg#X 4g#X'\	.	.	8gg#X\	.	.
6G#X\	.	.	.	.	.	.
.	.	.	.	8ff\J	.	.
6E\	4aa 4a'\	.	.	(8ee\L	.	.
.	.	.	.	8dd\	.	.
6G#\	.	.	.	.	.	.
.	4bbn 4bn'\)	.	.	8bn\	.	.
6E\	.	.	.	.	.	.
*Xped	*	*	*	*	*	*
.	.	.	.	8e\J	.	.
!!LO:LB:g=original
=130	=130	=130	=130	=130	=130	=130
.	(8qcc/	.	.	.	.	.
*ped	*	*	*	*	*	*
6AA/)	([1ccc)	.	p	8a/)	.	.
.	.	.	.	8r	.	.
(6a\	.	.	.	.	.	.
.	.	.	.	8A/	.	.
6f\	.	.	.	.	.	.
.	.	.	.	8r	.	.
!	!	!	!	!	!	!LO:DY:rj
6c\	.	.	.	[2c/	.	p
6f\	.	.	.	.	.	.
6c\	.	.	.	.	.	.
=131	=131	=131	=131	=131	=131	=131
6A\	2ccc\]	.	.	8c/L]	.	.
.	.	.	.	(8e/	.	.
6c\	.	.	.	.	.	.
.	.	.	.	8f/	.	.
6F\	.	.	.	.	.	.
.	.	.	.	8g/J	.	.
6C/	[<2cc\	.	.	8a/L	.	.
.	.	.	.	8g/	.	.
6F\	.	.	.	.	.	.
.	.	.	.	8f/	.	.
6C/	.	.	.	.	.	.
*Xped	*	*	*	*	*	*
.	.	.	.	8e-X/J)	.	.
=132	=132	=132	=132	=132	=132	=132
*	*^	*	*	*	*	*
6AA-X/)	2dd/	2cc\]	.	.	(4d/	.	.
(6f\	.	.	.	.	.	.	.
.	.	.	.	.	4dd\)	.	.
6c\	.	.	.	.	.	.	.
6G\	2ee/	2b-\	.	<	4r	.	.
6g\	.	.	.	.	.	.	.
.	.	.	.	.	4e'/	.	.
6c\	.	.	.	.	.	.	.
=133	=133	=133	=133	=133	=133	=133	=133
6F\	2.aa/	2a\	.	.	(4f/	.	.
6d\	.	.	.	.	.	.	.
.	.	.	.	.	4ff\)	.	.
6Bn\	.	.	.	.	.	.	.
6E\	.	2cc#X\	.	.	4r	.	.
6g\	.	.	.	.	.	.	.
.	4gg/	.	.	.	4g'/	.	.
6c#X\	.	.	.	[	.	.	.
*	*v	*v	*	*	*	*	*
=134	=134	=134	=134	=134	=134	=134
*ped	*	*	*	*	*	*
6D\)	2ff 2dd\)	.	.	(4a/	.	.
(6f\	.	.	.	.	.	.
.	.	.	.	4aa\)	.	.
6A\	.	.	.	.	.	.
6F\	([2a 2f/	.	.	4r	.	.
!	!LO:TX:b:Bi:t=cresc._:problem:dynamics with extention lines	!	!LO:HP:t=cresc.	!	!	!
6A\	.	.	<	.	.	.
.	.	.	.	[4a/	.	.
6C/	.	.	.	.	.	.
*Xped	*	*	*	*	*	*
!!LO:LB:g=original
=135	=135	=135	=135	=135	=135	=135
*	*^	*	*	*	*	*
*ped	*	*	*	*	*	*	*
6d\	4a/]	[1e	.	.	4a/]	.	.
6G#X\	.	.	.	.	.	.	.
.	4g#X/	.	.	.	(4g#X/	.	<
6E\	.	.	.	.	.	.	.
6BBn/	4a/	.	.	.	4a/)	.	.
6G#\	.	.	.	.	.	.	.
.	4bn/	.	.	.	(4bn\	.	.
6E\	.	.	.	.	.	.	.
*Xped	*	*	*	*	*	*	*
=136	=136	=136	=136	=136	=136	=136	=136
*ped	*	*	*	*	*	*	*
6AA/)	[1cc	2e\]	.	.	4cc\)	.	.
(6c\	.	.	.	.	.	.	.
.	.	.	.	.	(4ee\	.	.
6E\	.	.	.	.	.	.	.
6C/	.	4f#X\	.	.	4ff#X\)	.	.
6E\	.	.	.	.	.	.	.
.	.	4g\	.	.	(4gg\	.	.
6GG/	.	.	.	.	.	.	.
*Xped	*	*	*	*	*	*	*
=137	=137	=137	=137	=137	=137	=137	=137
*ped	*	*	*	*	*	*	*
6FF#X/	4cc/]	1a	.	.	4aa\)	.	.
6c\	.	.	.	.	.	.	.
.	4bn/	.	.	.	4gg#X 4bn\	.	.
6A\	.	.	.	.	.	.	.
6G\	4cc/	.	.	.	4aa 4cc\	.	.
6c\	.	.	.	.	.	.	.
.	4dd/	.	.	.	4bbn 4bn\	.	.
6A\	.	.	.	.	.	.	.
*Xped	*	*	*	*	*	*	*
=138	=138	=138	=138	=138	=138	=138	=138
4DD/)	8ee 8cc 8a\)	4ryy	.	.	4ccc 4a\	.	.
.	8raa	.	.	.	.	.	.
*clefG2	*	*	*	*	*	*	*
*ped	*	*	*	*	*	*	*
[4cc [4a [4g [4d/	4ryy	([4eee [4ccc [>4aa [<4ee^\	.	[ ff	4r	.	.
8cc] 8a] 8g] 8d/]	8eee/L]	8ccc] 8aa] 8ee\]	.	.	2r	.	.
*Xped	*	*	*	*	*	*	*
8r	8ddd/	4.ryy	.	.	.	.	.
4r	8ccc/	.	.	.	.	.	.
.	8aa/J	.	.	.	.	.	.
*	*v	*v	*	*	*	*	*
=139	=139	=139	=139	=139	=139	=139
2r	8ee\L	.	.	1r	.	.
.	8dd\	.	.	.	.	.
.	8cc\	.	.	.	.	.
.	8a\J	.	.	.	.	.
*clefF4	*	*	*	*	*	*
2FF#X 2FFF#X^>/	8e/L	.	.	.	.	.
.	8d/	.	.	.	.	.
.	8c/	.	.	.	.	.
.	8A/J)	.	.	.	.	.
!!LO:PB:g=original
=140	=140	=140	=140	=140	=140	=140
(4.GG 4.GGG/	(4.bn 4.Bn/	.	.	4r	.	.
.	.	.	.	([4aaa^\	.	ff
8AA 8AAA/	8a 8A/	.	.	.	.	.
4BBn 4BBBn/)	4g 4G/)	.	.	8aaa\L]	.	.
.	.	.	.	8ggg\)	.	.
4C 4CC'/	4aa 4a'\	.	.	8fff\	.	.
.	.	.	.	8ddd\J	.	.
=141	=141	=141	=141	=141	=141	=141
4BBn 4BBBn/	4gg 4g'\	.	.	(8aa\L	.	.
.	.	.	.	8gg\	.	.
4r	4ff 4f'\	.	.	8ff\	.	.
.	.	.	.	8dd\J	.	.
4GG 4GGG/	4ee 4e'/	.	.	8bn/L	.	.
.	.	.	.	8g/	.	.
4r	4dd 4d'/	.	.	8f/	.	.
.	.	.	.	8d/J)	.	.
=142	=142	=142	=142	=142	=142	=142
*	*^	*	*	*	*	*
4D 4DD/	4rb	4ryy	.	.	4.c/	.	.
*clefG2	*	*	*	*	*	*	*
*ped	*	*	*	*	*	*	*
[4cc [4a [4g [4d/	4ryy	([4eee [4ccc [4aa [4ee\	.	.	.	.	.
.	.	.	.	.	8Bn/	.	.
8cc] 8a] 8g] 8d/]	8eee/L]	8ccc] 8aa] 8ee\]	.	.	4A/	.	.
*Xped	*	*	*	*	*	*	*
8r	8ddd/	4.ryy	.	.	.	.	.
4r	8ccc/	.	.	.	4ee 4g\	.	.
.	8aa/J	.	.	.	.	.	.
*	*v	*v	*	*	*	*	*
=143	=143	=143	=143	=143	=143	=143
2r	8ee\L	.	.	4dd 4f#X/	.	.
.	8dd\	.	.	.	.	.
.	8cc\	.	.	4cc\	.	.
.	8a\J	.	.	.	.	.
*clefF4	*	*	*	*	*	*
2FF#X 2FFF#X^>/	8e/L	.	.	4bn\	.	.
.	8d/	.	.	.	.	.
.	8c/	.	.	4a/	.	.
.	8A/J)	.	.	.	.	.
=144	=144	=144	=144	=144	=144	=144
(4.GG 4.GGG/	(4.bn 4.Bn/	.	.	4r	.	.
.	.	.	.	([4aaa^<\	.	.
8AA 8AAA/	8a 8A/	.	.	.	.	.
4BBn 4BBBn/)	4g 4G/)	.	.	8aaa\L]	.	.
.	.	.	.	8ggg\)	.	.
4C 4CC'/	4aa 4a'\	.	.	8fff\	.	.
.	.	.	.	8ddd\J	.	.
!!LO:LB:g=original
=145	=145	=145	=145	=145	=145	=145
4BBn 4BBBn/	4gg 4g'\	.	.	(8aa\L	.	.
.	.	.	.	8gg\	.	.
4r	4ff 4f'\	.	.	8ff\	.	.
.	.	.	.	8dd\J	.	.
4GG 4GGG/	4ee 4e'/	.	.	8bn/L	.	.
.	.	.	.	8g/	.	.
4r	4dd 4d'/	.	.	8f/	.	.
.	.	.	.	8d/J)	.	.
=146	=146	=146	=146	=146	=146	=146
*	*ped	*	*	*	*	*
4C 4CC/	4r	.	.	(2.c/	.	.
*clefG2	*	*	*	*	*	*
[4dd [4b- [4g [4e/	([4ggg [4ddd [4bb- [4gg\	.	.	.	.	.
8dd] 8b-] 8g] 8e/]	8ggg]L 8ddd] 8bb-] 8gg\]	.	.	.	.	.
8r	8eee\	.	.	.	.	.
4r	8ddd\	.	.	4d/)	.	.
.	8bb-\J	.	.	.	.	.
=147	=147	=147	=147	=147	=147	=147
2r	8gg\L	.	.	(4.e/	.	.
.	8ee\	.	.	.	.	.
.	8dd\	.	.	.	.	.
.	8b-\J	.	.	8f/	.	.
*clefF4	*	*	*	*	*	*
[2EE [2EEE^>/	8gg\L	.	.	4.g/	.	.
.	8ee\	.	.	.	.	.
.	8dd\	.	.	.	.	.
.	8b-\J	.	.	8a/)	.	.
=148	=148	=148	=148	=148	=148	=148
2EE] 2EEE/]	8g/L	.	.	[1b-	.	.
.	8e/	.	.	.	.	.
.	8d/	.	.	.	.	.
.	8B-/J	.	.	.	.	.
[2GG [2GGG/	8g/L	.	>	.	.	.
.	8e/	.	.	.	.	.
.	8d/	.	.	.	.	.
.	8B-/J	.	.	.	.	.
*	*clefF4	*	*	*	*	*
=149	=149	=149	=149	=149	=149	=149
2GG] 2GGG/]	8G\L	.	.	2b-\]	.	.
.	8E\	.	.	.	.	.
.	8D\	.	.	.	.	.
.	8BB-\J	.	.	.	.	.
(2EE 2EEE/	8G\L	.	]]	(2dT/	.	>]
.	8E\	.	.	.	.	.
.	8D\	.	.	.	.	.
.	8BB-\J	.	.	.	.	.
.	.	.	.	16qqc#X/L	.	.
.	.	.	.	16qqd/J	.	.
!!LO:LB:g=original
=150	=150	=150	=150	=150	=150	=150
4AAA/)	4AA/)	.	.	8c#X/)	.	.
*	*Xped	*	*	*	*	*
.	.	.	.	8r	.	.
4r	4r	.	.	([2g/	.	p
(2AA^/	2r	.	p	.	.	.
.	.	.	.	8g/L]	.	.
.	.	.	.	16f/L	.	.
.	.	.	.	16e/JJ	.	.
=151	=151	=151	=151	=151	=151	=151
!	!	!	!LO:HP:b=2	!	!	!
4.GG#X/	2r	.	<	4f/)	.	.
.	.	.	.	4r	.	.
16AA/LL	.	.	.	.	.	.
16BBn/JJ	.	.	.	.	.	.
[2C/	(2E-X^\	.	[	4r	.	.
.	.	.	.	8r	.	.
.	.	.	.	(16a/LL	.	.
.	.	.	.	16g/JJ	.	.
=152	=152	=152	=152	=152	=152	=152
4C/])	4.D\	.	<	4f#X/)	.	.
(<4BB-X/	.	.	.	4r	.	.
.	16E\LL	.	.	.	.	.
.	16F#X\JJ	.	[	.	.	.
4E-X\	[2G^\	.	.	4.r	.	.
4D\	.	.	.	.	.	.
.	.	.	.	(16cc\LL	.	.
.	.	.	.	16b-\JJ	.	.
=153	=153	=153	=153	=153	=153	=153
!	!	!	!LO:HP:t=cresc. un poco	!	!	!
4C#X/)	4G\])	.	<	4a/)	.	.
(4C#/	(4F#X\	.	.	4r	.	.
4Cn/)	4B-\	.	.	4.r	.	.
(4C/	4A\	.	.	.	.	.
!	!	!	!	!	!	!LO:HP:t=cresc. un poco
.	.	.	.	(16f/LL	.	<
.	.	.	.	16e-X/JJ	.	.
*	*clefG2	*	*	*	*	*
=154	=154	=154	=154	=154	=154	=154
[2BB-/	4d/)	.	.	2d/)	.	.
.	8d/	.	.	.	.	.
.	8r	.	.	.	.	.
8BB-/L]	([2b-\	.	>	[2dd\	.	.
8AA/	.	.	.	.	.	.
8GG/	.	.	.	.	.	.
8EE-X/J	.	.	.	.	.	.
=155	=155	=155	=155	=155	=155	=155
*	*	*	*	*^	*	*
4DD/)	8b-/L]	.	.	4dd\]	2ryy	.	.
.	8a/	.	.	.	.	.	.
4r	8g/	.	.	8dd 8d/	.	.	.
.	8e-X/J	.	.	8r	.	.	.
(2GG\	8d/L	.	]	([2bb- [<2b-/	4d 4G\	.	.
.	8B-/	.	.	.	.	.	.
.	8G</	.	.	.	4ryy	.	.
.	8E-X</J	.	.	.	.	.	.
*	*	*	*	*v	*v	*	*
!!LO:LB:g=original
=156	=156	=156	=156	=156	=156	=156
(<4.FF#X\)	4D</)	.	p	8bb-]L 8b-\]	.	>
!	!	!	!LO:HP:a=2	!	!	!
.	.	.	<	8aa\)	.	.
.	4r	.	.	8ff#X\	.	.
16GG\LL	.	.	.	8ee-X\J	.	.
16AA\JJ	.	.	.	.	.	.
[<2BB-\	2r	.	[	(8dd/L	.	.
.	.	.	.	8b-/	.	.
.	.	.	.	8g/	.	]
.	.	.	.	8d/J	.	.
=157	=157	=157	=157	=157	=157	=157
4BB-/])	2r	.	.	4.c#X/)	.	<
(<4AA/	.	.	.	.	.	.
.	.	.	.	(16d/LL	.	.
.	.	.	.	16e/JJ	.	.
4D\	(2B-/	.	.	[2f/	.	[
4C#X/	.	.	.	.	.	.
=158	=158	=158	=158	=158	=158	=158
!	!	!	!LO:HP:a	!	!	!
4Cn/)	4.A/	.	<	4f/])	.	.
(4C/	.	.	.	(4d/	.	.
.	16Bn/LL	.	.	.	.	.
.	16c/JJ)	.	.	.	.	.
4BBn/)	[2d'/	.	[	4g/)	.	.
(4BB/	.	.	.	(4f/	.	.
=159	=159	=159	=159	=159	=159	=159
[2BB-X/	4d/]	.	.	4e/)	.	.
.	(4g/	.	<	8ev/	.	<
.	.	.	.	8r	.	.
8BB-/L]	4c#X/	.	.	([2gg\	.	.
8GG/	.	.	.	.	.	.
8EE/	4d/	.	.	.	.	.
8DD/J	.	.	.	.	.	.
=160	=160	=160	=160	=160	=160	=160
4CC#X/)	4e/)	.	.	8gg\L]	.	.
.	.	.	.	8ee\)	.	.
4r	4r	.	.	8cc#X\	.	.
.	.	.	.	8b-X\J	.	.
2AA 2AAA/	8r	.	.	(2g/	.	.
.	(<8g/L	.	.	.	.	.
.	8e/	.	.	.	.	.
.	8c#X/J	.	.	.	.	.
=161	=161	=161	=161	=161	=161	=161
*tremolo	*	*	*	*	*	*
8GGG#X/L	8d\L)	.	.	4f/)	.	.
*	*clefF4	*	*	*	*	*
8GG#/	(8D\	.	pp	.	.	.
8GGG#/	8F\	.	.	4r	.	.
8GG#X/J	8B-\J	.	.	.	.	.
8GGG#/L	8d\L	.	.	2r	.	.
8GG#/	8c\	.	.	.	.	.
8GGG#/	8B-\	.	.	.	.	.
8GG#/J	8F\J	.	.	.	.	.
!!LO:LB:g=original
=162	=162	=162	=162	=162	=162	=162
8GGG#X/L	4.D\)	.	.	4r	.	.
8GG#/	.	.	.	.	.	.
8GGG#/	.	.	.	8B-/	.	p
8GG#X/J	(8C/	.	.	8r	.	.
8GGG#/L	4BB-'/)	.	.	[2dd\	.	.
8GG#/	.	.	.	.	.	.
8GGG#/	4C'/	.	.	.	.	.
8GG#/J	.	.	.	.	.	.
=163	=163	=163	=163	=163	=163	=163
8GGG#X/L	8D'\L	.	.	1dd_	.	.
8GG#/	(8F\	.	.	.	.	.
8GGG#/	8B-\	.	.	.	.	.
8GG#X/J	8d\J	.	.	.	.	.
8GGG#/L	8f\L	.	.	.	.	.
8GG#/	8e\	.	.	.	.	.
8GGG#/	8d\	.	.	.	.	.
8GG#/J	8B-\J	.	.	.	.	.
=164	=164	=164	=164	=164	=164	=164
8GGG#X/L	4.F\)	.	.	4dd\]	.	.
8GG#/	.	.	.	.	.	.
8GGG#/	.	.	.	8dv/	.	.
8GG#X/J	(8E\	.	.	8r	.	.
8GGG#/L	4D\)	.	.	[2ff\	.	.
8GG#/	.	.	.	.	.	.
8GGG#/	4E'\	.	.	.	.	.
8GG#/J	.	.	.	.	.	.
=165	=165	=165	=165	=165	=165	=165
8GGG#X/L	8F'\L	.	.	8ff\]	.	.
8GG#/	(8D\	.	.	8r	.	.
!	!LO:TX:b:Bi:t=cresc._:problem:dynamics with extention lines	!	!LO:HP:t=cresc.	!LO:TX:b:Bi:t=cresc.-:problem:dynamics with extention lines	!	!LO:HP:t=cresc.
8GGG#/	8F\	.	<	8d/	.	<
8GG#X/J	8B-\J	.	.	8r	.	.
8GGG#/L	8d\L	.	.	[2fff\	.	.
8GG#/	8B-\	.	.	.	.	.
8GGG#/	8F\	.	.	.	.	.
8GG#/J	8D\J	.	.	.	.	.
=166	=166	=166	=166	=166	=166	=166
8GGG#X/L	8F\L)	.	.	(4.fff\]	.	.
8GG#/	8F'\	.	.	.	.	.
8GGG#/	(8B-\	.	.	.	.	.
8GG#X/J	8d\J	.	.	8eee\)	.	.
8GGG#/L	8f\L	.	.	4ddd'\	.	.
8GG#/	8d\	.	.	.	.	.
8GGG#/	8B-\	.	.	4bb-'\	.	.
8GG#/J	8F\J	.	.	.	.	.
!!LO:PB:g=original
=167	=167	=167	=167	=167	=167	=167
8GGG#X/L	8B-/L)	.	.	(4.ff\	.	.
*	*clefG2	*	*	*	*	*
8GG#/	(8B-/	.	[	.	.	.
8GGG#/	8d/	.	.	.	.	.
8GG#X/J	8f/J	.	.	8ee\)	.	.
8GGG#/L	8b-/L	.	.	4dd'\	.	.
8GG#/	8f/	.	.	.	.	.
8GGG#/	8d/	.	.	4b-'\	.	.
8GG#/J	8B-/J	.	.	.	.	.
=168	=168	=168	=168	=168	=168	=168
8GGG#X/L	8d/L)	.	.	(4f/	.	.
8GG#/	(8d/	.	.	.	.	.
8GGG#/	8f/	.	.	4d/)	.	.
8GG#X/J	8b-/J	.	.	.	.	.
8GGG#/L	8dd/L	.	.	(4c/	.	.
8GG#/	8b-/	.	.	.	.	.
8GGG#/	8f/	.	.	4B-/	.	.
8GG#/J	8d/J	.	.	.	.	.
*Xtremolo	*	*	*	*	*	*
=169	=169	=169	=169	=169	=169	=169
*^	*	*	*	*	*	*
8AA 8AAA/	4ryy	8c#X/)	.	.	8A/)	.	.
8r	.	8r	.	.	8r	.	.
!	!	!LO:S:s=2:note:problem:note-level slur	!	!LO:DY:rj	!	!	!
8e/L	4c#X [4A\	[4aa (4ee [4a\	.	f	([4aa [4a\	.	[ f
8g/J	.	.	.	.	.	.	.
8f/	8d 8A\]	8aa] 8dd) 8a\]	.	.	8aa]L 8a\]	.	.
8r	4.ryy	8r	.	.	8gg\)	.	.
4r	.	4r	.	.	8ff\	.	.
.	.	.	.	.	8dd\J	.	.
*v	*v	*	*	*	*	*	*
=170	=170	=170	=170	=170	=170	=170
2r	2r	.	.	(8a/L	.	.
.	.	.	.	8g/	.	.
.	.	.	.	8f/	.	.
.	.	.	.	8d/J	.	.
4r	4r	.	.	4A/)	.	.
4D 4DD'/	4ff 4bn 4f'\	.	.	4Bn/	.	.
=171	=171	=171	=171	=171	=171	=171
!LO:TX:b:i:t=marc.	!	!	!	!	!	!
4.AA 4.AAA'/	8r	.	.	(4.c/	.	.
.	(8E/L	.	.	.	.	.
.	8A/	.	.	.	.	.
8D 8DD'/	8Bn/J	.	.	8Bn'/)	.	.
4C 4CC'/	8c/L	.	<	4A/	.	.
.	8e/	.	.	.	.	.
4AA 4AAA'/	8a/	.	.	4f/	.	.
.	8bn/J)	.	[[	.	.	.
!!LO:LB:g=original
=172	=172	=172	=172	=172	=172	=172
1GG#X 1GGG#X	4cc 4c/	.	.	4e/	.	.
.	4r	.	.	4d/	.	.
.	8r	.	.	4c/	.	.
.	8E/L	.	.	.	.	.
.	8e 8d/	.	.	4Bn/	.	.
.	[8E/J	.	.	.	.	.
=173	=173	=173	=173	=173	=173	=173
*^	*	*	*	*	*	*
8AA 8AAA/	4ryy	8e 8c 8E/]	.	.	4r	.	.
8r	.	8r	.	.	.	.	.
(8e/L	4c 4A\	[4ccc [4aa [>4ee [4cc\	.	.	([4ccc [4a\	.	.
8a/J	.	.	.	.	.	.	.
8ryy	8e 8c 8A\)	8ccc] 8aa] 8ee] 8cc\]	.	.	8ccc]L 8a\]	.	.
8r	4.ryy	8r	.	.	8bbn\)	.	.
4r	.	4r	.	.	8aa\	.	.
.	.	.	.	.	8ee\J	.	.
*v	*v	*	*	*	*	*	*
=174	=174	=174	=174	=174	=174	=174
2ryy	2r	.	.	(8cc/L	.	.
.	.	.	.	8bn/	.	.
.	.	.	.	8a/	.	.
.	.	.	.	8e/J	.	.
4r	4r	.	.	4c/)	.	.
4FF#X 4FFF#X'/	4dd 4a 4d/	.	.	4d/	.	.
*	*clefF4	*	*	*	*	*
=175	=175	=175	=175	=175	=175	=175
4.GG 4.GGG'/	8r	.	.	(4.B-X/	.	.
.	(<8D\L	.	.	.	.	.
.	8G\	.	.	.	.	.
8C 8CC'/	8A\J	.	.	8A/)	.	.
4BB- 4BBB-'/	8B-/L	.	.	4G/	.	.
*	*clefG2	*	*	*	*	*
.	8d/	.	.	.	.	.
4GG 4GGG'/	8g/	.	.	4b- 4g/	.	.
.	8a/J	.	.	.	.	.
=176	=176	=176	=176	=176	=176	=176
(2C 2CC/	8b-\)	.	.	4d 4B-/	.	.
.	8r	.	.	.	.	.
.	(4e 4B- 4E/	.	.	4e/	.	.
4FF 4FFF/)	4f 4A 4F/)	.	.	4f 4A/	.	.
4r	4r	.	.	4r	.	.
=177	=177	=177	=177	=177	=177	=177
*^	*	*	*	*	*	*
8FF/L	1FF	2c'/	.	p	1c	.	p
8C/	.	.	.	.	.	.	.
8A/	.	.	.	.	.	.	.
8C/J	.	.	.	.	.	.	.
8A/L	.	2f'/	.	.	.	.	.
8C/	.	.	.	.	.	.	.
8A/	.	.	.	.	.	.	.
8C/J	.	.	.	.	.	.	.
!!LO:LB:g=original
=178	=178	=178	=178	=178	=178	=178	=178
8FF/L	1FF	2d'/	.	.	[1cc	.	.
8D/	.	.	.	.	.	.	.
8B-/	.	.	.	.	.	.	.
8D/J	.	.	.	.	.	.	.
8B-/L	.	2g'/	.	.	.	.	.
8D/	.	.	.	.	.	.	.
8B-/	.	.	.	.	.	.	.
8D/J	.	.	.	.	.	.	.
=179	=179	=179	=179	=179	=179	=179	=179
8FF/L	1FF	2e'/	.	.	2cc\]	.	.
8C/	.	.	.	.	.	.	.
8B-/	.	.	.	.	.	.	.
8C/J	.	.	.	.	.	.	.
8B-/L	.	[2a'^/	.	.	2cc\	.	.
8C/	.	.	.	.	.	.	.
8B-/	.	.	.	.	.	.	.
8C/J	.	.	.	.	.	.	.
=180	=180	=180	=180	=180	=180	=180	=180
8FF/L	1FF	8a/L]	.	.	([2ccc\	.	.
8C/	.	8g/	.	.	.	.	.
8A/	.	8f/	.	.	.	.	.
8C/J	.	8d/J	.	.	.	.	.
8A/L	.	2c/	.	.	8ccc\L]	.	.
8C/	.	.	.	.	8aa\	.	.
8A/	.	.	.	.	8ff\	.	.
8C/J	.	.	.	.	8dd\J	.	.
=181	=181	=181	=181	=181	=181	=181	=181
*	*	*^	*	*	*	*	*
4C/	2.FF\	4c/	2.A\	.	<	4cc\)	.	.
4D/	.	4d/	.	.	.	4r	.	.
4E/	.	4e/	.	.	.	2r	.	.
4F/	4r	4f/	4r	.	[	.	.	.
=182	=182	=182	=182	=182	=182	=182	=182	=182
!LO:N:vis=2	!	!	!	!	!LO:HP:t=cresc. un poco	!	!	!
8GG/L	2GG\	(2.b-/	4r	.	<	4r	.	.
8D/	.	.	.	.	.	.	.	.
8B-/	.	.	(2d\	.	.	(2bb-\	.	>
8D/J	.	.	.	.	.	.	.	.
!LO:N:vis=2	!	!	!	!	!	!	!	!
4AA/	2AA\	.	.	.	.	.	.	.
4G/	.	8a/L	4c#X\)	.	.	4aa\)	.	]
.	.	8e/J)	.	.	.	.	.	.
=183	=183	=183	=183	=183	=183	=183	=183	=183
!LO:N:vis=2	!	!	!	!	!	!	!	!
8DD/L	2DD\	(2.f/	4r	.	.	4r	.	.
8AA/	.	.	.	.	.	.	.	.
8F/	.	.	(2A\	.	.	(2ff\	.	>
8AA/J	.	.	.	.	.	.	.	.
!LO:N:vis=2	!	!	!	!	!	!	!	!
4EE/	2EE\	.	.	.	.	.	.	.
4D/	.	8e/L	4G#X\)	.	.	4ee\)	.	]
.	.	8Bn/J)	.	.	.	.	.	.
!!LO:LB:g=original
=184	=184	=184	=184	=184	=184	=184	=184	=184
!LO:N:vis=2	!	!	!	!	!	!	!	!
8AAA/L	2AAA\	(2c/	4r	.	.	2r	.	.
8EE/	.	.	.	.	.	.	.	.
8C/	.	.	2E\	.	.	.	.	.
8EE/J	.	.	.	.	.	.	.	.
!LO:N:vis=2	!	!	!	!	!	!	!	!LO:HP:a
4GGG/	2GGG\	4e/	.	.	.	(2B-/	.	>
4C/	.	8d/L	4E\	.	.	.	.	.
.	.	8B-X/J)	.	.	.	.	.	.
*v	*v	*	*	*	*	*	*	*
*	*v	*v	*	*	*	*	*
=185	=185	=185	=185	=185	=185	=185
8FF 8FFF/	8A 8F/	.	.	8A/)	.	]
8r	8r	.	.	8r	.	.
!	!	!	!	!LO:TX:b:i:t=leggiero	!	!
4r	4cc 4c'/	.	mf	8a/L	.	.
.	.	.	.	8g/J	.	.
!	!LO:TX:b:i:t=marcato	!	!	!	!	!
4r	[2ff [2f\	.	.	(8f/L	.	.
.	.	.	.	8e/)	.	.
(4AA 4AAA/	.	.	.	8d/	.	.
.	.	.	.	8c#X/J	.	.
=186	=186	=186	=186	=186	=186	=186
2.BB- 2.BBB-/)	4ff] 4f\]	.	.	(8d/L	.	.
.	.	.	.	8cn/)	.	.
.	4dd 4d'/	.	.	8B-/	.	.
.	.	.	.	8A/J	.	.
.	[2gg [2g\	.	.	(8G/L	.	.
.	.	.	.	8d/)	.	.
(4BBn 4BBBn/	.	.	.	8e/	.	.
.	.	.	.	8f/J	.	.
=187	=187	=187	=187	=187	=187	=187
2.C 2.CC/)	4gg] 4g\]	.	.	(8e/L	.	.
.	.	.	.	8g/)	.	.
.	(4dd 4d/	.	.	8a'/	.	.
.	.	.	.	8b-'/J	.	.
.	4ee 4e/)	.	<	(8a/L	.	.
.	.	.	.	8g/	.	.
(4C#X 4CC#X/	([4aa [4a\	.	.	8f/	.	.
.	.	.	[	8e/J)	.	.
=188	=188	=188	=188	=188	=188	=188
[2D [2DD/)	8aa]L 8a\]	.	.	4f'/	.	.
.	8gg\	.	.	.	.	.
.	8ff\	.	.	4A'/	.	.
.	8dd\J	.	.	.	.	.
8D] 8DD/]	8a/)	.	.	8r	.	.
8r	8r	.	.	(<8a/L	.	.
4F 4FF/	4a 4e-X 4A/	.	f	8b-X/	.	.
.	.	.	.	8cc/J	.	.
!!LO:LB:g=original
=189	=189	=189	=189	=189	=189	=189
8BB- 8BBB-/	8b- 8d 8B-/	.	.	8b-\)	.	.
8r	8r	.	.	8r	.	.
!	!	!	!	!LO:TX:b:i:t=marc.	!	!
(8d\L	4r	.	p	8ff 8dd\	.	.
8c\J	.	.	.	8r	.	.
8B-\L	4r	.	.	[2bb- [2b-\	.	.
8A\	.	.	.	.	.	.
8G\	(4dd (4d/	.	.	.	.	.
8F#X\J	.	.	.	.	.	.
=190	=190	=190	=190	=190	=190	=190
8G\L	2.ee-X 2.e-X/))	.	.	8bb-] 8b-\]	.	.
8Fn\	.	.	.	8r	.	.
8E-X\	.	.	<	8gg 8ee-X\	.	.
8D\J	.	.	.	8r	.	.
8C\L	.	.	.	[2ccc 2cc\	.	.
8G\	.	.	.	.	.	.
8A\	(4een (4en/	.	.	.	.	.
8B-\J)	.	.	.	.	.	.
=191	=191	=191	=191	=191	=191	=191
(8A\L	2.ff 2.f\))	.	.	4ccc\]	.	.
8c\	.	.	.	.	.	.
8d\	.	.	.	(4gg\	.	.
8e-X\J	.	.	.	.	.	.
8d\L	.	.	.	4aa\)	.	.
8c\	.	.	.	.	.	.
8B-\	(4ff#X (4f#X\	.	.	([4ddd\	.	.
8A\J)	.	.	.	.	.	.
=192	=192	=192	=192	=192	=192	=192
4B-\	4gg 4g\))	.	.	8ddd\L]	.	<
.	.	.	.	8ccc\)	.	.
4GG/	4r	.	.	8bb-\	.	.
.	.	.	.	8gg\J	.	.
4r	4r	.	.	(8ff\L	.	.
.	.	.	.	8dd\	.	.
4BB- 4BBB-'/	4dd 4a-X 4d'/	.	f	8b-\	.	.
.	.	.	.	8a-X\J	.	.
=193	=193	=193	=193	=193	=193	=193
8E-X 8EE-X'/	8ee-X 8g 8e-X'/	.	.	8g/)	.	.
8r	8r	.	.	8r	.	.
!	!	!	!	!LO:TX:b:i:t=legg.	!	!
4r	4b- 4B-'/	.	.	(8ee-X\L	.	.
.	.	.	.	8dd\J)	.	.
4r	[2ee- [2e-/	.	.	(8cc/L	.	.
.	.	.	.	8b-/)	.	.
(4GG 4GGG/	.	.	.	8a-X/	.	.
.	.	.	.	8g/J	.	.
!!LO:PB:g=original
=194	=194	=194	=194	=194	=194	=194
2.AA-X 2.AAA-X/)	4ee-] 4e-/]	.	.	(8f/L	.	.
.	.	.	.	8e-X/)	.	.
.	4cc 4c'/	.	.	8d/	.	.
.	.	.	.	8e-/J	.	.
.	[2ff [2f\	.	.	(8Bn/L	.	.
.	.	.	.	8c/	.	.
(4AAn 4AAAn/	.	.	.	8d/	.	.
.	.	.	.	8e-/J	.	.
=195	=195	=195	=195	=195	=195	=195
2.BB- 2.BBB-/)	8ff]L 8f/]	.	.	8d/)	.	.
.	(8dd/	.	.	8r	.	.
.	8g/	.	.	8dd\	.	.
.	8f/J	.	.	8r	.	.
.	8d/L	.	.	[2gg [2g\	.	.
.	8G</	.	.	.	.	.
!	!	!	!LO:DY:b=2	!	!	!
(4GG 4BBBn\	8F</	.	sfz	.	.	.
.	8G</J	.	.	.	.	.
=196	=196	=196	=196	=196	=196	=196
!	!LO:TX:t=P:problem:mixed beam	!	!LO:HP:b=2	!	!	!
2GG 2CC\)	8E-X</L	.	<	8gg] 8g\]	.	.
.	8G</	.	.	8r	.	.
.	8c</	.	.	8ee-X\	.	.
.	8e-X\J	.	.	8r	.	.
4r	8g\L	.	.	([2eee-X 2ee-\	.	.
.	8B-\	.	.	.	.	.
4D-X 4DD-X/	8e-\	.	[	.	.	.
.	8g\J)	.	.	.	.	.
=197	=197	=197	=197	=197	=197	=197
2C 2CC/	8a-X 8e-X 8A-X/	.	.	8eee-\L]	.	.
.	8r	.	.	8ccc\)	.	.
.	4ee-X 4e-X'/	.	.	8aa-X\	.	.
.	.	.	.	8ee-X\J	.	.
4r	[2aa-X [2a-X\	.	.	(8cc/L	.	.
.	.	.	.	8a-X/	.	.
(4c 4C\	.	.	.	8e-X/	.	.
.	.	.	.	8c/J	.	.
=198	=198	=198	=198	=198	=198	=198
2d-X 2D-X\)	4aa-] 4a-\]	.	.	8B-/L	.	.
.	.	.	.	8A-X/)	.	.
.	4ff 4f'\	.	.	(8G/	.	.
.	.	.	.	8A-/J	.	.
4r	[2bb- [2b-\	.	.	8B-/L	.	.
.	.	.	.	8f/	.	.
(4Dn 4DDn/	.	.	.	8g/	.	.
.	.	.	.	8a-X/J	.	.
!!LO:LB:g=original
=199	=199	=199	=199	=199	=199	=199
2E-X 2EE-X/)	8bb-]L 8b-\]	.	.	8g/)	.	.
.	(8gg\	.	.	8r	.	.
.	8cc\	.	.	8gg\	.	.
.	8b-\J	.	.	8r	.	.
4r	8g/L	.	.	[2ccc\	.	<
.	8c/	.	.	.	.	.
!	!	!	!LO:DY:b=2	!	!	!
([4C 4EEn/	8B-/	.	sfz	.	.	.
.	8c/J	.	.	.	.	.
=200	=200	=200	=200	=200	=200	=200
2C] 2FF/)	8A-X/L	.	.	4ccc\]	.	.
.	8c/	.	.	.	.	.
.	8f/	.	.	8cc\	.	[
.	8a-X/J	.	.	8r	.	.
4r	8cc/L	.	.	2ff\	.	.
.	8c/	.	.	.	.	.
4FF 4FFF'/	8f/	.	.	.	.	.
.	8a-/J)	.	.	.	.	.
=201	=201	=201	=201	=201	=201	=201
.	(<8qe-X/	.	.	.	.	.
8r	[1ee-X [1e-X)	.	p	4r	.	.
*ped	*	*	*	*	*	*
(8GG-X/L	.	.	.	.	.	.
8C/	.	.	.	([4A-X/	.	p
8E-X/J	.	.	.	.	.	.
8A-X\L	.	.	.	8A-/L]	.	.
8E-\	.	.	.	8e-X/)	.	.
8C\	.	.	.	8a-X/	.	.
8E-\J	.	.	.	8b-/J	.	.
*Xped	*	*	*	*	*	*
=202	=202	=202	=202	=202	=202	=202
8GG-X\L	2ee-] 2e-/]	.	.	(4.cc\	.	.
8C\	.	.	.	.	.	.
8E-X\	.	.	.	.	.	.
8A-X\J	.	.	.	8b-'\)	.	.
8E-\L	4cc 4c/	.	.	4a-X'/	.	.
8C\	.	.	.	.	.	.
8E-\	4b- 4B-/	.	.	4b-'\	.	.
8C\J)	.	.	.	.	.	.
!!LO:LB:g=original
=203	=203	=203	=203	=203	=203	=203
(8GG-X\L	2.a-X 2.A-X/	.	.	(8cc\L	.	.
8C\	.	.	.	8ee-X\)	.	.
8E-X\	.	.	.	8aa-X\	.	.
8A-X\J	.	.	.	8bb-\J	.	.
8E-\L	.	.	.	(8ccc\L	.	<
8C\	.	.	.	8bb-\	.	.
8E-\	4cc 4c/	.	<	8aa-\	.	.
8C\J	.	.	.	8ff\J)	.	.
=204	=204	=204	=204	=204	=204	=204
8GG-X\L	2ee-X 2e-X/	.	.	(4.ee-X\	.	.
8C\	.	.	.	.	.	.
8E-X\	.	.	.	.	.	.
8A-X\J	.	.	.	8dd-\)	.	.
8E-\L	2aa-X 2a-X\	.	[	(4cc'\	.	.
8C\	.	.	.	.	.	.
8E-\	.	.	.	4ee-'\)	.	[
8C\J)	.	.	.	.	.	.
=205	=205	=205	=205	=205	=205	=205
*ped	*Xbrackettup	*	*	*	*	*
!	!LO:TUP:a:r=1	!	!	!	!	!
6FF/	6r	.	ff	[1ccc-X	.	ff
6a-X 6e-X 6c-X\	6ccc-X 6aa-X 6ee-X 6cc-X\	.	.	.	.	.
6a- 6e- 6c-\	6ccc- 6aa- 6ee- 6cc-\	.	.	.	.	.
6a- 6e- 6c-\	6ccc- 6aa- 6ee- 6cc-\	.	.	.	.	.
6a- 6e- 6c-\	6ccc- 6aa- 6ee- 6cc-\	.	.	.	.	.
6a- 6e- 6c-\	6ccc- 6aa- 6ee- 6cc-\	.	.	.	.	.
=206	=206	=206	=206	=206	=206	=206
*	*Xtuplet	*	*	*Xbrackettup	*	*
!	!	!	!	!LO:TUP:a	!	!
6a-X 6e-X 6c-X\	6ccc-X 6aa-X 6ee-X 6cc-X\	.	.	3ccc-\]	.	.
6c- 6F\	6ee- 6a-X 6e-X/	.	.	.	.	.
6c- 6F\	6ee- 6a- 6e-/	.	.	(6cc-X\	.	.
!	!	!	!	!LO:TUP:a	!	!
6c- 6F\	6ee- 6a- 6e-/	.	.	6aa-X\)	.	.
6c- 6F\	6ee- 6a- 6e-/	.	.	6gg-X\	.	.
*Xped	*	*	*	*	*	*
6c- 6F\	6ee- 6a- 6e-/	.	.	6ff\	.	.
=207	=207	=207	=207	=207	=207	=207
6BB- 6BBB-/	6r	.	.	2ff\	.	.
*ped	*	*	*	*	*	*
6e-X 6B- 6F\	6aa-X 6ee-X 6a-X\	.	.	.	.	.
6e- 6B- 6F\	6aa- 6ee- 6a-\	.	.	.	.	.
6e- 6B- 6F\	6aa- 6ee- 6a-\	.	.	([2a-X/	.	.
6e- 6B- 6F\	6aa- 6ee- 6a-\	.	.	.	.	.
*Xped	*	*	*	*	*	*
6e- 6B- 6F\	6aa- 6ee- 6a-\	.	.	.	.	.
!!LO:LB:g=original
=208	=208	=208	=208	=208	=208	=208
6e-X 6B- 6F\	6aa 6ee-X 6a-X\	.	.	2a-X/]	.	.
*ped	*	*	*	*	*	*
6B- 6F 6BB-\	6dd 6a- 6d/	.	.	.	.	.
6B- 6F 6BB-\	6dd 6a- 6d/	.	.	.	.	.
!	!	!	!	!LO:TUP:a	!	!
6B- 6F 6BB-\	6dd 6a- 6d/	.	.	3ff\	.	.
6B- 6F 6BB-\	6dd 6a- 6d/	.	.	.	.	.
*Xped	*	*	*	*	*	*
6B- 6F 6BB-\	6dd 6a- 6d/	.	.	6ff\)	.	.
=209	=209	=209	=209	=209	=209	=209
.	(<8qb-/	.	.	.	.	.
8r	([1bb- [1b-)	.	.	(2ff\	.	>
*ped	*	*	*	*	*	*
8D-X\L	.	.	.	.	.	.
8G\	.	.	.	.	.	.
8B-\J	.	.	.	.	.	.
8e-X\L	.	.	.	[2ee-X\	.	.
8B-\	.	.	.	.	.	.
8G\	.	.	.	.	.	.
8B-\J	.	.	.	.	.	.
=210	=210	=210	=210	=210	=210	=210
8D-X\L	2bb-] 2b-\]	.	.	2ee-\])	.	]
8G\	.	.	.	.	.	.
8B-\	.	.	.	.	.	.
8e-X\J	.	.	.	.	.	.
8B-\L	4gg 4g\	.	.	2r	.	.
8G\	.	.	.	.	.	.
8B-\	4ff 4f\)	.	.	.	.	.
8G\J	.	.	.	.	.	.
=211	=211	=211	=211	=211	=211	=211
8D-X\L	(2.ee-X 2.e-X/	.	.	8r	.	.
8G\	.	.	.	(8g\L	.	p
8B-\	.	.	.	8b-\	.	.
8e-X\J	.	.	.	8ee-X\J	.	.
8B-\L	.	.	.	8gg\L	.	.
8G\	.	.	.	8ff\	.	.
8B-\	4gg 4g\	.	.	8ee-\	.	.
8G\J	.	.	.	8b-\J)	.	.
!!LO:LB:g=original
=212	=212	=212	=212	=212	=212	=212
8D-X\L	2bb- 2b-\)	.	<	(4.bb-\	.	<
8G\	.	.	.	.	.	.
8B-\	.	.	.	.	.	.
8e-X\J	.	.	.	8aa-X\)	.	.
8B-\L	2eee-X 2ee-X\	.	.	4gg'\	.	.
8G\	.	.	.	.	.	.
8B-\	.	.	.	4bb-'\	.	.
8G\J	.	.	[	.	.	[
*Xped	*	*	*	*	*	*
=213	=213	=213	=213	=213	=213	=213
6C/	6r	.	.	[1ggg-X	.	ff
*ped	*	*	*	*	*	*
*clefG2	*	*	*	*	*	*
6ee-X 6b- 6g-X\	6ggg-X 6eee-X 6bb- 6gg-X\	.	ff	.	.	.
6ee- 6b- 6g-\	6ggg- 6eee- 6bb- 6gg-\	.	.	.	.	.
6ee- 6b- 6g-\	6ggg- 6eee- 6bb- 6gg-\	.	.	.	.	.
6ee- 6b- 6g-\	6ggg- 6eee- 6bb- 6gg-\	.	.	.	.	.
6ee- 6b- 6g-\	6ggg- 6eee- 6bb- 6gg-\	.	.	.	.	.
=214	=214	=214	=214	=214	=214	=214
!	!	!	!	!LO:TUP:a	!	!
*Xped	*	*	*	*	*	*
6ee-X 6b- 6g-X\	6ggg-X 6eee-X 6bb- 6gg-X\	.	.	3ggg-\]	.	.
*	*ped	*	*	*	*	*
6f 6c 6F/	6aa 6ee-X 6a\	.	.	.	.	.
6f 6c 6F/	6aa 6ee- 6a\	.	.	(6aan\	.	.
!	!	!	!	!LO:TUP:a	!	!
6f 6c 6F/	6aa 6ee- 6a\	.	.	6eee-X\)	.	.
6f 6c 6F/	6aa 6ee- 6a\	.	.	6ddd-X\	.	.
6f 6c 6F/	6aa 6ee- 6a\	.	.	6ccc\	.	.
*clefF4	*Xped	*	*	*	*	*
=215	=215	=215	=215	=215	=215	=215
*ped	*	*	*	*	*	*
6D 6DD/	6r	.	.	2fff\	.	.
6f 6c 6A-X\	6fff 6ccc 6ff\	.	.	.	.	.
6f 6c 6A-\	6fff 6ccc 6ff\	.	.	.	.	.
6f 6c 6A-\	6fff 6ccc 6ff\	.	.	([2ff\	.	.
6f 6c 6A-\	6fff 6ccc 6ff\	.	.	.	.	.
6f 6c 6A-\	6fff 6ccc 6ff\	.	.	.	.	.
*Xped	*	*	*	*	*	*
=216	=216	=216	=216	=216	=216	=216
*ped	*	*	*	*	*	*
6f 6c 6A-X\	6fff 6ccc 6ff\	.	.	2ff\]	.	.
6g 6d 6G\	6bbn 6ff 6bn\	.	.	.	.	.
6g 6d 6G\	6bb 6ff 6b\	.	.	.	.	.
!	!	!	!	!LO:TUP:a	!	!
6g 6d 6G\	6bb 6ff 6b\	.	.	3fff\	.	.
6g 6d 6G\	6bb 6ff 6b\	.	.	.	.	.
6g 6d 6G\	6bb 6ff 6b\	.	.	6fff'\)	.	.
*Xped	*	*	*	*	*	*
!!LO:PB:g=original
=217	=217	=217	=217	=217	=217	=217
!	!LO:TX:b:i:t=con gran espress.	!	!	!	!	!
.	(<8qgg/	.	.	.	.	.
*ped	*	*	*	*	*	*
8r	([1ggg [1gg)	.	.	(2fff\	.	.
8CC/L	.	.	.	.	.	.
8GG/	.	.	.	.	.	.
8C/J	.	.	.	.	.	.
8E-X\L	.	.	.	[2eee-X\	.	.
8G\	.	.	.	.	.	.
8c\	.	.	.	.	.	.
8d\J	.	.	.	.	.	.
=218	=218	=218	=218	=218	=218	=218
8e-X\L	2ggg] 2gg\]	.	.	4eee-\])	.	.
8c\	.	.	.	.	.	.
8G\	.	.	.	4r	.	.
8E-X\J	.	.	.	.	.	.
8G/L	4eee-X 4ee-X\	.	.	2r	.	.
8E-/	.	.	.	.	.	.
8C/	4ddd 4dd'\)	.	.	.	.	.
*Xped	*	*	*	*	*	*
8GG/J	.	.	.	.	.	.
=219	=219	=219	=219	=219	=219	=219
*ped	*	*	*	*	*	*
!	!	!	!	!LO:TX:b:i:t=espress.	!	!
6AA/	6r	.	.	[1eee-X	.	.
6g 6e-X 6c 6A\	6ccc 6gg 6ee-X 6cc\	.	.	.	.	.
6g 6e- 6c 6A\	6ccc 6gg 6ee- 6cc\	.	.	.	.	.
6g 6e- 6c 6A\	6ccc 6gg 6ee- 6cc\	.	.	.	.	.
6g 6e- 6c 6A\	6ccc 6gg 6ee- 6cc\	.	.	.	.	.
6g 6e- 6c 6A\	6ccc 6gg 6ee- 6cc\	.	.	.	.	.
=220	=220	=220	=220	=220	=220	=220
*Xped	*	*	*	*	*	*
!	!	!	!	!LO:TUP:a	!	!
6g 6e-X 6c 6A\	6ccc 6gg 6ee-X 6cc\	.	.	3eee-\]	.	.
*ped	*	*	*	*	*	*
6d 6A 6D\	6ff#X 6cc 6f#X\	.	.	.	.	.
6d 6A 6D\	6ff# 6cc 6f#\	.	.	(6ff#X\	.	.
!	!	!	!	!LO:TUP:a	!	!
6d 6A 6D\	6ff# 6cc 6f#\	.	.	6ccc\)	.	.
6d 6A 6D\	6ff# 6cc 6f#\	.	.	6bb-\	.	.
6d 6A 6D\	6ff# 6cc 6f#\	.	.	6aa\	.	.
=221	=221	=221	=221	=221	=221	=221
.	(<8qdd/	.	.	.	.	.
8r	([1ddd [1dd)	.	.	(2ccc\	.	.
*ped	*	*	*	*	*	*
8GG\L	.	.	.	.	.	.
8D\	.	.	.	.	.	.
8G\J	.	.	.	.	.	.
8B-\L	.	.	.	[2bb-\	.	.
8d\	.	.	.	.	.	.
8g\	.	.	.	.	.	.
8a\J	.	.	.	.	.	.
!!LO:LB:g=original
=222	=222	=222	=222	=222	=222	=222
!	!	!	!	!LO:TX:a:t=P:problem:brak zakończenia łuku	!	!
8b-\L	2ddd] 2dd\]	.	.	4bb-\])	.	.
8g\	.	.	.	.	.	.
8d\	.	.	.	4r	.	.
8B-\J	.	.	.	.	.	.
8d\L	4bb- 4b-\	.	.	2r	.	.
8B-\	.	.	.	.	.	.
8G\	4aa 4a'\)	.	.	.	.	.
8D\J	.	.	.	.	.	.
*Xped	*	*	*	*	*	*
=223	=223	=223	=223	=223	=223	=223
*ped	*	*	*	*	*	*
6EE/	6r	.	.	[1bb-	.	.
6d 6B- 6G 6E\	6gg 6dd 6b- 6g\	.	.	.	.	.
6d 6B- 6G 6E\	6gg 6dd 6b- 6g\	.	.	.	.	.
6d 6B- 6G 6E\	6gg 6dd 6b- 6g\	.	.	.	.	.
6d 6B- 6G 6E\	6gg 6dd 6b- 6g\	.	.	.	.	.
6d 6B- 6G 6E\	6gg 6dd 6b- 6g\	.	.	.	.	.
=224	=224	=224	=224	=224	=224	=224
*Xped	*	*	*	*	*	*
!	!	!	!	!LO:TUP:a	!	!
6d 6B- 6G 6E\	6gg 6dd 6b- 6g\	.	.	3bb-\]	.	.
*ped	*	*	*	*	*	*
6A 6E 6AA\	6cc#X 6g 6c#X/	.	.	.	.	.
6A 6E 6AA\	6cc# 6g 6c#/	.	.	(6cc#X\	.	>
!	!	!	!	!LO:TUP:a	!	!
6A 6E 6AA\	6cc# 6g 6c#/	.	.	6gg\)	.	.
6A 6E 6AA\	6cc# 6g 6c#/	.	.	6ff\	.	.
6A 6E 6AA\	6cc# 6g 6c#/	.	.	6ee\	.	]
*Xped	*clefF4	*	*	*	*	*
=225	=225	=225	=225	=225	=225	=225
*tremolo	*	*	*	*	*	*
8AAA-X/L	8r	.	pp	[1ff	.	p
8AA-/	(8D\L	.	.	.	.	.
8AAA-/	8F\	.	.	.	.	.
8AA-X/J	8B-\J	.	.	.	.	.
8AAA-/L	8d\L	.	.	.	.	.
8AA-/	8c\	.	.	.	.	.
8AAA-/	8B-\	.	.	.	.	.
8AA-/J	8F\J	.	.	.	.	.
=226	=226	=226	=226	=226	=226	=226
!	!	!	!	!LO:TUP:a	!	!
8AAA-X/L	4.D\)	.	.	3ff\]	.	.
8AA-/	.	.	.	.	.	.
8AAA-/	.	.	.	.	.	.
.	.	.	.	(6f/	.	.
8AA-X/J	(8C/	.	.	.	.	.
!	!	!	!	!LO:TUP:a	!	!
8AAA-/L	4BB-/)	.	.	6dd\)	.	.
8AA-/	.	.	.	.	.	.
.	.	.	.	6cc\	.	.
8AAA-/	4C'/	.	.	.	.	.
.	.	.	.	6b-\	.	.
8AA-/J	.	.	.	.	.	.
!!LO:LB:g=original
=227	=227	=227	=227	=227	=227	=227
8AAA-X/L	8D'\L	.	.	[1bb-	.	.
8AA-/	(8F\	.	.	.	.	.
8AAA-/	8B-\	.	.	.	.	.
8AA-X/J	8d\J	.	.	.	.	.
8AAA-/L	8f\L	.	.	.	.	.
8AA-/	8d\	.	.	.	.	.
8AAA-/	8c\	.	.	.	.	.
8AA-/J	8B-\J	.	.	.	.	.
=228	=228	=228	=228	=228	=228	=228
!	!	!	!	!LO:TUP:a	!	!
8AAA-X/L	4.F\)	.	.	3bb-\]	.	.
8AA-/	.	.	.	.	.	.
8AAA-/	.	.	.	.	.	.
.	.	.	.	(6dd\	.	.
8AA-X/J	(8E-X\	.	.	.	.	.
!	!	!	!	!LO:TUP:a	!	!
8AAA-/L	4D\)	.	.	6ff\)	.	.
8AA-/	.	.	.	.	.	.
.	.	.	.	6ee-X\	.	.
8AAA-/	4F'\	.	.	.	.	.
.	.	.	.	6dd\	.	.
8AA-/J	.	.	.	.	.	.
*Xtremolo	*	*	*	*	*	*
=229	=229	=229	=229	=229	=229	=229
.	.	.	.	(<8qdd/	.	.
*	*ped	*	*	*	*	*
!	!	!	!LO:HP:t=cresc. poco a poco	!	!	!LO:HP:t=cresc. poco a poco
8AAA-X/	8B-'\L	.	<	1bb-^)	.	<
*	*clefG2	*	*	*	*	*
8r	(8f\	.	.	.	.	.
4r	8b-\	.	.	.	.	.
.	8dd\J	.	.	.	.	.
2r	8ff\L	.	.	.	.	.
.	8dd\	.	.	.	.	.
.	8b-\	.	.	.	.	.
.	8f\J)	.	.	.	.	.
=230	=230	=230	=230	=230	=230	=230
.	.	.	.	(<8qdd/	.	.
8r	[1ff [1dd [1b- [1f	.	.	1ddd^)	.	.
(8D\L	.	.	.	.	.	.
8F\	.	.	.	.	.	.
8B-\J	.	.	.	.	.	.
8d\L	.	.	.	.	.	.
8B-\	.	.	.	.	.	.
8F\	.	.	.	.	.	.
[<8D\J)	.	.	.	.	.	.
=231	=231	=231	=231	=231	=231	=231
.	.	.	.	(<8qff/	.	.
1d 1B- 1F 1D]	8ff]L 8dd] 8b-] 8f\]	.	.	[1fff^)	.	.
.	(8a-X\	.	.	.	.	.
.	8b-\	.	.	.	.	.
.	8ff\J	.	.	.	.	.
.	8aa-X\L	.	.	.	.	.
.	8ff\	.	.	.	.	.
.	8b-\	.	.	.	.	.
.	8a-\J)	.	.	.	.	.
!!LO:LB:g=original
=232	=232	=232	=232	=232	=232	=232
!	!	!	!	!LO:TUP:a	!	!
8r	[1aa-X [1ff [>1b-X [1a-X	.	.	3fff\]	.	.
(8F\L	.	.	.	.	.	.
8B-\	.	.	.	.	.	.
.	.	.	.	(6bb-\	.	.
8d\J	.	.	.	.	.	.
!	!	!	!	!LO:TUP:a	!	!
8f\L	.	.	.	6ddd\)	.	.
8d\	.	.	.	.	.	.
.	.	.	.	6ccc\	.	.
8B-\	.	.	.	.	.	.
.	.	.	.	6bb-\	.	.
[<8F\J)	.	.	.	.	.	.
=233	=233	=233	=233	=233	=233	=233
.	.	.	.	(<8qbb-/	.	.
8f 8d 8B- 8F\]	8aa-]L 8ff] 8b-] 8a-\]	.	.	2.aaa-X\)	.	.
8r	(8ff\	.	.	.	.	.
4r	8bb-\	.	.	.	.	.
.	8ddd\J	.	.	.	.	.
2r	8fff\L	.	.	.	.	.
.	8ddd\	.	.	.	.	.
.	8bb-\	.	.	(4ddd\	.	.
.	8ff\J)	.	.	.	.	.
=234	=234	=234	=234	=234	=234	=234
(8dd>\L	2ryy	.	.	4fff\)	.	.
8b->\	.	.	.	.	.	.
8f>\	.	.	.	4ddd\	.	.
8d>\J)	.	.	.	.	.	.
2ryy	(8aa-X/L	.	.	(4ccc\	.	.
.	8ff/	.	.	.	.	.
.	8b-/	.	.	4bb-\)	.	.
.	8a-X/J)	.	.	.	.	.
=235	=235	=235	=235	=235	=235	=235
(8f>\L	2ryy	.	.	4ddd\	.	.
8d>\	.	.	.	.	.	.
8B->\	.	.	.	4bb-\	.	.
8A-X>\J)	.	.	.	.	.	.
2ryy	(8ff/L	.	.	(4ff\	.	.
.	8dd/	.	.	.	.	.
.	8b-/	.	.	4dd\)	.	.
.	8f/J)	.	.	.	.	.
=236	=236	=236	=236	=236	=236	=236
(8a-X\L	2ryy	.	.	4ff\	.	.
8d\	.	.	.	.	.	.
8B-\	.	.	.	4dd\	.	.
8F\J)	.	.	.	.	.	.
2ryy	(8aa-X\L	.	.	(4cc\	.	.
.	8dd\	.	.	.	.	.
.	8b-\	.	.	4b-\)	.	.
.	8a-X\J)	.	.	.	.	.
!!LO:LB:g=original
=237	=237	=237	=237	=237	=237	=237
(8F\L	2ryy	.	.	(4f/	.	.
8D\	.	.	.	.	.	.
8BB-\	.	.	.	4d/)	.	.
8AA-X\J)	.	.	.	.	.	.
2ryy	(8f/L	.	.	4c/	.	.
.	8d/	.	.	.	.	.
.	8B-/	.	.	4B-/	.	.
.	8F/J)	.	.	.	.	.
=238	=238	=238	=238	=238	=238	=238
(8A-X\L	2ryy	.	.	(4b-\	.	.
8D\	.	.	.	.	.	.
8BB-\	.	.	.	4f/)	.	.
8FF\J)	.	.	.	.	.	.
2ryy	(8a-X/L	.	.	4e-X/	.	.
.	8d/	.	.	.	.	.
.	8B-/	.	.	4d/	.	.
.	8A-X/J)	.	.	.	.	.
=239	=239	=239	=239	=239	=239	=239
(8F\L	2ryy	.	.	([1f	.	.
8D\	.	.	.	.	.	.
8BB-\	.	.	.	.	.	.
8AA-X\J)	.	.	.	.	.	.
2ryy	(8f/L	.	.	.	.	.
.	8d/	.	.	.	.	.
.	8B-/	.	.	.	.	.
.	8F/J)	.	.	.	.	.
=240	=240	=240	=240	=240	=240	=240
(8FF/L	2ryy	.	.	4f/]	.	.
8DD/	.	.	.	.	.	.
8BBB-/	.	.	.	4d/)	.	.
8GGG#X/J)	.	.	.	.	.	.
*	*clefF4	*	*	*	*	*
2ryy	(8d\L	.	.	(4c/	.	.
.	8B-\	.	.	.	.	.
.	8F\	.	.	4B-/)	.	.
*Xped	*	*	*	*	*	*
.	8D\J)	.	.	.	.	.
=241	=241	=241	=241	=241	=241	=241
*^	*	*	*	*	*	*
8AAA/	4ryy	8FF/	.	.	8A/	.	.
8r	.	8r	.	.	8r	.	.
*	*	*clefG2	*	*	*	*	*
8e/L	(4c#X 4A\	([4aa [4a\	.	f	4r	.	.
8g/J	.	.	.	.	.	.	.
8ryy	8f 8d\)	8aa]L 8a\]	.	.	2r	.	.
8r	8ryy	8gg\	.	.	.	.	.
4r	4ryy	8ff\	.	.	.	.	.
.	.	8dd\J	.	.	.	.	.
*v	*v	*	*	*	*	*	*
!!LO:PB:g=original
=242	=242	=242	=242	=242	=242	=242
2r	8a/L	.	.	1r	.	.
.	8g/	.	.	.	.	.
.	8f/	.	.	.	.	.
.	8d/J	.	.	.	.	.
4r	4A/)	.	.	.	.	.
4D 4DD'/	4bn 4f 4Bn'/	.	.	.	.	.
=243	=243	=243	=243	=243	=243	=243
(4.AA 4.AAA/	(4.cc 4.e 4.c/	.	.	1r	.	.
8BBn 8BBBn/	8bn 8Bn/	.	.	.	.	.
4C 4CC/)	4a 4A/)	.	.	.	.	.
4D 4DD'/	4ff 4f'\	.	.	.	.	.
=244	=244	=244	=244	=244	=244	=244
*	*^	*	*	*	*	*
4E 4EE/	4ee 4e'/	2ryy	.	.	1r	.	.
4r	4dd 4d'/	.	.	.	.	.	.
(2GG#X 2GGG#X/	(4cc 4c/	[>2e\	.	.	.	.	.
.	4bn 4Bn/	.	.	.	.	.	.
*	*v	*v	*	*	*	*	*
=245	=245	=245	=245	=245	=245	=245
*^	*	*	*	*	*	*
8AA 8AAA/)	4ryy	8cc 8e] 8c/)	.	.	1r	.	.
8r	.	8r	.	.	.	.	.
8e/L	[4c [4A\	([4ccc [4aa [>4ee [4cc\	.	.	.	.	.
8a/J	.	.	.	.	.	.	.
8ryy	8e 8c] 8A]\	8ccc]L 8aa] 8ee] 8cc\]	.	.	.	.	.
8r	4.ryy	8bbn\	.	.	.	.	.
4r	.	8aa\	.	.	.	.	.
.	.	8ee\J	.	.	.	.	.
*v	*v	*	*	*	*	*	*
=246	=246	=246	=246	=246	=246	=246
2r	8cc/L	.	.	1r	.	.
.	8bn/	.	.	.	.	.
.	8a/	.	.	.	.	.
.	8e/J	.	.	.	.	.
4r	4c/)	.	.	.	.	.
4FF#X 4FFF#X'/	4dd 4d'/	.	.	.	.	.
=247	=247	=247	=247	=247	=247	=247
*	*^	*	*	*	*	*
(4.GG 4.GGG/	(<4.b- 4.B-/	[>2d\	.	.	1r	.	.
8AA 8AAA/	8a 8A/	.	.	.	.	.	.
4BB- 4BBB-/)	4g 4d] 4G/)	2ryy	.	.	.	.	.
4GG 4GGG'/	4b- 4B-'/	.	.	.	.	.	.
!!LO:LB:g=original
=248	=248	=248	=248	=248	=248	=248	=248
(<2C 2CC\	(4d 4D</	2B-\	.	.	1r	.	.
.	4e 4E</	.	.	.	.	.	.
4FF 4FFF\)	4f 4A 4F</)	2ryy	.	.	.	.	.
4r	4r	.	.	.	.	.	.
*	*v	*v	*	*	*	*	*
=249	=249	=249	=249	=249	=249	=249
4D 4DD/	8r	.	.	4r	.	.
.	(8A/L	.	.	.	.	.
2F 2D\	8a 8f 8d/	.	.	([4aa 4dd 4f\	.	f
.	8A/J	.	.	.	.	.
.	4dd 4a 4f/)	.	.	8aa\L]	.	.
.	.	.	.	8gg\)	.	.
4r	4r	.	.	8ff\	.	.
.	.	.	.	8dd\J	.	.
=250	=250	=250	=250	=250	=250	=250
2r	2r	.	.	(8a/L	.	.
.	.	.	.	8g/	.	.
.	.	.	.	8f/	.	.
.	.	.	.	8d/J	.	.
4r	4r	.	.	4A/)	.	.
4D 4DD'/	4bn 4f 4Bn'/	.	.	4Bn/	.	.
=251	=251	=251	=251	=251	=251	=251
4.AA 4.AAA/	4cc 4e 4c'/	.	.	(4.c/	.	.
.	4r	.	.	.	.	.
8BBn 8BBBn/	.	.	.	8Bn'/)	.	.
4C 4CC/	2r	.	.	4A/	.	.
4D 4DD/	.	.	.	4f/	.	.
=252	=252	=252	=252	=252	=252	=252
4E 4EE/	2r	.	.	4e/	.	.
4r	.	.	.	4d/	.	.
2GG#X 2GGG#X/	8r	.	.	4c/	.	.
.	(8E/L	.	.	.	.	.
.	8e 8d/	.	.	4Bn/	.	.
.	8E/J)	.	.	.	.	.
=253	=253	=253	=253	=253	=253	=253
4AA 4AAA/	8r	.	.	4r	.	.
.	(8E/L	.	.	.	.	.
2C 2AA/	8e 8c 8A/	.	.	([4ccc [4a\	.	.
.	8E/J	.	.	.	.	.
.	4a 4e 4c/)	.	.	8ccc]L 8a\]	.	.
.	.	.	.	8bbn\)	.	.
4r	4r	.	.	8aa\	.	.
.	.	.	.	8ee\J	.	.
!!LO:LB:g=original
=254	=254	=254	=254	=254	=254	=254
2r	2r	.	.	(8cc/L	.	.
.	.	.	.	8bn/	.	.
.	.	.	.	8a/	.	.
.	.	.	.	8e/J	.	.
4r	4r	.	.	4c/)	.	.
4FF 4FFF'/	4dd 4d'/	.	.	4A/	.	.
=255	=255	=255	=255	=255	=255	=255
(4.GG 4.GGG/	(4.b- 4.B-/	.	.	2r	.	.
8AA 8AAA/	8a 8A/	.	.	.	.	.
4BB- 4BBB-/)	4g 4G/)	.	.	4r	.	.
4FF 4FFF'/	4dd 4d'/	.	.	4g/	.	.
=256	=256	=256	=256	=256	=256	=256
!	!	!	!	!LO:N:n=3:vis=4	!	!
!	!	!	!	!LO:N:n=2:vis=4	!	!
(4.EE 4.EEE/	2.cc 2.c/	.	.	(>4.b- 4.g 4.G/	.	.
8FF 8FFF/	.	.	.	8a/)	.	.
4GG 4GGG/)	.	.	.	(4g'/	.	.
4EE 4EEE'/	4b- 4B-'/	.	.	4dd'\)	.	.
=257	=257	=257	=257	=257	=257	=257
(4.FF 4.FFF/	(4.a 4.A/	.	.	4cc\	.	.
.	.	.	.	4r	.	.
8GG 8GGG/	8g 8G/	.	.	.	.	.
4AA 4AAA/)	4f 4F/)	.	.	4r	.	.
4AA 4AAA'/	4ff 4f'\	.	.	4cc\	.	.
=258	=258	=258	=258	=258	=258	=258
!	!	!	!	!LO:N:n=3:vis=4	!	!
!	!	!	!	!LO:N:n=2:vis=4	!	!
(4.GG#X 4.GGG#X/	2.ee 2.e/	.	.	(>4.dd 4e 4G#X/	.	.
8AA 8AAA/	.	.	.	8cc/)	.	.
4BBn 4BBBn/)	.	.	.	(4bn'\	.	.
4GG# 4GGG#'/	4dd 4d'/	.	.	4ff'\)	.	.
=259	=259	=259	=259	=259	=259	=259
(4.AA 4.AAA/	(4.cc 4.c/	.	.	4ee\	.	.
.	.	.	.	4r	.	.
8BBn 8BBBn/	8bn 8Bn/	.	.	.	.	.
4C 4CC/)	4a 4A/)	.	.	2r	.	.
4AA 4AAA/	[4cc [4c^>/	.	.	.	.	.
!!LO:LB:g=original
=260	=260	=260	=260	=260	=260	=260
(2D 2DD/	4cc] 4c/]	.	>	2r	.	.
.	2bn 2Bn/	.	.	.	.	.
2D#X 2DD#X/	.	.	]]	(2c^/	.	.
.	[4a [4A/	.	.	.	.	.
=261	=261	=261	=261	=261	=261	=261
2E 2EE/	4a] 4A/]	.	.	4Bn/)	.	.
.	2g#X 2G#X/	.	.	4r	.	.
2D#X 2DD#X/	.	.	.	2f^/	.	.
.	([4a [4A/	.	.	.	.	.
=262	=262	=262	=262	=262	=262	=262
2Dn 2DDn/	4a] 4A/]	.	.	(4.e/	.	.
.	2bn 2Bn/)	.	.	.	.	.
.	.	.	.	8f/)	.	>
4C 4CC/)	.	.	.	4e/	.	.
4BBn 4BBBn'/	4e 4E'/	.	.	4d/	.	]
=263	=263	=263	=263	=263	=263	=263
4AA 4AAA'/	4a 4A'/	.	.	4c/	.	.
4r	4r	.	.	4r	.	.
!	!	!	!LO:DY:b=2	!	!	!
(2A\	2r	.	p	2r	.	.
=264	=264	=264	=264	=264	=264	=264
4.G#X\	1r	.	.	2r	.	.
!	!	!	!LO:HP:b=2	!	!	!
16A\LL	.	.	<	.	.	.
16Bn\JJ	.	.	.	.	.	.
[2c\	.	.	[	(2a/	.	p
=265	=265	=265	=265	=265	=265	=265
4c\])	2r	.	.	4.g#X/)	.	<
!	!	!	!LO:DY:b=2	!	!	!
(4Bn\	.	.	p	.	.	.
.	.	.	.	(16a/LL	.	.
.	.	.	.	16bn/JJ	.	.
4e\	8r	.	.	[2cc\	.	[
.	(8ee\L	.	.	.	.	.
4d#X\	8eee\	.	.	.	.	.
.	8ee\J	.	.	.	.	.
*clefG2	*	*	*	*	*	*
!!LO:LB:g=original
=266	=266	=266	=266	=266	=266	=266
*	*tremolo	*	*	*	*	*
[4e/)	8eee\L	.	.	4cc\])	.	.
.	8ee\	.	.	.	.	.
8e/]	8eee\	.	.	(4bn\	.	.
8r	8ee\J	.	.	.	.	.
[2cc\	8eee\L	.	.	4ee\)	.	.
.	8ee\	.	.	.	.	.
.	8eee\	.	.	(4dd#X\	.	.
.	8ee\J)	.	.	.	.	.
=267	=267	=267	=267	=267	=267	=267
4cc\]	(8eee\L	.	.	4ee\)	.	.
.	8ee\	.	.	.	.	.
(4bn\	8eee\	.	.	8ee\	.	.
.	8ee\J	.	.	8r	.	.
4a/	8eee\L	.	.	[2ccc\	.	.
.	8ee\	.	.	.	.	.
4f/	8eee\	.	.	.	.	.
.	8ee\J	.	.	.	.	.
=268	=268	=268	=268	=268	=268	=268
4e/)	8eee\L	.	.	4ccc\]	.	.
.	8ee\	.	.	.	.	.
(4e/	8eee\	.	.	(4bbn\	.	.
.	8ee\J	.	.	.	.	.
4d#X/)	8eee\L	.	.	4aa\)	.	.
.	8ee\	.	.	.	.	.
(4d#/	8eee\	.	.	(4ff\	.	.
.	8ee\J)	.	.	.	.	.
=269	=269	=269	=269	=269	=269	=269
[4dn/	(8eee\L	.	.	4ee\)	.	.
.	8ee\	.	.	.	.	.
16d/LL]	8eee\	.	.	(4ee\	.	.
16cn/	.	.	.	.	.	.
16e/	8ee\J	.	.	.	.	.
16d/JJ	.	.	.	.	.	.
4c/)	8eee\L	.	.	4dd#X\)	.	.
.	8ee\	.	.	.	.	.
(4c/	8eee\	.	.	(4dd#\	.	.
.	8ee\J	.	.	.	.	.
*	*Xtremolo	*	*	*	*	*
=270	=270	=270	=270	=270	=270	=270
4Bn/	8eee\L	.	.	[4ddn\	.	.
.	8ee\	.	.	.	.	.
4e/	8eee\	.	.	16dd\LL])	.	.
.	.	.	.	(16cc\	.	.
.	8ee\J	.	.	16ee\	.	.
.	.	.	.	16dd\JJ	.	.
!	!LO:TX:b:i:t=rit.	!	!	!LO:TX:b:i:t=ritard.	!	!
4G#X/)	8eee\)	.	.	4cc\	.	.
.	8r	.	.	.	.	.
*clefF4	*	*	*	*	*	*
4A'\	4cc 4a 4e'/	.	.	4cc'\)	.	.
=271	=271	=271	=271	=271	=271	=271
2.E;\	2.bn 2.g#X 2.e;/	.	.	2.bn;\	.	.
4r	4r	.	.	4r	.	.
!!LO:PB:g=original
=272	=272	=272	=272	=272	=272	=272
!	!LO:TX:a:i:t=a tempo	!	!	!LO:TX:a:i:t=a tempo	!	!
1r	2r	.	.	1r	.	.
.	(8qa/	.	.	.	.	.
.	(2aa\)	.	mf	.	.	.
=273	=273	=273	=273	=273	=273	=273
2r	4.gg#X\	.	<	1r	.	.
.	16aa\LL	.	.	.	.	.
.	16bbn\JJ	.	.	.	.	.
(2E-X\	[2ccc [2cc\	.	[	.	.	.
=274	=274	=274	=274	=274	=274	=274
!	!	!	!LO:HP:b=2	!	!	!
4.D\	4ccc] 4cc\])	.	<	2r	.	.
.	(4aa 4a\	.	.	.	.	.
16E\LL	.	.	.	.	.	.
16F#X\JJ	.	.	.	.	.	.
[2G\	4eee-X 4ee-X\	.	[	8r	.	p
.	.	.	.	8d/L	.	.
.	4ccc#X 4cc#X\	.	.	8dd/	.	.
.	.	.	.	8d/J	.	.
=275	=275	=275	=275	=275	=275	=275
*	*	*	*	*tremolo	*	*
4G\]	4ddd 4dd\)	.	.	8dd/L	.	.
.	.	.	.	8d/	.	.
(4F#X\)	8ddd 8dd\	.	<	8dd/	.	.
.	8r	.	.	8d/J	.	.
*clefG2	*	*	*	*	*	*
4d/	[2bbb- [2bb-\	.	.	8dd/L	.	<
.	.	.	.	8d/	.	.
4c#X/	.	.	.	8dd/	.	.
.	.	.	.	8d/J	.	.
=276	=276	=276	=276	=276	=276	=276
4d/)	4bbb-] 4bb-\]	.	.	8dd/L	.	.
.	.	.	.	8d/	.	.
8d/	(4aaa 4aa\	.	.	8dd/	.	.
8r	.	.	.	8d/J	.	.
[2b-\	4ggg 4gg\	.	.	8dd/L	.	.
.	.	.	.	8d/	.	.
.	4eee-X 4ee-X\	.	.	8dd/	.	.
.	.	.	.	8d/J	.	.
=277	=277	=277	=277	=277	=277	=277
4b-\]	4ddd 4dd\)	.	>	8dd/L	.	>
.	.	.	.	8d/	.	.
(4a/	(4ddd 4dd\	.	.	8dd/	.	.
.	.	.	.	8d/J	.	.
4g/	4ccc#X 4cc#X\)	.	.	8dd/L	.	.
.	.	.	.	8d/	.	.
4e-X/	4ccc# 4cc#\	.	]	8dd/	.	.
.	.	.	.	8d/J	.	]]
*	*	*	*	*Xtremolo	*	*
!!LO:LB:g=original
=278	=278	=278	=278	=278	=278	=278
.	(8qccn/	.	.	(8qdd/	.	.
[1d)	(8cccn\L)	.	p	[1ddd)	.	p
.	8aa\	.	.	.	.	.
.	8ff#X\	.	.	.	.	.
.	8dd\J	.	.	.	.	.
.	8cc/L	.	.	.	.	.
.	8a/	.	.	.	.	.
.	8f#X/	.	.	.	.	.
.	8a/J	.	.	.	.	.
=279	=279	=279	=279	=279	=279	=279
8d/]	4cc\)	.	.	4ddd\]	.	.
8r	.	.	.	.	.	.
*clefF4	*	*	*	*	*	*
[4C#X/	4r	.	.	((4aa\	.	.
8C#\L]	2gg 2ee-X 2b- 2g^\	.	.	4bb-\)	.	.
8G\	.	.	.	.	.	.
8B-\	.	.	.	4eee-X'\)	.	.
8e-X\J	.	.	.	.	.	.
=280	=280	=280	=280	=280	=280	=280
.	(8qcc/	.	.	.	.	.
[1D	(8ccc\L)	.	.	[1ddd	.	.
.	8aa\	.	.	.	.	.
.	8ff#X\	.	.	.	.	.
.	8dd\J	.	.	.	.	.
.	8cc/L	.	.	.	.	.
.	8a/	.	.	.	.	<
.	8f#X/	.	.	.	.	.
.	8a/J	.	.	.	.	.
=281	=281	=281	=281	=281	=281	=281
8D\]	4cc\)	.	<	4ddd\]	.	.
8r	.	.	.	.	.	.
[4D-X\	4r	.	.	((4aa\	.	.
8D-\L]	2bb- 2gg 2b-^\	.	.	4bb-\)	.	[
8G\	.	.	.	.	.	.
8B-\	.	.	.	4fff'\)	.	.
8f\J	.	.	[	.	.	.
=282	=282	=282	=282	=282	=282	=282
.	(8qb-/	.	.	.	.	.
[1C	(8bb-\L)	.	<	[1eee	.	<
.	8gg\	.	.	.	.	.
.	8ee\	.	.	.	.	.
.	8cc\J	.	.	.	.	.
.	8b-/L	.	.	.	.	.
.	8g/	.	.	.	.	.
.	8e/	.	.	.	.	.
.	8g/J	.	.	.	.	.
!!LO:LB:g=original
=283	=283	=283	=283	=283	=283	=283
8C/]	4b-\)	.	.	4eee\]	.	.
8r	.	.	.	.	.	.
[4C/	4r	.	.	(4ccc\	.	.
8C\L]	(2ff 2dd 2a-X 2f\	.	.	4ddd\)	.	.
8F\	.	.	.	.	.	.
8A-X\	.	.	.	(4fff\	.	.
8d\J	.	.	.	.	.	.
=284	=284	=284	=284	=284	=284	=284
8C/	4ee 4cc 4g\)	.	.	4eee\)	.	.
8r	.	.	.	.	.	.
8CC/L	4r	.	.	(4ccc\	.	.
8C/J	.	.	.	.	.	.
8CC/L	8r	.	.	4ddd\)	.	.
8C/	(8f/L	.	.	.	.	.
8CC/	8a-X/	.	.	(4fff\	.	.
8C/J	8bn/J)	.	.	.	.	.
=285	=285	=285	=285	=285	=285	=285
*tremolo	*	*	*	*	*	*
8CC/L	(8cc/L	.	.	4eee\)	.	.
8C/	8g/	.	.	.	.	.
8CC/	8e/	.	.	(4ccc\	.	.
8C/J	8G/J	.	.	.	.	.
8CC/L	4f 4Bn/)	.	.	4ddd\)	.	.
8C/	.	.	.	.	.	.
8CC/	(4f 4B/	.	.	(4ggg\	.	.
8C/J	.	.	.	.	.	.
=286	=286	=286	=286	=286	=286	=286
8CC/L	4dd 4f/)	.	.	4fff\)	.	.
8C/	.	.	.	.	.	.
8CC/	4r	.	.	(4ddd\	.	.
8C/J	.	.	.	.	.	.
8CC/L	8r	.	.	4eee\)	.	.
8C/	(8g\L	.	.	.	.	.
8CC/	8b-X\	.	.	(4ggg\	.	.
8C/J	8ee\J	.	.	.	.	.
=287	=287	=287	=287	=287	=287	=287
8CC/L	8ff\L	.	.	4fff\)	.	.
8C/	8bn\	.	.	.	.	.
8CC/	8a-X\	.	.	(4ddd\	.	.
8C/J	8f\J	.	.	.	.	.
8CC/L	4cc 4e/)	.	.	4eee\)	.	.
8C/	.	.	.	.	.	.
8CC/	(4cc 4e/	.	.	(4aaa\	.	.
8C/J	.	.	.	.	.	.
*Xtremolo	*	*	*	*	*	*
=288	=288	=288	=288	=288	=288	=288
4CC/	4gg 4b-X\)	.	.	4ggg\)	.	.
2CC/	4r	.	.	(4ddd\	.	.
.	(2bn 2d/	.	.	4eee\)	.	.
[4C/	.	.	.	(4aaa\	.	.
!!LO:LB:g=original
=289	=289	=289	=289	=289	=289	=289
4C/]	2b-X 2e/	.	.	4ggg\)	.	.
2CC/	.	.	.	(4eee\	.	.
.	2g 2B-/	.	.	4ccc\	.	.
4C/	.	.	.	4bb-\)	.	.
=290	=290	=290	=290	=290	=290	=290
!	!	!	!	!LO:TX:b:i:t=con gran espress.	!	!
(<8FF/L	4f 4A/)	.	.	1aa	.	.
8C/	.	.	.	.	.	.
8D/	4r	.	.	.	.	.
8C/J	.	.	.	.	.	.
8c^\L	(2f^>/	.	f	.	.	.
8C\	.	.	.	.	.	.
8D\	.	.	.	.	.	.
8C\J	.	.	.	.	.	.
=291	=291	=291	=291	=291	=291	=291
8FF/L	4.e/	.	.	(1ccc	.	.
8C/	.	.	.	.	.	.
8D/	.	.	.	.	.	.
8C/J	16f/LL	.	<	.	.	.
.	16g/JJ	.	.	.	.	.
8F^\L	[2a/	.	.	.	.	.
8C\	.	.	.	.	.	.
8D\	.	.	.	.	.	.
8C\J)	.	.	[	.	.	.
=292	=292	=292	=292	=292	=292	=292
(<8FF/L	4a/])	.	.	2bbn\)	.	.
8C/	.	.	.	.	.	.
8D/	(4g/	.	.	.	.	.
8C/J	.	.	.	.	.	.
8G^\L	4cc\	.	.	2bb-X\	.	.
8C\	.	.	.	.	.	.
8D\	4bn\	.	.	.	.	.
8C\J	.	.	.	.	.	.
=293	=293	=293	=293	=293	=293	=293
8FF/L	4cc\)	.	.	(2.aa\	.	.
8C/	.	.	.	.	.	.
8D/	8cc\	.	.	.	.	.
8C/J	8r	.	.	.	.	.
8c^\L	[2aa [2a\	.	.	.	.	.
8C\	.	.	.	.	.	.
8D\	.	.	.	4gg\	.	.
8C\J)	.	.	.	.	.	.
!!LO:LB:g=original
=294	=294	=294	=294	=294	=294	=294
(<8FF/L	4aa] 4a\]	.	.	2ff\)	.	.
8C/	.	.	.	.	.	.
8D/	(4gg (4g\	.	.	.	.	.
8C/J	.	.	.	.	.	.
8A^\L	4ff 4f\))	.	.	([2aa\	.	.
8C\	.	.	.	.	.	.
8D\	(4cc 4c/	.	.	.	.	.
8C\J	.	.	.	.	.	.
=295	=295	=295	=295	=295	=295	=295
8FF/L	4bn 4d/)	.	.	4aa\]	.	.
8C/	.	.	.	.	.	.
8D/	(4b 4d/	.	.	4gg\)	.	.
8C/J	.	.	.	.	.	.
8G^\L	4b-X 4e/)	.	.	4ee\	.	.
8C\	.	.	.	.	.	.
8D\	(4b- 4e/	.	.	4dd\	.	.
8C\J)	.	.	.	.	.	.
=296	=296	=296	=296	=296	=296	=296
(8FF/L	4a 4f/)	.	.	(2.cc\	.	.
8C/	.	.	.	.	.	.
8D/	4cc\	.	.	.	.	.
8C/J)	.	.	.	.	.	.
4.A\	(4e/	.	<	.	.	.
.	4f/	.	.	8b-/L	.	.
8EE-X/	.	.	.	8a/J)	.	.
=297	=297	=297	=297	=297	=297	=297
(8DD/L	4f#X/	.	.	(2.dd\	.	<
8D/	.	.	.	.	.	.
8E-X/	4a/	.	.	.	.	.
8D/J	.	.	.	.	.	.
8C/L	4d/	.	.	.	.	.
8D/	.	.	.	.	.	.
8AA/	4f#/	.	.	4cc\)	.	[
8D/J)	.	.	[	.	.	.
=298	=298	=298	=298	=298	=298	=298
(<8GG/L	4g/)	.	.	2b-\	.	.
8D/	.	.	.	.	.	.
8E-X/	4r	.	.	.	.	.
8D/J	.	.	.	.	.	.
8B-^\L	(2g/	.	.	[2ddd\	.	.
8D\	.	.	.	.	.	.
8E-\	.	.	.	.	.	.
8D\J	.	.	.	.	.	.
!!LO:PB:g=original
=299	=299	=299	=299	=299	=299	=299
8GG/L	4.f#X/	.	.	2ddd\]	.	.
8D/	.	.	.	.	.	.
8E-X/	.	.	.	.	.	.
8D/J	16g/LL	.	.	.	.	.
.	16a/JJ	.	.	.	.	.
8G^\L	[2b-\	.	.	(2ccc#X\	.	.
8D\	.	.	.	.	.	.
8E-\	.	.	.	.	.	.
8D\J)	.	.	.	.	.	.
=300	=300	=300	=300	=300	=300	=300
(<8GG/L	4b-\])	.	.	2cccn\)	.	.
8D/	.	.	.	.	.	.
8E-X/	(4a/	.	.	.	.	.
8D/J	.	.	.	.	.	.
8d^\L	4dd\	.	.	(4bb-~\	.	.
8D\	.	.	.	.	.	.
8E-\	4cc#X\	.	.	4aa~\)	.	.
8D\J	.	.	.	.	.	.
=301	=301	=301	=301	=301	=301	=301
8GG/L	4dd\)	.	.	(2.bb-\	.	.
8D/	.	.	.	.	.	.
8E-X/	8dd\	.	.	.	.	.
8D/J	8r	.	.	.	.	.
8G^\L	[2bb- [2b-\	.	.	.	.	.
8D\	.	.	.	.	.	.
8E-\	.	.	.	4aa\	.	.
8D\J)	.	.	.	.	.	.
=302	=302	=302	=302	=302	=302	=302
(<8GG/L	4bb-] 4b-\]	.	.	2gg\)	.	.
8D/	.	.	.	.	.	.
8E-X/	(4aa 4a\	.	.	.	.	.
8D/J	.	.	.	.	.	.
*	*	*	*	*8va	*	*
.	.	.	.	(8qgg/	.	.
8d^\L	4gg 4g\)	.	.	[2bbb-\)	.	.
8D\	.	.	.	.	.	.
8E-\	(>4ee-X 4e-X/	.	.	.	.	.
8D\J	.	.	.	.	.	.
=303	=303	=303	=303	=303	=303	=303
8GG\L	4dd 4d/)	.	.	4bbb-\]	.	.
8D\	.	.	.	.	.	.
8G\	(>4dd 4d/	.	.	(4aaa\	.	.
8A\J	.	.	.	.	.	.
8B-\L	4dd-X 4d-X/)	.	.	4ggg\	.	.
8G\	.	.	.	.	.	.
8A\	(>4dd- 4d-/	.	.	4fff\)	.	.
8G\J)	.	.	.	.	.	.
!!LO:LB:g=original
=304	=304	=304	=304	=304	=304	=304
(8C\L	4cc 4c/)	.	.	2eee\	.	.
8G\	.	.	.	.	.	.
8A\	(>4cc 4c/	.	.	.	.	.
8G\J	.	.	.	.	.	.
8c^\L	4bn 4d/)	.	.	(2fffT\	.	.
8G\	.	.	.	.	.	.
8A\	(>4b 4d/	.	.	.	.	.
8G\J	.	.	.	.	.	.
.	.	.	.	16qqeee/L	.	.
.	.	.	.	16qqfff/J	.	.
=305	=305	=305	=305	=305	=305	=305
8C\L	2b-X 2e/)	.	.	4ggg\)	.	.
8G\	.	.	.	.	.	.
8A\	.	.	.	4eee\	.	.
8G\J	.	.	.	.	.	.
.	.	.	.	(<8qeee/	.	.
8e^<\L	(4.bb- 4.b-\	.	.	(4ddd\)	.	.
8G\	.	.	.	.	.	.
8A\	.	.	.	4ccc\)	.	.
8G\J)	16aa\LL	.	.	.	.	.
.	16gg\JJ)	.	.	.	.	.
=306	=306	=306	=306	=306	=306	=306
*ped	*8va	*	*	*	*	*
.	8qaa/	.	.	.	.	.
!	!LO:TX:b:i:t=con gran espress.	!	!	!	!	!
(<6FF/	[1cccc	.	.	4ccc\	.	.
*clefG2	*	*	*	*	*	*
6cc\	.	.	.	.	.	.
*	*	*	*	*X8va	*	*
!	!	!	!	!	!	!LO:DY:rj
.	.	.	.	8c/	.	f
6f/	.	.	.	.	.	.
.	.	.	.	8r	.	.
!	!	!	!	!LO:TX:a:i:t=risoluto	!	!
6c/	.	.	.	(2f/	.	.
6f/	.	.	.	.	.	.
6c/	.	.	.	.	.	.
*clefF4	*	*	*	*	*	*
=307	=307	=307	=307	=307	=307	=307
6A\	2cccc\]	.	.	8e/L	.	.
.	.	.	.	8f/)	.	.
6c\	.	.	.	.	.	.
.	.	.	.	8g/	.	.
6F\	.	.	.	.	.	.
.	.	.	.	8a/J	.	.
6C/	[<2ccc\	.	.	(<8g/L	.	.
.	.	.	.	8a/	.	.
6F\	.	.	.	.	.	.
.	.	.	.	8b-/	.	.
6C/)	.	.	.	.	.	.
*Xped	*	*	*	*	*	*
.	.	.	.	8cc/J	.	.
=308	=308	=308	=308	=308	=308	=308
*	*^	*	*	*	*	*
*ped	*	*	*	*	*	*	*
(6GG/	2ccc\]	[>1ddd	.	.	8b-\)	.	.
.	.	.	.	.	8r	.	.
*clefG2	*	*	*	*	*	*	*
6b-\	.	.	.	.	.	.	.
.	.	.	.	.	8d/	.	.
6f/	.	.	.	.	.	.	.
.	.	.	.	.	8r	.	.
6d/	2dd\	.	.	.	([2aa\	.	.
6f/	.	.	.	.	.	.	.
6d/	.	.	.	.	.	.	.
*Xped	*	*	*	*	*	*	*
*	*v	*v	*	*	*	*	*
=309	=309	=309	=309	=309	=309	=309
*ped	*	*	*	*	*	*
6G/	4ddd] 4bb-\	.	.	8aa\L]	.	.
.	.	.	.	8gg\)	.	.
6b-\	.	.	.	.	.	.
.	(4eee 4ee'/	.	.	8ee\	.	.
6e/	.	.	.	.	.	.
.	.	.	.	8dd\J	.	.
6c/	4fff 4ff'\	.	.	(8cc/L	.	.
.	.	.	.	8b-/	.	.
6e/	.	.	.	.	.	.
.	4ggg 4gg'\)	.	.	8g/	.	.
6c/)	.	.	.	.	.	.
*Xped	*	*	*	*	*	*
.	.	.	.	8e/J	.	.
*clefF4	*	*	*	*	*	*
!!LO:LB:g=original
=310	=310	=310	=310	=310	=310	=310
.	(8qaa/	.	.	.	.	.
*ped	*	*	*	*	*	*
(<6FF/	[1aaa)	.	.	8f/)	.	.
.	.	.	.	8r	.	.
*clefG2	*	*	*	*	*	*
6a/	.	.	.	.	.	.
.	.	.	.	8A/	.	.
6d/	.	.	.	.	.	.
.	.	.	.	8r	.	.
6A/	.	.	.	(2d/	.	.
6d/	.	.	.	.	.	.
6A/	.	.	.	.	.	.
*clefF4	*	*	*	*	*	*
=311	=311	=311	=311	=311	=311	=311
6F\	2aaa\]	.	.	8c#X/L	.	.
.	.	.	.	8d/)	.	.
6A\	.	.	.	.	.	.
.	.	.	.	8e/	.	.
6D\	.	.	.	.	.	.
.	.	.	.	8f/J	.	.
*	*X8va	*	*	*	*	*
6AA/	([<2aa\	.	.	(8e/L	.	.
.	.	.	.	8f/	.	.
6D\	.	.	.	.	.	.
.	.	.	.	8g/	.	.
6AA/)	.	.	.	.	.	.
*Xped	*	*	*	*	*	*
.	.	.	.	8a/J	.	.
=312	=312	=312	=312	=312	=312	=312
*	*^	*	*	*	*	*
*ped	*	*	*	*	*	*	*
(6EE/	2aa\]	1bbn	.	.	8g/)	.	.
.	.	.	.	.	8r	.	.
6g\	.	.	.	.	.	.	.
.	.	.	.	.	8G/	.	.
6d\	.	.	.	.	.	.	.
.	.	.	.	.	8r	.	.
6Bn\	2bn\)	.	.	.	([2ff\	.	.
6d\	.	.	.	.	.	.	.
6B\	.	.	.	.	.	.	.
*Xped	*	*	*	*	*	*	*
*	*v	*v	*	*	*	*	*
=313	=313	=313	=313	=313	=313	=313
*ped	*	*	*	*	*	*
6E\	4bb- 4gg\	.	.	8ff\L]	.	.
.	.	.	.	8ee\)	.	.
6g\	.	.	.	.	.	.
.	(4ccc#X 4cc#X'\	.	.	8cc#X\	.	.
6c#X\	.	.	.	.	.	.
.	.	.	.	8b-\J	.	.
6A\	4ddd 4dd'\	.	.	(8a/L	.	.
.	.	.	.	8g/	.	.
6c#\	.	.	.	.	.	.
.	4eee 4ee'\)	.	.	8e/	.	.
6A\)	.	.	.	.	.	.
*Xped	*	*	*	*	*	*
.	.	.	.	8c#X/J	.	.
=314	=314	=314	=314	=314	=314	=314
.	(8qff/	.	.	.	.	.
*ped	*	*	*	*	*	*
(6D\	[1fff)	.	.	8d/)	.	.
.	.	.	.	8r	.	.
*clefG2	*	*	*	*	*	*
6dd\	.	.	.	.	.	.
.	.	.	.	8f/	.	.
6b-\	.	.	.	.	.	.
.	.	.	.	8r	.	.
6f/	.	.	.	[2b-\	.	p
6b-\	.	.	.	.	.	.
6f/	.	.	.	.	.	.
=315	=315	=315	=315	=315	=315	=315
6d/	2fff\]	.	.	8b-\L]	.	.
.	.	.	.	(8a\	.	.
6f/	.	.	.	.	.	.
.	.	.	.	8b-\	.	.
6B-/	.	.	.	.	.	.
.	.	.	.	8cc\J	.	.
6F/	[<2ff\	.	.	8dd\L	.	.
.	.	.	.	8cc\	.	.
6B-/	.	.	.	.	.	.
.	.	.	.	8b-\	.	.
6F/)	.	.	.	.	.	.
*Xped	*	*	*	*	*	*
.	.	.	.	8a-X\J)	.	.
*clefF4	*	*	*	*	*	*
!!LO:LB:g=original
=316	=316	=316	=316	=316	=316	=316
*	*^	*	*	*	*	*
6D-X\	2gg/	2ff\]	.	.	(4g/	.	.
*clefG2	*	*	*	*	*	*	*
(6b-\	.	.	.	.	.	.	.
.	.	.	.	.	4gg\)	.	<
!	!	!LO:TX:b:Bi:t=cresc._:problem:dynamics with extention lines	!	!LO:HP:t=cresc.	!	!	!
6f/	.	.	.	<	.	.	.
6c/	2aa/	2ee-X\	.	.	4r	.	.
6cc\	.	.	.	.	.	.	.
.	.	.	.	.	4a'/	.	.
6f/	.	.	.	.	.	.	.
=317	=317	=317	=317	=317	=317	=317	=317
6B-/	(2.ddd/	2dd\	.	.	(4b-\	.	.
6g/	.	.	.	.	.	.	.
.	.	.	.	.	4bb-\)	.	.
6e/	.	.	.	.	.	.	.
6A/	.	2ff#X\	.	.	4r	.	.
6cc\	.	.	.	.	.	.	.
.	4ccc/	.	.	.	4cc'\	.	.
6f#X/)	.	.	.	.	.	.	.
=318	=318	=318	=318	=318	=318	=318	=318
*ped	*	*	*	*	*	*	*
(6G/	2bb-/)	2gg\	.	.	(4dd\	.	.
6b-\	.	.	.	.	.	.	.
.	.	.	.	.	4ddd\)	.	.
6d/	.	.	.	.	.	.	.
6F/	([2dd/	2b-\	.	.	4r	.	.
6d/	.	.	.	.	.	.	.
.	.	.	.	.	[4dd\	.	.
6B-/	.	.	.	.	.	.	.
*Xped	*	*	*	*	*	*	*
=319	=319	=319	=319	=319	=319	=319	=319
*ped	*	*	*	*	*	*	*
6g/	4dd/]	[1a	.	.	4dd\]	.	.
6c#X/	.	.	.	.	.	.	.
.	4cc#X/	.	.	.	(4cc#X\	.	.
6A/	.	.	.	.	.	.	.
6E/	4dd/	.	.	.	4dd\)	.	.
6c#/	.	.	.	.	.	.	.
.	4ee/	.	.	.	(4ee\	.	.
*Xped	*	*	*	*	*	*	*
6A/)	.	.	.	.	.	.	.
*clefF4	*	*	*	*	*	*	*
=320	=320	=320	=320	=320	=320	=320	=320
*ped	*	*	*	*	*	*	*
(6f\	[1ff	2a\]	.	.	4ff\)	.	.
6A\	.	.	.	.	.	.	.
.	.	.	.	.	(4aa\	.	.
6F\	.	.	.	.	.	.	.
6D\	.	4bn\	.	.	4bbn\)	.	.
6A\	.	.	.	.	.	.	.
.	.	4cc#X\	.	.	(4ccc#X\	.	.
6F\	.	.	.	.	.	.	.
*Xped	*	*	*	*	*	*	*
=321	=321	=321	=321	=321	=321	=321	=321
*ped	*	*	*	*	*	*	*
6C/	4ff/]	[1dd	.	.	4ddd\)	.	.
6d\	.	.	.	.	.	.	.
.	4ee/	.	.	.	4ccc#X\	.	.
6A-X\	.	.	.	.	.	.	.
6F\	4ff/	.	.	.	4ddd\	.	.
6A-\	.	.	.	.	.	.	.
.	4gg/	.	.	.	4eee\	.	.
6F\)	.	.	.	[[	.	.	.
*Xped	*	*	*	*	*	*	*
!!LO:LB:g=original
=322	=322	=322	=322	=322	=322	=322	=322
*ped	*	*	*	*	*	*	*
8BB- 8BBB-/	8aa-X/)	8dd\]	.	.	4fff\	.	.
8r	8ryy	8ryy	.	.	.	.	.
[4a-X [4d [4B- [4F\	([4fff [4ccc [4aa- [4ff\	2.ryy	.	ff	4r	.	.
8a-] 8d] 8B-] 8F\]	8fff]L 8ccc] 8aa-] 8ff\]	.	.	.	(>[>2B-/	.	ff
8r	8ddd\	.	.	.	.	.	.
4r	8ccc\	.	.	.	.	.	.
.	8aa-\J	.	.	.	.	.	.
*	*v	*v	*	*	*	*	*
=323	=323	=323	=323	=323	=323	=323
2r	8ff\L	.	.	2.B-/]	.	.
.	8dd\	.	.	.	.	.
.	8cc\	.	.	.	.	.
.	8a-X\J	.	.	.	.	.
[2BB- [2BBB-^>/	8ff\L	.	.	.	.	.
.	8dd\	.	.	.	.	.
.	8cc\	.	.	4c/)	.	.
.	8a-\J	.	.	.	.	.
=324	=324	=324	=324	=324	=324	=324
2BB-] 2BBB-/]	8f/L	.	.	(2.d/	.	.
.	8d/	.	.	.	.	.
.	8c/	.	.	.	.	.
.	8A-X/J	.	.	.	.	.
[2B- [2BB-^\	8f/L	.	.	.	.	.
.	8d/	.	.	.	.	.
.	8c/	.	.	4e-X/)	.	.
.	8A-/J	.	.	.	.	.
=325	=325	=325	=325	=325	=325	=325
2B-] 2BB-\]	8D/L	.	.	(2.f/	.	.
.	8A-X/	.	.	.	.	.
.	8B-/	.	.	.	.	.
.	8f/J	.	.	.	.	.
[2BB- [2BBB-^>/	8d/L	.	.	.	.	.
.	8a-X/	.	.	.	.	.
.	8b-/	.	.	4g/)	.	.
.	8ff/J)	.	.	.	.	.
=326	=326	=326	=326	=326	=326	=326
4BB-] 4BBB-/]	(8dd\L	.	.	[1a-X	.	.
.	8aa-X\	.	.	.	.	.
4r	8bb-\	.	.	.	.	.
.	8fff\J	.	.	.	.	.
8r	8bb-\L	.	.	.	.	.
(8a-X\L	8aa-\	.	.	.	.	.
8d\	8dd\	.	.	.	.	.
8B-\J	8b-\J	.	.	.	.	.
!!LO:PB:g=original
=327	=327	=327	=327	=327	=327	=327
4F\)	8a-X/L	.	>	1a-X_	.	.
.	8d/	.	.	.	.	.
4r	8a-/	.	.	.	.	.
.	8b-/J	.	.	.	.	.
8r	8ff/L	.	.	.	.	.
(8A-X\L	8b-/	.	.	.	.	.
8D\	8a-/	.	.	.	.	.
8BB-\J	8d/J)	.	]	.	.	.
*Xped	*	*	*	*	*	*
=328	=328	=328	=328	=328	=328	=328
*	*^	*	*	*	*	*
*ped	*	*	*	*	*	*	*
4FF/)	(4.A-X/	8A-\L	.	.	2a-/]	.	.
.	.	8D\	.	.	.	.	.
4r	.	8A-\	.	.	.	.	.
.	8c/	8c\J	.	.	.	.	.
4r	4.B-/	8B-\L	.	.	2r	.	.
.	.	8F\	.	.	.	.	.
[>4BB-/	.	8A-\	.	.	.	.	.
.	8e-X/	8e-\J	.	.	.	.	.
=329	=329	=329	=329	=329	=329	=329	=329
4BB-] 4BBB-/	4.d/	8d\L	.	<	1r	.	.
.	.	8A-X\	.	.	.	.	.
4r	.	8d\	.	.	.	.	.
.	8g/	8g\J	.	.	.	.	.
8r	4.f/	8f\L	.	.	.	.	.
(8F/L	.	8A-\	.	.	.	.	.
8BB-/	.	8d\	.	.	.	.	.
8FF/J	8b-/)	8b-\J	.	[	.	.	.
=330	=330	=330	=330	=330	=330	=330	=330
4BBB-/)	(4.a-X/	8a-\L	.	.	1r	.	.
*Xped	*	*	*	*	*	*	*
.	.	8D\	.	.	.	.	.
4r	.	8A-X\	.	.	.	.	.
.	8c/	8c\J	.	.	.	.	.
4r	4.B-/	8B-\L	.	.	.	.	.
.	.	8D\	.	.	.	.	.
[>4BB-/	.	8A-\	.	.	.	.	.
.	8e-X/	8e-\J	.	.	.	.	.
=331	=331	=331	=331	=331	=331	=331	=331
*	*	*^	*	*	*	*	*
*	*	*	*^	*	*	*	*	*
!	!	!	!	!	!	!	!LO:TX:b:i:t=espress.	!	!
4BB-] 4BBB-/	4.d/	8d\L	2ryy	2ryy	.	.	[1f^>	.	.
.	.	8F\	.	.	.	.	.	.	.
4r	.	8A-X\	.	.	.	.	.	.	.
.	8g/	8g\J	.	.	.	.	.	.	.
8r	4.f/	8f\L	8ryy	4ryy	.	.	.	.	.
(8F/L	.	8A-\	[<4.A-/	.	.	.	.	.	.
8BB-/	.	8d\	.	[<4d/	.	.	.	.	.
8FF/J	8b-/	8b-\J)	.	.	.	.	.	.	.
*	*v	*v	*v	*v	*	*	*	*	*
=332	=332	=332	=332	=332	=332	=332
4BBB-/)	[1a-X 1d_ 1A-_	.	.	2f/]	.	.
4r	.	.	.	.	.	.
!	!LO:TX:a:i:t=rit. un poco	!	!	!LO:TX:a:i:t=riten. un poco	!	!
4r	.	.	.	(2en/	.	.
[4F\	.	.	.	.	.	.
=333	=333	=333	=333	=333	=333	=333
4F\]	1a-] 1d] 1A-]	.	.	2f/	.	.
(4BB-'/	.	.	.	.	.	.
4FF'/	.	.	.	2a-X/)	.	.
4BBB-'/)	.	.	.	.	.	.
!!LO:LB:g=original
=334||	=334||	=334||	=334||	=334||	=334||	=334||
!!!OMD: Molto sostenuto.
*M4/4	*M4/4	*	*	*M4/4	*	*
*met(c)	*met(c)	*	*	*met(c)	*	*
2D-X 2DD-X/	4r	.	p	[4g/	.	p
.	([4g 4e [4G/	.	.	16g/LL]	.	.
.	.	.	.	(16f#X/	.	.
.	.	.	.	16g/	.	.
.	.	.	.	16b-/JJ)	.	.
[2C [2CC/	4g] [4e-X 4G/]	.	.	[4a/	.	.
.	4f#X 4e-] 4F#X/)	.	.	16a/LL]	.	<
.	.	.	.	(16g#X/	.	.
.	.	.	.	16a/	.	.
.	.	.	.	16ee-X/JJ)	.	.
=335	=335	=335	=335	=335	=335	=335
4C] 4CC/]	[2.fn 2.d 2.A-X 2.Fn/	.	.	[4dd\	.	.
*	*	*	*	*Xtuplet	*	*
2BBn 2BBBn/	.	.	<	12dd\L]	.	.
.	.	.	.	(12dd\	.	.
.	.	.	.	12ee-X\J	.	<
.	.	.	.	12ff\L)	.	.
.	.	.	.	(12ff\	.	.
.	.	.	[	12gg\J	.	.
!	!	!	!LO:DY:rj	!	!	!
4E-X 4EE-X/	4f] 4c 4A- 4F/	.	f	12aa-X\L)	.	.
.	.	.	.	(12aa-~\	.	.
.	.	.	.	12aa-~\J)	.	[
=336	=336	=336	=336	=336	=336	=336
[1D [>1GG [1DD	[1f [1Bn [>1G [1F	.	.	(8aa-X\L	.	.
!	!	!	!	!LO:TX:b:i:t=con passione	!	!
.	.	.	.	8dd\J)	.	.
.	.	.	.	16r	.	.
.	.	.	.	(16dd\LL	.	.
.	.	.	.	16ee-X\	.	.
.	.	.	.	16ff\JJ)	.	.
.	.	.	.	16ff\LL	.	.
.	.	.	.	(16bn\	.	.
.	.	.	.	16cc\	.	.
.	.	.	.	16dd\JJ)	.	.
.	.	.	.	16dd/LL	.	.
.	.	.	.	(16f/	.	.
.	.	.	.	16g/	.	.
.	.	.	.	16a-X/JJ)	.	.
=337	=337	=337	=337	=337	=337	=337
2.D] 2.GG] 2.DD/]	8f] 8B] 8G] 8F/]	.	.	(4dd\	.	.
.	16r	.	.	.	.	.
!	!LO:TX:b:i:t=dolce	!	!	!	!	!
.	(16gg\	.	.	.	.	.
.	16ff\LL	.	.	[4g/	.	.
.	16bn\	.	.	.	.	.
.	16g\	.	.	.	.	.
.	16f\JJ	.	.	.	.	.
.	16Bn/LL	.	.	8g/L])	.	.
.	16G/	.	.	.	.	.
.	16F/	.	.	(8g/	.	>
.	16f/JJ	.	.	.	.	.
(4GG 4GGG/	16d/LL	.	.	8a/	.	.
.	16B/	.	.	.	.	.
.	16G/	.	.	8bn/J)	.	]
.	16F/JJ)	.	.	.	.	.
*	*clefF4	*	*	*	*	*
!!LO:LB:g=original
=338	=338	=338	=338	=338	=338	=338
1BB-X 1BBB-X)	8r	.	.	(4dd\	.	.
.	([8C^>/	.	p	.	.	.
.	16C\LL]	.	.	[4cc\	.	.
.	16F#X\	.	.	.	.	.
.	16G\	.	.	.	.	.
.	16A\JJ	.	.	.	.	.
.	16F#\LL	.	<	8cc\L])	.	<
.	16G\	.	.	.	.	.
.	16A\	.	.	(8gg\	.	.
.	16B-\JJ	.	.	.	.	.
*	*clefG2	*	*	*	*	*
.	16c/LL	.	.	8ee\	.	.
.	16e/	.	.	.	.	.
.	16f#X/	.	.	8cc\J)	.	.
.	16g/JJ	.	.	.	.	.
=339	=339	=339	=339	=339	=339	=339
(2.AA 2.AAA/	8a/L)	.	.	(4ee-X\	.	.
*	*clefF4	*	*	*	*	*
.	([8C^/J	.	.	.	.	.
.	16C\LL]	.	.	[4f#X/	.	.
.	16F#X\	.	.	.	.	.
.	16G#X\	.	.	.	.	.
.	16A\JJ	.	.	.	.	.
*	*clefG2	*	*	*	*	*
.	16Bn/LL	.	.	8f#/L])	.	.
.	16c/	.	.	.	.	.
.	16d/	.	.	((8f#/	.	.
.	16e-X/JJ	.	.	.	.	.
4FF#X 4FFF#X/)	16d/LL	.	.	8a/)	.	.
.	16c/	.	.	.	.	.
.	16.a/)	.	.	8cc/J)	.	.
.	[32a/JJk	.	.	.	.	.
=340	=340	=340	=340	=340	=340	=340
2.GG 2.GGG/	8a/L]	.	.	(4cc\	.	.
*	*clefF4	*	*	*	*	*
.	([8D^/J	.	.	.	.	.
.	16D\LL]	.	.	[4b-\	.	.
.	16C#X\	.	.	.	.	.
.	16D\	.	.	.	.	.
.	16F#X\JJ	.	.	.	.	.
.	16G\LL	.	>	8b-/L])	.	>
.	16B-\	.	.	.	.	.
.	16c#X\	.	.	(8b-/	.	.
.	16d\JJ	.	.	.	.	.
*	*clefG2	*	*	*	*	*
(<4BB- 4BBB-/	16e/LL	.	.	8g/	.	.
.	16d/	.	.	.	.	.
.	16g/	.	.	8e/J)	.	]
.	16d/JJ	.	]	.	.	.
!!LO:LB:g=original
=341	=341	=341	=341	=341	=341	=341
2AA 2AAA/	16c#X\LL)	.	pp	2a/	.	p
.	(16gg\	.	.	.	.	.
.	16ee\	.	.	.	.	.
.	16cc#X\JJ	.	.	.	.	.
.	16g/LL	.	.	.	.	.
.	16e/	.	.	.	.	.
.	16c#X/	.	.	.	.	.
.	16g/JJ)	.	.	.	.	.
2GG#X 2GGG#X/	16r	.	.	(2bnt\	.	.
.	(16dd\LL	.	.	.	.	.
.	16bn\	.	.	.	.	.
.	16f\JJ	.	.	.	.	.
!	!LO:TX:t=P:problem:mixed beam	!	!	!	!	!
.	16d\LL	.	.	.	.	.
.	16Bn</	.	.	.	.	.
.	16F</	.	.	.	.	.
.	16d\JJ)	.	.	.	.	.
.	.	.	.	16qqa/L	.	.
.	.	.	.	16qqb/J	.	.
=342	=342	=342	=342	=342	=342	=342
1AA 1AAA)	16r	.	.	4cc\)	.	.
.	(16ff\LL	.	.	.	.	.
.	16cc\	.	.	.	.	.
.	16a\JJ	.	.	.	.	.
.	16f/LL	.	.	8r	.	.
.	16c/	.	.	.	.	.
!	!	!	!	!LO:TX:b:i:t=dolce	!	!
.	16A/	.	.	([8ffu\	.	.
.	16f/JJ	.	.	.	.	.
.	16c</LL	.	.	8ff\L]	.	.
.	16A</	.	.	.	.	.
.	16F</	.	.	8cc\)	.	.
.	16c</JJ	.	.	.	.	.
.	16A</LL	.	.	8a\	.	.
.	16C</	.	.	.	.	.
.	16F</	.	.	8f\J	.	.
.	16A</JJ)	.	.	.	.	.
=343	=343	=343	=343	=343	=343	=343
(<2BB- 2BBB-/	16r	.	.	4a/	.	.
.	(16aa\LL	.	<	.	.	.
.	16gg\	.	.	.	.	.
.	16ff\JJ	.	.	.	.	.
.	16dd/LL	.	.	[4g/	.	<
.	16g/	.	.	.	.	.
.	16f/	.	.	.	.	.
.	16dd/JJ	.	[	.	.	.
2BBn 2BBBn/	16g/LL	.	>	8g/]	.	[
.	16f/	.	.	.	.	.
.	16d/	.	.	(4ff\	.	p
.	16g/JJ	.	.	.	.	.
.	16f/LL	.	.	.	.	.
.	16G/	.	]	.	.	.
.	16d/	.	.	8g/)	.	.
.	16f/JJ)	.	.	.	.	.
!!LO:LB:g=original
=344	=344	=344	=344	=344	=344	=344
N[1C [1CC)	16r	.	.	(4.b-\	.	.
.	(16gg\LL	.	.	.	.	.
.	16ff\	.	.	.	.	.
.	16b-\JJ	.	.	.	.	.
.	16g/LL	.	.	.	.	.
.	16f/	.	.	.	.	.
!	!	!	!	!	!	!LO:HP:a
.	16B-/	.	.	[8d/	.	<
.	16g/JJ	.	.	.	.	.
.	16f/LL	.	.	8d/])	.	.
.	16B-/	.	.	.	.	.
.	16G/	.	.	(4g/	.	[
.	16b-/JJ	.	.	.	.	.
.	16g/LL	.	.	.	.	.
.	16e/	.	.	.	.	.
.	16c/	.	.	8e/)	.	.
.	16B-/JJ	.	.	.	.	.
=345	=345	=345	=345	=345	=345	=345
4CC_\	16G<LL 16C<N]/	.	.	(4d/	.	.
.	16E</	.	.	.	.	.
.	16C</	.	.	.	.	.
.	16BBn</JJ	.	.	.	.	.
16CC\LL]	16BB-X</)	.	.	[4c/	.	.
16GG\	16r<	.	.	.	.	.
(>16EE\	8r<	.	.	.	.	.
16DD\JJ	.	.	.	.	.	.
8CC\L)	2r<	.	>	8c/])	.	.
!LO:TX:b:i:t=rit.	!	!	!	!LO:TX:b:i:t=riten.	!	!
(>8BBB-'>\	.	.	.	(4cc\	.	>
8GGG'>\	.	.	.	.	.	.
.	.	.	.	8qee/	.	.
8CC'>\J)	.	.	.	16.dd\LL	.	.
.	.	.	]	32cc\JJk)	.	]
!!LO:PB:g=original
=346||	=346||	=346||	=346||	=346||	=346||	=346||
!!!OMD: Molto vivace.
*M2/2	*M2/2	*	*	*M2/2	*	*
*met(c|)	*met(c|)	*	*	*met(c|)	*	*
*	*^	*	*	*	*	*
*tremolo	*	*	*	*	*	*	*
8FFF\L	8r	2ryy	.	pp	2cc\	.	p
8FF\	(8C</L	.	.	.	.	.	.
8FFF\	8A</	.	.	.	.	.	.
8FF\J	8c</J	.	.	.	.	.	.
8FFF\L	4.f/	8f\L	.	.	(4.aa 4.cc 4.f\	.	.
8FF\	.	8F\	.	.	.	.	.
8FFF\	.	8A\	.	.	.	.	.
8FF\J	8c#X/)	8c#\J	.	.	8gg\)	.	.
=347	=347	=347	=347	=347	=347	=347	=347
!	!	!LO:TX:t=P:problem:mixed beam	!	!	!	!	!
8FFF\L	(4d/	8d\L	.	.	(4.ff\	.	.
8FF\	.	8D</	.	.	.	.	.
8FFF\	4ryy	8B-</	.	.	.	.	.
8FF\J	.	8d\J	.	.	8ee\)	.	<
8FFF\L	4.g/	8g\L	.	.	4dd\	.	.
8FF\	.	8G\	.	.	.	.	.
8FFF\	.	8B-\	.	.	4bb- 4b-\	.	[[
8FF\J	8d#X/	8d#\J	.	.	.	.	.
=348	=348	=348	=348	=348	=348	=348	=348
8FFF\L	4e/	8e\L	.	<	([2aa 2b-\	.	.
8FF\	.	8G\	.	.	.	.	.
8FFF\	4ryy	8B-\	.	.	.	.	.
8FF\J	.	8e\J	.	.	.	.	.
8FFF\L	4.a/	8a\L	.	.	8aa\L]	.	.
8FF\	.	8B-\	.	.	8gg\)	.	.
8FFF\	.	8e\	.	.	8ee\	.	.
8FF\J	8g/	8g\J	.	[	8b-\J	.	.
*Xtremolo	*	*	*	*	*	*	*
=349	=349	=349	=349	=349	=349	=349	=349
2FF 2FFF/	4.f/	8f\L	.	>	4a/	.	.
.	.	8A\	.	.	.	.	.
.	.	8c\	.	.	4r	.	.
.	8e-X/	8e-\J	.	.	.	.	.
!	!	!LO:N:vis=2	!	!	!	!	!
2FF#X 2FFF#X/	2d/	(>8d\L	.	]	(4.ccc 4.dd^\	.	>
.	.	8A\	.	.	.	.	.
.	.	8B-\	.	.	.	.	.
.	.	8c\J)	.	.	16bb-\LL	.	.
.	.	.	.	.	16aa\JJ)	.	]
!!LO:LB:g=original
=350	=350	=350	=350	=350	=350	=350	=350
*tremolo	*	*	*	*	*	*	*
!	!	!	!	!LO:DY:rj	!	!	!
8GGG/L	(4d/)	8B-\L	.	p	4gg\	.	.
8GG/	.	8D\	.	.	.	.	.
8GGG/	4ryy	8B-\	.	.	4r	.	.
8GG/J	.	8d\J	.	.	.	.	.
!	!	!	!	!	!LO:N:n=4:vis=4	!	!
!	!	!	!	!	!LO:N:n=3:vis=4	!	!
!	!	!	!	!	!LO:N:n=2:vis=4	!	!
8GGG/L	4.g/	8g\L	.	.	(>4.bb- 4.b- 4.d 4.G/	.	.
8GG/	.	8G\	.	.	.	.	.
8GGG/	.	8B-\	.	.	.	.	.
8GG/J	8e-X/	8e-\J	.	.	8gg\)	.	.
=351	=351	=351	=351	=351	=351	=351	=351
8GGG/L	4.d/	8d\L	.	.	(4.ff#X 4.dd\	.	.
8GG/	.	8A\	.	.	.	.	.
8GGG/	.	8c\	.	.	.	.	.
8GG/J	8f#X/	8f#\J	.	<	8ee-X\)	.	<
8FFF#X/L	4.a/	8a\L	.	.	4dd\	.	.
8FF#/	.	8c\	.	.	.	.	.
8FFF#/	.	8d\	.	.	4ccc 4dd\	.	.
8FF#X/J	8cc/)	8cc\J	.	.	.	.	.
*Xtremolo	*	*	*	*	*	*	*
=352	=352	=352	=352	=352	=352	=352	=352
*	*	*	*	*	*^	*	*
4GG 4GGG/	(4b-/	8b-\L	.	.	([2bb-/	4b- 4d\	.	.
.	.	8d\	.	.	.	.	.	.
4r	4ryy	8g\	.	.	.	2.ryy	.	.
.	.	8b-\J	.	.	.	.	.	.
!	!	!LO:N:vis=2	!	!	!	!	!	!
2FFn 2FFFn/	2gg/	8gg\L	.	.	8bb-/L]	.	.	.
.	.	8g\	.	.	8aa/)	.	.	.
.	.	8b-\	.	.	8gg/	.	.	.
.	.	8dd\J	.	.	8dd/J	.	.	.
*	*v	*v	*	*	*	*	*	*
*	*	*	*	*v	*v	*	*
=353	=353	=353	=353	=353	=353	=353
2EE 2EEE/	8gg\L	.	.	4b-\	.	.
.	8ee\	.	.	.	.	.
.	8dd\	.	.	(4dd\	.	.
.	8b-\J	.	.	.	.	.
2AA 2AAA/	8g/L	.	.	4.cc#X\)	.	.
.	8e/	.	.	.	.	.
.	8c#X/	.	.	.	.	.
.	8A/J)	.	.	(16dd\LL	.	.
.	.	.	.	16ee\JJ	.	.
!!LO:LB:g=original
=354	=354	=354	=354	=354	=354	=354
8GG 8GGG/	8Bn/	.	.	8ff\)	.	.
8r	8r	.	.	8r	.	.
*ped	*	*	*	*	*	*
[4f [4d [4c [4G\	([4aa [4ff [4dd [4a\	.	ff	4r	.	.
8f] 8d] 8c] 8G\]	8aa]L 8ff] 8dd] 8a\]	.	.	2r	.	.
*Xped	*	*	*	*	*	*
8r	8gg\	.	.	.	.	.
4r	8ff\	.	.	.	.	.
.	8dd\J	.	.	.	.	.
=355	=355	=355	=355	=355	=355	=355
2r	8a/L	.	.	1r	.	.
.	8g/	.	.	.	.	.
.	8f/	.	.	.	.	.
.	8d/J	.	.	.	.	.
2GG 2GGG\	8Bn</L	.	.	.	.	.
.	8G</	.	.	.	.	.
.	8F</	.	.	.	.	.
.	8D</J)	.	.	.	.	.
=356	=356	=356	=356	=356	=356	=356
(4.C 4.CC/	(4.ee 4.e/	.	.	4r	.	.
.	.	.	.	([4ddd 4ee 4g\	.	ff
8D 8DD/	8dd 8d/	.	.	.	.	.
4E 4EE/)	4cc 4c/)	.	.	8ddd\L]	.	.
.	.	.	.	8ccc\	.	.
4F 4FF'/	4ddd 4dd'\	.	.	8bb-\	.	.
.	.	.	.	8gg\J)	.	.
=357	=357	=357	=357	=357	=357	=357
4E 4EE/	4ccc 4cc'\	.	.	(8ee\L	.	.
.	.	.	.	8cc\	.	.
4r	4bb- 4b-'\	.	.	8b-\	.	.
.	.	.	.	8g\J	.	.
4C 4CC/	4aa 4a'\	.	.	8e/L	.	.
.	.	.	.	8c/	.	.
4r	4gg 4g'\	.	.	8B-/	.	.
.	.	.	.	8G/J)	.	.
=358	=358	=358	=358	=358	=358	=358
8GG 8GGG/	4r	.	.	(4.f/	.	.
8r	.	.	.	.	.	.
*ped	*	*	*	*	*	*
[4f [4d [4c [4G\	([4aa [4ff [4dd [4a\	.	.	.	.	.
.	.	.	.	8e/	.	.
8f] 8d] 8c] 8G\]	8aa]L 8ff] 8dd] 8a\]	.	.	4d/)	.	.
*Xped	*	*	*	*	*	*
8r	8gg\	.	.	.	.	.
4r	8ff\	.	.	4aa 4a\	.	.
.	8dd\J	.	.	.	.	.
!!LO:LB:g=original
=359	=359	=359	=359	=359	=359	=359
2r	8a/L	.	>	(4.gg 4.bnu\	.	.
.	8g/	.	.	.	.	.
.	8f/	.	.	.	.	.
.	8d/J	.	]	8ff\)	.	.
2GG 2GGG\	8Bn</L	.	.	(8dd/L	.	>
.	8G</	.	.	8bn/	.	.
.	8F</	.	.	8g/	.	.
.	8D</J)	.	.	8f/J	.	]
=360	=360	=360	=360	=360	=360	=360
!	!LO:TX:a:i:t=risoluto	!	!	!	!	!
2C 2CC/	(4.g 4.G/	.	f	8e/L)	.	.
.	.	.	.	(<8g/	.	.
.	.	.	.	8a/	.	.
.	8f 8F/	.	.	8b-X/J	.	.
2C#X 2CC#X/	4e 4E/)	.	.	8a\L)	.	.
.	.	.	.	(8gg\	.	.
.	4b- 4B-'/	.	.	8aa\	.	.
.	.	.	.	8gg\J	.	.
=361	=361	=361	=361	=361	=361	=361
2D 2DD/	(4.a 4.A/	.	.	8ff\L)	.	.
.	.	.	.	(8a\	.	.
.	.	.	.	8bn\	.	.
.	8g 8G/	.	.	8cc\J	.	.
2D#X 2DD#X/	4f 4F/)	.	.	8b\L)	.	.
.	.	.	.	(8aa\	.	.
.	4ff 4f'\	.	.	8bbn\	.	.
.	.	.	.	8aa\J	.	.
=362	=362	=362	=362	=362	=362	=362
2E 2EE/	(4.ee 4.e/	.	.	8gg#X\L)	.	.
.	.	.	.	(8bn\	.	.
.	.	.	.	8cc\	.	.
.	8g#X 8G#X/	.	.	8dd\J	.	.
2F#X 2FF#X/	4a 4A/)	.	.	8cc\L)	.	.
.	.	.	.	(8ccc\	.	.
.	4aa 4a'\	.	.	8ddd\	.	.
.	.	.	.	8ccc\J	.	.
=363	=363	=363	=363	=363	=363	=363
2G 2GG/	(4.bb- 4.b-\	.	.	8bb-\L)	.	.
.	.	.	.	(8dd\	.	.
.	.	.	.	8ee\	.	.
.	8aa 8a\	.	.	8ff\J	.	.
2B- 2BB-\	4gg 4g\)	.	.	8ee\L)	.	.
.	.	.	.	(8ddd\	.	.
.	4dd 4d'/	.	.	8ccc#X\	.	.
.	.	.	.	8ddd\J)	.	.
!!LO:LB:g=original
=364	=364	=364	=364	=364	=364	=364
2A 2AA\	4.cc#X 4.c#X/	.	.	(8eee\L	.	.
.	.	.	.	8ccc#X\)	.	.
.	.	.	.	(8aa\	.	.
.	(<8ee 8e/	.	.	8ee\J	.	.
2E 2EE/	4gg 4g\)	.	.	8cc#X/L	.	.
.	.	.	.	8a/	.	.
.	4bb- 4b-'\	.	.	8e/	.	.
.	.	.	.	8c#X/J	.	.
=365	=365	=365	=365	=365	=365	=365
4.C#X 4.CC#X/	4.aa 4.a\	.	.	8B-X/L	.	.
.	.	.	.	8A/)	.	.
.	.	.	.	(8c#X/	.	.
8BB- 8BBB-/	8gg 8g'\	.	.	8e/J	.	.
4AA 4AAA/	4ff 4f'\	.	.	8g\L	.	.
.	.	.	.	8a\	.	.
4A 4AA'\	4ee 4e/	.	.	8cc#X\	.	.
.	.	.	.	8ee\J)	.	.
=366	=366	=366	=366	=366	=366	=366
(4.D 4.DD/	(<4.ff 4.f\	.	.	(8dd/L	.	.
.	.	.	.	8a/)	.	.
.	.	.	.	(8f/	.	.
8E 8EE/	8ee 8e/	.	.	8e/J	.	.
4F 4FF/)	4dd 4d/)	.	.	8d/L	.	.
.	.	.	.	8a/)	.	.
4C 4CC'/	4aa 4a'\	.	.	8dd/	.	.
.	.	.	.	8ee/J	.	.
=367	=367	=367	=367	=367	=367	=367
(4.BBn 4.BBBn/	(4.dd 4.d/	.	.	(8ff\L	.	.
.	.	.	.	8ee\)	.	.
.	.	.	.	8ff\	.	.
8C 8CC/	8cc 8c/	.	.	8ee\J	.	.
4D 4DD/)	4bn 4Bn/)	.	.	8ff\L	.	.
.	.	.	.	8dd\	.	.
4AA 4AAA'/	4ff 4f'\	.	.	8bn\	.	.
.	.	.	.	8f\J	.	.
=368	=368	=368	=368	=368	=368	=368
(4.GG 4.GGG/	(4.bn 4.Bn/	.	.	(8aa\L	.	.
.	.	.	.	8gg\)	.	.
.	.	.	.	8aa\	.	.
8AA 8AAA/	8a 8A/	.	.	8gg\J	.	.
4BBn 4BBBn/)	4g 4G/)	.	.	(8ff\L	.	.
.	.	.	.	8dd\)	.	.
4FF 4FFF'/	([4dd [4d/	.	.	8bn\	.	.
.	.	.	.	8g\J	.	.
!!LO:PB:g=original
=369	=369	=369	=369	=369	=369	=369
4EE 4EEE/	4dd] 4d/]	.	.	(8bb-\L	.	.
.	.	.	.	8aa\)	.	.
4r	4cc 4c/	.	.	8bb-\	.	.
.	.	.	.	8gg\J	.	.
4C 4CC/	4b-X 4B-X'/)	.	.	(8ee/L	.	.
.	.	.	.	8cc/)	.	.
4r	4g 4G'/	.	.	8b-/	.	.
.	.	.	.	8g/J	.	.
=370	=370	=370	=370	=370	=370	=370
8FF 8FFF/	8f 8A 8F/	.	.	4a/	.	.
8r	8r	.	.	.	.	.
*ped	*	*	*	*	*	*
[4f [4c#X [>4A [4F\	([4aa [4ff [>4cc#X [4a\	.	.	4r	.	.
!	!	!	!	!LO:TX:b:i:t=con passione	!	!
8f] 8c#] 8A] 8F\]	8aa]L 8ff] 8cc#] 8a\]	.	.	[2fff [2ff\	.	.
*Xped	*	*	*	*	*	*
8r	8gg\	.	.	.	.	.
4r	8ff\	.	.	.	.	.
.	8cc#\J	.	.	.	.	.
=371	=371	=371	=371	=371	=371	=371
2r	8a/L	.	.	2fff] 2ff\]	.	.
.	8g/	.	.	.	.	.
.	8f/	.	.	.	.	.
.	8c#X/J	.	.	.	.	.
(2FF 2FFF/	8A/L	.	.	2aa 2a\	.	.
.	8c#/	.	.	.	.	.
.	8f/	.	.	.	.	.
.	8a/J)	.	.	.	.	.
=372	=372	=372	=372	=372	=372	=372
2GG 2GGG/	(8B-/L	.	.	2aa 2b-\	.	.
.	8f/	.	.	.	.	.
.	8d/	.	.	.	.	.
.	8B-/J	.	.	.	.	.
2BB- 2BBB-/	8G/L	.	.	(4.gg 4.b-\	.	.
.	8d/	.	.	.	.	.
.	8e/	.	.	.	.	.
.	8f/J	.	.	8ddd 8ff\)	.	.
!!LO:LB:g=original
=373	=373	=373	=373	=373	=373	=373
*	*	*	*	*^	*	*
2C 2CC/)	8B-/L	.	.	2ddd 2ee\	2ryy	.	.
.	8b-/	.	.	.	.	.	.
.	8g/	.	.	.	.	.	.
.	8e/J	.	.	.	.	.	.
4r	8G/L	.	.	(4.ccc/	2ee\	.	.
.	8B-/	.	.	.	.	.	.
4CC 4CCC/	8e/	.	.	.	.	.	.
.	8g/J)	.	.	8bb-/)	.	.	.
*	*	*	*	*v	*v	*	*
=374	=374	=374	=374	=374	=374	=374
8FF 8FFF/	8a 8A/	.	.	4aa 4ff\	.	.
8r	8r	.	.	.	.	.
[4f [4c#X [4A [4F\	[4aa [4ff [4cc#X [4a\	.	.	4r	.	.
8f] 8c#] 8A] 8F\]	8aa]L 8ff] 8cc#] 8a\]	.	.	[2aaa [2aa\	.	.
8r	8gg\	.	.	.	.	.
4r	8ff\	.	.	.	.	.
.	8cc#\J	.	.	.	.	.
=375	=375	=375	=375	=375	=375	=375
*	*	*	*	*tuplet	*	*
!	!	!	!	!LO:TUP:a	!	!
2r	8a/L	.	.	3aaa] 3aa\]	.	.
.	8g/	.	.	.	.	.
.	8f/	.	.	.	.	.
.	.	.	.	(6aa\	.	.
.	8c#X/J	.	.	.	.	.
!	!	!	!	!LO:TUP:a	!	!
4r	8A/L	.	.	6fff\)	.	.
.	8c#/	.	.	.	.	.
.	.	.	.	6eee\	.	.
([4AA [4AAA/	8f/	.	.	.	.	.
.	.	.	.	6ddd\	.	.
.	8g/J	.	.	.	.	.
=376	=376	=376	=376	=376	=376	=376
4AA] 4AAA/]	8a/L	.	.	4.ddd\	.	.
.	8g/	.	.	.	.	.
2BB- 2BBB-/)	8f/	.	.	.	.	.
.	8d/J	.	.	8dd\	.	.
.	8G/L	.	.	(4ff#X\	.	.
.	8d/	.	.	.	.	.
(4BBn 4BBBn/	8e/	.	.	4gg\)	.	.
.	8f/J	.	.	.	.	.
!!LO:LB:g=original
=377	=377	=377	=377	=377	=377	=377
2C 2CC/)	8b-/L	.	.	4ddd 4b- 4d 4G/	.	.
.	8g/	.	.	.	.	.
.	8f/	.	.	(2dd\	.	.
.	8d/J	.	.	.	.	.
4r	8G/L	.	.	.	.	.
.	8B-/	.	.	.	.	.
4CC 4CCC'/	8e/	.	.	4ee\	.	.
.	8g/J	.	.	.	.	.
=378	=378	=378	=378	=378	=378	=378
8FF 8FFF'/	8f 8A/	.	.	4ff\)	.	.
8r	8r	.	.	.	.	.
4r	(>8a/L	.	.	4r	.	.
.	8g/J	.	.	.	.	.
(4.FF/	8f/L	.	.	([2aa [2a\	.	.
.	8c#X/	.	.	.	.	.
.	8A/	1	.	.	.	.
16GG/LL	8F/J	3	.	.	.	.
16AA/JJ	.	.	.	.	.	.
=379	=379	=379	=379	=379	=379	=379
4BB-/)	8D/L	2	.	4.aa] 4.a\]	.	.
.	8F/	1	.	.	.	.
4r	8B-/	.	.	.	.	.
.	8d/J	.	.	8gg'\)	.	.
4D-X 4FF 4BBB-/	8g/L	.	.	(4ff'\	.	.
.	8d-X/	.	.	.	.	.
4r	8B-/	.	.	4cc#X'\)	.	.
.	8E/J	.	.	.	.	.
=380	=380	=380	=380	=380	=380	=380
4FF 4FFF/	8A/L	.	.	4a/	.	.
.	8c/	.	.	.	.	.
4r	8f/	.	.	8A/	.	.
.	8a/J	.	.	8r	.	.
8qFF/	.	.	.	.	.	.
8A\L	8ff\L	.	.	[2a [2A/	.	.
8F\	8cc#X\	.	.	.	.	.
8G\	8a\	.	.	.	.	.
8A\J	8f\J	.	.	.	.	.
!!LO:LB:g=original
=381	=381	=381	=381	=381	=381	=381
4B-\	8d/L	.	.	(>4.a] 4.A/]	.	.
.	8f/	.	.	.	.	.
4r	8b-/	.	.	.	.	.
.	8dd/J	.	.	8g'/)	.	.
4d-X 4F 4BB-\	8gg\L	.	.	(4f'/	.	.
.	8dd-X\	.	.	.	.	.
4r	8b-\	.	.	4c#X'/)	.	.
.	8e\J)	.	.	.	.	.
=382	=382	=382	=382	=382	=382	=382
!	!	!	!	!LO:N:vis=4	!	!
8FFF/L	4r	.	.	(4.a'/	.	.
8FF/	.	.	.	.	.	.
8FFF/	(8aaa\L	.	p	.	.	.
8FF/J	8ggg\J	.	.	8g'/)	.	.
8FFF/L	8fff\L	.	.	(>4f'/	.	.
8FF/	8ccc#X\	.	.	.	.	.
8FFF/	8aa\	.	.	4c#X'/)	.	.
8FF/J	8gg\J	.	.	.	.	.
=383	=383	=383	=383	=383	=383	=383
*tremolo	*	*	*	*	*	*
!	!	!	!LO:HP:t=cresc. molto	!	!	!
8FFF/L	8ff\L	.	<	(4.f/	.	.
8FF/	8cc#X\	.	.	.	.	.
8FFF/	8a\	.	.	.	.	.
8FF/J	8g\J	.	.	8e'/)	.	.
8FFF/L	8f/L	.	.	(4d'/	.	.
8FF/	8d/	.	.	.	.	.
8FFF/	8A</	.	.	4A'/)	.	.
8FF/J	8G</J)	.	.	.	.	.
*	*clefF4	*	*	*	*	*
=384	=384	=384	=384	=384	=384	=384
*	*	*	*	*^	*	*
!	!	!	!	!	!	!	!LO:HP:t=cresc. molto
8GGG/L	(8F\L	.	.	(4.dd/	4f 4G\	.	<
8GG/	8C#X\	.	.	.	.	.	.
8GGG/	8D\	.	.	.	2.ryy	.	.
8GG/J	8E\J	.	.	8cc'/)	.	.	.
8GGG/L	8F/L	.	.	(4bn'>/	.	.	.
8GG/	8Bn/	.	.	.	.	.	.
*	*clefG2	*	*	*	*	*	*
8GGG/	8d/	.	.	4f'/)	.	.	.
8GG/J	8e/J	.	.	.	.	.	.
!!LO:LB:g=original
=385	=385	=385	=385	=385	=385	=385	=385
8GGG/L	8f/L	.	.	(4.aa/	4bn\	.	.
8GG/	8c#X/	.	.	.	.	.	.
8GGG/	8d/	.	.	.	2.ryy	.	.
8GG/J	8e/J	.	.	8gg/)	.	.	.
8GGG/L	8f\L	.	.	(>4ff/	.	.	.
8GG/	8bn\	.	.	.	.	.	.
8GGG/	8dd\	.	.	4b/)	.	.	.
8GG/J	8ff\J)	.	.	.	.	.	.
*Xtremolo	*	*	*	*	*	*	*
*	*	*	*	*v	*v	*	*
=386	=386	=386	=386	=386	=386	=386
*	*^	*	*	*	*	*
8C: 8CC:/	8aa:/L	4cc: 4f:\	.	ff	4cc\	.	.
8r	(8gg/	.	.	.	.	.	.
4r	8ff/	2.ryy	.	.	4r	.	.
.	8cc/J	.	.	.	.	.	.
8r	8a/L	.	.	.	2r	.	.
(8G\L	8g/	.	.	.	.	.	.
8F\	8f/	.	.	.	.	.	.
8C\J	8c/J	.	.	.	.	.	.
*	*v	*v	*	*	*	*	*
=387	=387	=387	=387	=387	=387	=387
4AA/)	4A/)	.	.	8r	.	.
.	.	.	.	8A/L	.	ff
8r	8r	.	.	8c/	.	.
8G 8GG/	8gg 8g\	.	.	8f/J	.	.
4F 4FF'/	4ff 4f'\	.	.	8a\L	.	.
.	.	.	.	8a\	.	.
4D 4DD'/	4dd 4d'/	.	.	8cc\	.	.
.	.	.	.	8ff\J	.	.
=388	=388	=388	=388	=388	=388	=388
4C 4CC/	4cc 4c/	.	.	4aa\	.	.
4r	4r	.	.	4r	.	.
2r	2r	.	.	2r	.	.
=389	=389	=389	=389	=389	=389	=389
4c 4C\	4ee 4b- 4g\	.	.	4ee 4b- 4g\	.	.
4r	4r	.	.	4r	.	.
2r	2r	.	.	2r	.	.
=390	=390	=390	=390	=390	=390	=390
4FF 4FFF/	4ff 4a 4f\	.	.	4ff 4a 4f\	.	.
4r	4r	.	.	4r	.	.
2r	2r	.	.	2r	.	.
==	==	==	==	==	==	==
*-	*-	*-	*-	*-	*-	*-
!!!system-decoration: <s1>{(s2,s3)}
!!!RDF**kern: > = above
!!!RDF**kern: < = below
!!!RDF**kern: N = linked
!!!ENC: Arkadiusz Malec
!!!END: 2022-03-29
!!!ENC: Andrzej Kubiczek
!!!END: 2022-05-05
!!!YEC: Copyright 2022 Narodowy Instytut Fryderyka Chopina (https://polishscores.org)
!!!YEM: License CC-BY-4.0 (https://creativecommons.org/licenses/by/4.0)
